P3
400 225
255
209 229 255
208 229 255
208 229 255
208 229 255
208 229 255
208 229 255
208 229 255
208 229 255
208 228 255
208 228 255
208 228 255
208 228 255
208 228 255
208 228 255
208 228 255
208 228 255
208 228 255
208 228 255
208 228 255
208 228 255
207 228 255
207 228 255
207 228 255
207 228 255
207 228 255
207 228 255
207 228 255
207 228 255
207 228 255
207 228 255
207 228 255
207 228 255
207 228 255
207 228 255
207 228 255
207 228 255
207 228 255
207 228 255
206 228 255
206 228 255
206 228 255
206 228 255
206 227 255
206 227 255
206 227 255
206 227 255
206 227 255
206 227 255
206 227 255
206 227 255
206 227 255
206 227 255
206 227 255
206 227 255
206 227 255
205 227 255
205 227 255
205 227 255
205 227 255
205 227 255
205 227 255
205 227 255
205 227 255
205 227 255
205 227 255
205 227 255
205 227 255
205 227 255
205 227 255
205 227 255
205 227 255
204 227 255
204 226 255
204 226 255
204 226 255
204 226 255
204 226 255
204 226 255
204 226 255
204 226 255
204 226 255
204 226 255
204 226 255
204 226 255
204 226 255
204 226 255
203 226 255
203 226 255
203 226 255
203 226 255
203 226 255
203 226 255
203 226 255
203 226 255
203 226 255
203 226 255
203 226 255
203 226 255
203 226 255
203 226 255
203 226 255
202 225 255
202 225 255
202 225 255
202 225 255
202 225 255
202 225 255
202 225 255
202 225 255
202 225 255
202 225 255
202 225 255
202 225 255
202 225 255
202 225 255
202 225 255
202 225 255
201 225 255
201 225 255
201 225 255
201 225 255
201 225 255
201 225 255
201 225 255
201 225 255
201 225 255
201 225 255
201 225 255
201 225 255
201 225 255
201 225 255
201 225 255
201 224 255
200 224 255
200 224 255
200 224 255
200 224 255
200 224 255
200 224 255
200 224 255
200 224 255
200 224 255
200 224 255
200 224 255
200 224 255
200 224 255
200 224 255
200 224 255
200 224 255
200 224 255
200 224 255
200 224 255
200 224 255
199 224 255
199 224 255
199 224 255
199 224 255
199 224 255
199 224 255
199 224 255
199 224 255
199 224 255
199 224 255
199 224 255
199 224 255
199 224 255
199 224 255
199 224 255
199 224 255
199 224 255
199 224 255
199 224 255
199 224 255
199 224 255
199 224 255
199 223 255
199 223 255
199 223 255
199 223 255
199 223 255
199 223 255
199 223 255
199 223 255
199 223 255
198 223 255
198 223 255
198 223 255
198 223 255
198 223 255
198 223 255
198 223 255
198 223 255
198 223 255
198 223 255
198 223 255
198 223 255
198 223 255
198 223 255
198 223 255
198 223 255
198 223 255
198 223 255
198 223 255
198 223 255
198 223 255
198 223 255
198 223 255
198 223 255
198 223 255
198 223 255
198 223 255
198 223 255
198 223 255
198 223 255
198 223 255
198 223 255
198 223 255
199 223 255
199 223 255
199 223 255
199 223 255
199 223 255
199 223 255
199 223 255
199 223 255
199 224 255
199 224 255
199 224 255
199 224 255
199 224 255
199 224 255
199 224 255
199 224 255
199 224 255
199 224 255
199 224 255
199 224 255
199 224 255
199 224 255
199 224 255
199 224 255
199 224 255
199 224 255
199 224 255
199 224 255
199 224 255
199 224 255
200 224 255
200 224 255
200 224 255
200 224 255
200 224 255
200 224 255
200 224 255
200 224 255
200 224 255
200 224 255
200 224 255
200 224 255
200 224 255
200 224 255
200 224 255
200 224 255
200 224 255
200 224 255
200 224 255
200 224 255
201 224 255
201 225 255
201 225 255
201 225 255
201 225 255
201 225 255
201 225 255
201 225 255
201 225 255
201 225 255
201 225 255
201 225 255
201 225 255
201 225 255
201 225 255
201 225 255
202 225 255
202 225 255
202 225 255
202 225 255
202 225 255
202 225 255
202 225 255
202 225 255
202 225 255
202 225 255
202 225 255
202 225 255
202 225 255
202 225 255
202 225 255
202 225 255
203 226 255
203 226 255
203 226 255
203 226 255
203 226 255
203 226 255
203 226 255
203 226 255
203 226 255
203 226 255
203 226 255
203 226 255
203 226 255
203 226 255
203 226 255
204 226 255
204 226 255
204 226 255
204 226 255
204 226 255
204 226 255
204 226 255
204 226 255
204 226 255
204 226 255
204 226 255
204 226 255
204 226 255
204 226 255
204 227 255
204 227 255
205 227 255
205 227 255
205 227 255
205 227 255
205 227 255
205 227 255
205 227 255
205 227 255
205 227 255
205 227 255
205 227 255
205 227 255
205 227 255
205 227 255
205 227 255
206 227 255
206 227 255
206 227 255
206 227 255
206 227 255
206 227 255
206 227 255
206 227 255
206 227 255
206 227 255
206 227 255
206 227 255
206 227 255
206 228 255
206 228 255
206 228 255
206 228 255
207 228 255
207 228 255
207 228 255
207 228 255
207 228 255
207 228 255
207 228 255
207 228 255
207 228 255
207 228 255
207 228 255
207 228 255
207 228 255
207 228 255
207 228 255
207 228 255
207 228 255
207 228 255
208 228 255
208 228 255
208 228 255
208 228 255
208 228 255
208 228 255
208 228 255
208 228 255
208 228 255
208 228 255
208 228 255
208 228 255
208 229 255
208 229 255
208 229 255
208 229 255
208 229 255
208 229 255
208 229 255
209 229 255
209 229 255
209 229 255
209 229 255
208 229 255
208 229 255
208 229 255
208 229 255
208 229 255
208 229 255
208 229 255
208 228 255
208 228 255
208 228 255
208 228 255
208 228 255
208 228 255
208 228 255
208 228 255
208 228 255
208 228 255
208 228 255
208 228 255
207 228 255
207 228 255
207 228 255
207 228 255
207 228 255
207 228 255
207 228 255
207 228 255
207 228 255
207 228 255
207 228 255
207 228 255
207 228 255
207 228 255
207 228 255
207 228 255
207 228 255
207 228 255
206 228 255
206 228 255
206 228 255
206 228 255
206 227 255
206 227 255
206 227 255
206 227 255
206 227 255
206 227 255
206 227 255
206 227 255
206 227 255
206 227 255
206 227 255
206 227 255
206 227 255
205 227 255
205 227 255
205 227 255
205 227 255
205 227 255
205 227 255
205 227 255
205 227 255
205 227 255
205 227 255
205 227 255
205 227 255
205 227 255
205 227 255
205 227 255
204 227 255
204 227 255
204 226 255
204 226 255
204 226 255
204 226 255
204 226 255
204 226 255
204 226 255
204 226 255
204 226 255
204 226 255
204 226 255
204 226 255
204 226 255
204 226 255
203 226 255
203 226 255
203 226 255
203 226 255
203 226 255
203 226 255
203 226 255
203 226 255
203 226 255
203 226 255
203 226 255
203 226 255
203 226 255
203 226 255
203 226 255
202 225 255
202 225 255
202 225 255
202 225 255
202 225 255
202 225 255
202 225 255
202 225 255
202 225 255
202 225 255
202 225 255
202 225 255
202 225 255
202 225 255
202 225 255
202 225 255
201 225 255
201 225 255
201 225 255
201 225 255
201 225 255
201 225 255
201 225 255
201 225 255
201 225 255
201 225 255
201 225 255
201 225 255
201 225 255
201 225 255
201 225 255
201 224 255
201 224 255
200 224 255
200 224 255
200 224 255
200 224 255
200 224 255
200 224 255
200 224 255
200 224 255
200 224 255
200 224 255
200 224 255
200 224 255
200 224 255
200 224 255
200 224 255
200 224 255
200 224 255
200 224 255
200 224 255
200 224 255
199 224 255
199 224 255
199 224 255
199 224 255
199 224 255
199 224 255
199 224 255
199 224 255
199 224 255
199 224 255
199 224 255
199 224 255
199 224 255
199 224 255
199 224 255
199 224 255
199 224 255
199 224 255
199 224 255
199 224 255
199 224 255
199 224 255
199 224 255
199 224 255
199 223 255
199 223 255
199 223 255
199 223 255
199 223 255
199 223 255
199 223 255
199 223 255
199 223 255
199 223 255
199 223 255
199 223 255
199 223 255
198 223 255
198 223 255
198 223 255
198 223 255
198 223 255
198 223 255
198 223 255
198 223 255
198 223 255
198 223 255
198 223 255
198 223 255
198 223 255
198 223 255
199 223 255
199 223 255
199 223 255
199 223 255
199 223 255
199 223 255
199 223 255
199 223 255
199 223 255
199 223 255
199 223 255
199 223 255
199 223 255
199 224 255
199 224 255
199 224 255
199 224 255
199 224 255
199 224 255
199 224 255
199 224 255
199 224 255
199 224 255
199 224 255
199 224 255
199 224 255
199 224 255
199 224 255
199 224 255
199 224 255
199 224 255
199 224 255
199 224 255
199 224 255
199 224 255
199 224 255
199 224 255
200 224 255
200 224 255
200 224 255
200 224 255
200 224 255
200 224 255
200 224 255
200 224 255
200 224 255
200 224 255
200 224 255
200 224 255
200 224 255
200 224 255
200 224 255
200 224 255
200 224 255
200 224 255
200 224 255
200 224 255
201 224 255
201 224 255
201 225 255
201 225 255
201 225 255
201 225 255
201 225 255
201 225 255
201 225 255
201 225 255
201 225 255
201 225 255
201 225 255
201 225 255
201 225 255
201 225 255
201 225 255
202 225 255
202 225 255
202 225 255
202 225 255
202 225 255
202 225 255
202 225 255
202 225 255
202 225 255
202 225 255
202 225 255
202 225 255
202 225 255
202 225 255
202 225 255
202 225 255
203 226 255
203 226 255
203 226 255
203 226 255
203 226 255
203 226 255
203 226 255
203 226 255
203 226 255
203 226 255
203 226 255
203 226 255
203 226 255
203 226 255
203 226 255
204 226 255
204 226 255
204 226 255
204 226 255
204 226 255
204 226 255
204 226 255
204 226 255
204 226 255
204 226 255
204 226 255
204 226 255
204 226 255
204 226 255
204 227 255
204 227 255
205 227 255
205 227 255
205 227 255
205 227 255
205 227 255
205 227 255
205 227 255
205 227 255
205 227 255
205 227 255
205 227 255
205 227 255
205 227 255
205 227 255
205 227 255
206 227 255
206 227 255
206 227 255
206 227 255
206 227 255
206 227 255
206 227 255
206 227 255
206 227 255
206 227 255
206 227 255
206 227 255
206 227 255
206 228 255
206 228 255
206 228 255
206 228 255
207 228 255
207 228 255
207 228 255
207 228 255
207 228 255
207 228 255
207 228 255
207 228 255
207 228 255
207 228 255
207 228 255
207 228 255
207 228 255
207 228 255
207 228 255
207 228 255
207 228 255
207 228 255
208 228 255
208 228 255
208 228 255
208 228 255
208 228 255
208 228 255
208 228 255
208 228 255
208 228 255
208 228 255
208 228 255
208 228 255
208 229 255
208 229 255
208 229 255
208 229 255
208 229 255
208 229 255
208 229 255
209 229 255
209 229 255
209 229 255
209 229 255
209 229 255
209 229 255
209 229 255
209 229 255
209 229 255
208 229 255
208 229 255
208 229 255
208 229 255
208 229 255
208 229 255
208 229 255
208 228 255
208 228 255
208 228 255
208 228 255
208 228 255
208 228 255
208 228 255
208 228 255
208 228 255
208 228 255
208 228 255
208 228 255
207 228 255
207 228 255
207 228 255
207 228 255
207 228 255
207 228 255
207 228 255
207 228 255
207 228 255
207 228 255
207 228 255
207 228 255
207 228 255
207 228 255
207 228 255
207 228 255
207 228 255
206 228 255
206 228 255
206 228 255
206 228 255
206 227 255
206 227 255
206 227 255
206 227 255
206 227 255
206 227 255
206 227 255
206 227 255
206 227 255
206 227 255
206 227 255
206 227 255
206 227 255
205 227 255
205 227 255
205 227 255
205 227 255
205 227 255
205 227 255
205 227 255
205 227 255
205 227 255
205 227 255
205 227 255
205 227 255
205 227 255
205 227 255
205 227 255
204 227 255
204 227 255
204 226 255
204 226 255
204 226 255
204 226 255
204 226 255
204 226 255
204 226 255
204 226 255
204 226 255
204 226 255
204 226 255
204 226 255
204 226 255
204 226 255
203 226 255
203 226 255
203 226 255
203 226 255
203 226 255
203 226 255
203 226 255
203 226 255
203 226 255
203 226 255
203 226 255
203 226 255
203 226 255
203 226 255
203 226 255
202 225 255
202 225 255
202 225 255
202 225 255
202 225 255
202 225 255
202 225 255
202 225 255
202 225 255
202 225 255
202 225 255
202 225 255
202 225 255
202 225 255
202 225 255
202 225 255
201 225 255
201 225 255
201 225 255
201 225 255
201 225 255
201 225 255
201 225 255
201 225 255
201 225 255
201 225 255
201 225 255
201 225 255
201 225 255
201 225 255
201 225 255
201 224 255
201 224 255
200 224 255
200 224 255
200 224 255
200 224 255
200 224 255
200 224 255
200 224 255
200 224 255
200 224 255
200 224 255
200 224 255
200 224 255
200 224 255
200 224 255
200 224 255
200 224 255
200 224 255
200 224 255
200 224 255
200 224 255
200 224 255
199 224 255
199 224 255
199 224 255
199 224 255
199 224 255
199 224 255
199 224 255
199 224 255
199 224 255
199 224 255
199 224 255
199 224 255
199 224 255
199 224 255
199 224 255
199 224 255
199 224 255
199 224 255
199 224 255
199 224 255
199 224 255
199 224 255
199 224 255
199 224 255
199 224 255
199 224 255
199 224 255
199 224 255
199 224 255
199 223 255
199 223 255
199 223 255
199 223 255
199 223 255
199 223 255
199 223 255
199 223 255
199 223 255
199 223 255
199 223 255
199 223 255
199 223 255
199 223 255
199 223 255
199 223 255
199 223 255
199 223 255
199 223 255
199 223 255
199 223 255
199 223 255
199 223 255
199 223 255
199 223 255
199 224 255
199 224 255
199 224 255
199 224 255
199 224 255
199 224 255
199 224 255
199 224 255
199 224 255
199 224 255
199 224 255
199 224 255
199 224 255
199 224 255
199 224 255
199 224 255
199 224 255
199 224 255
199 224 255
199 224 255
199 224 255
199 224 255
199 224 255
199 224 255
199 224 255
199 224 255
199 224 255
199 224 255
200 224 255
200 224 255
200 224 255
200 224 255
200 224 255
200 224 255
200 224 255
200 224 255
200 224 255
200 224 255
200 224 255
200 224 255
200 224 255
200 224 255
200 224 255
200 224 255
200 224 255
200 224 255
200 224 255
200 224 255
200 224 255
201 224 255
201 224 255
201 225 255
201 225 255
201 225 255
201 225 255
201 225 255
201 225 255
201 225 255
201 225 255
201 225 255
201 225 255
201 225 255
201 225 255
201 225 255
201 225 255
201 225 255
202 225 255
202 225 255
202 225 255
202 225 255
202 225 255
202 225 255
202 225 255
202 225 255
202 225 255
202 225 255
202 225 255
202 225 255
202 225 255
202 225 255
202 225 255
202 225 255
203 226 255
203 226 255
203 226 255
203 226 255
203 226 255
203 226 255
203 226 255
203 226 255
203 226 255
203 226 255
203 226 255
203 226 255
203 226 255
203 226 255
203 226 255
204 226 255
204 226 255
204 226 255
204 226 255
204 226 255
204 226 255
204 226 255
204 226 255
204 226 255
204 226 255
204 226 255
204 226 255
204 226 255
204 226 255
204 227 255
204 227 255
205 227 255
205 227 255
205 227 255
205 227 255
205 227 255
205 227 255
205 227 255
205 227 255
205 227 255
205 227 255
205 227 255
205 227 255
205 227 255
205 227 255
205 227 255
206 227 255
206 227 255
206 227 255
206 227 255
206 227 255
206 227 255
206 227 255
206 227 255
206 227 255
206 227 255
206 227 255
206 227 255
206 227 255
206 228 255
206 228 255
206 228 255
206 228 255
207 228 255
207 228 255
207 228 255
207 228 255
207 228 255
207 228 255
207 228 255
207 228 255
207 228 255
207 228 255
207 228 255
207 228 255
207 228 255
207 228 255
207 228 255
207 228 255
207 228 255
208 228 255
208 228 255
208 228 255
208 228 255
208 228 255
208 228 255
208 228 255
208 228 255
208 228 255
208 228 255
208 228 255
208 228 255
208 229 255
208 229 255
208 229 255
208 229 255
208 229 255
208 229 255
208 229 255
209 229 255
209 229 255
209 229 255
209 229 255
209 229 255
209 229 255
209 229 255
209 229 255
209 229 255
209 229 255
209 229 255
209 229 255
209 229 255
209 229 255
208 229 255
208 229 255
208 229 255
208 229 255
208 229 255
208 229 255
208 229 255
208 228 255
208 228 255
208 228 255
208 228 255
208 228 255
208 228 255
208 228 255
208 228 255
208 228 255
208 228 255
208 228 255
208 228 255
207 228 255
207 228 255
207 228 255
207 228 255
207 228 255
207 228 255
207 228 255
207 228 255
207 228 255
207 228 255
207 228 255
207 228 255
207 228 255
207 228 255
207 228 255
207 228 255
207 228 255
206 228 255
206 228 255
206 228 255
206 228 255
206 227 255
206 227 255
206 227 255
206 227 255
206 227 255
206 227 255
206 227 255
206 227 255
206 227 255
206 227 255
206 227 255
206 227 255
206 227 255
205 227 255
205 227 255
205 227 255
205 227 255
205 227 255
205 227 255
205 227 255
205 227 255
205 227 255
205 227 255
205 227 255
205 227 255
205 227 255
205 227 255
205 227 255
205 227 255
204 227 255
204 226 255
204 226 255
204 226 255
204 226 255
204 226 255
204 226 255
204 226 255
204 226 255
204 226 255
204 226 255
204 226 255
204 226 255
204 226 255
204 226 255
203 226 255
203 226 255
203 226 255
203 226 255
203 226 255
203 226 255
203 226 255
203 226 255
203 226 255
203 226 255
203 226 255
203 226 255
203 226 255
203 226 255
203 226 255
202 225 255
202 225 255
202 225 255
202 225 255
202 225 255
202 225 255
202 225 255
202 225 255
202 225 255
202 225 255
202 225 255
202 225 255
202 225 255
202 225 255
202 225 255
202 225 255
201 225 255
201 225 255
201 225 255
201 225 255
201 225 255
201 225 255
201 225 255
201 225 255
201 225 255
201 225 255
201 225 255
201 225 255
201 225 255
201 225 255
201 225 255
201 225 255
201 224 255
200 224 255
200 224 255
200 224 255
200 224 255
200 224 255
200 224 255
200 224 255
200 224 255
200 224 255
200 224 255
200 224 255
200 224 255
200 224 255
200 224 255
200 224 255
200 224 255
200 224 255
200 224 255
200 224 255
200 224 255
200 224 255
200 224 255
199 224 255
199 224 255
199 224 255
199 224 255
199 224 255
199 224 255
199 224 255
199 224 255
199 224 255
199 224 255
199 224 255
199 224 255
199 224 255
199 224 255
199 224 255
199 224 255
199 224 255
199 224 255
199 224 255
199 224 255
199 224 255
199 224 255
199 224 255
199 224 255
199 224 255
199 224 255
199 224 255
199 224 255
199 224 255
199 224 255
199 224 255
199 224 255
199 224 255
199 224 255
199 224 255
199 224 255
199 224 255
199 224 255
199 224 255
199 224 255
199 224 255
199 224 255
199 224 255
199 224 255
199 224 255
199 224 255
199 224 255
199 224 255
199 224 255
199 224 255
199 224 255
199 224 255
199 224 255
199 224 255
199 224 255
199 224 255
199 224 255
199 224 255
199 224 255
199 224 255
199 224 255
199 224 255
199 224 255
199 224 255
199 224 255
199 224 255
199 224 255
199 224 255
199 224 255
199 224 255
199 224 255
199 224 255
199 224 255
199 224 255
199 224 255
199 224 255
200 224 255
200 224 255
200 224 255
200 224 255
200 224 255
200 224 255
200 224 255
200 224 255
200 224 255
200 224 255
200 224 255
200 224 255
200 224 255
200 224 255
200 224 255
200 224 255
200 224 255
200 224 255
200 224 255
200 224 255
200 224 255
201 224 255
201 224 255
201 225 255
201 225 255
201 225 255
201 225 255
201 225 255
201 225 255
201 225 255
201 225 255
201 225 255
201 225 255
201 225 255
201 225 255
201 225 255
201 225 255
201 225 255
201 225 255
202 225 255
202 225 255
202 225 255
202 225 255
202 225 255
202 225 255
202 225 255
202 225 255
202 225 255
202 225 255
202 225 255
202 225 255
202 225 255
202 225 255
202 225 255
202 225 255
203 226 255
203 226 255
203 226 255
203 226 255
203 226 255
203 226 255
203 226 255
203 226 255
203 226 255
203 226 255
203 226 255
203 226 255
203 226 255
203 226 255
203 226 255
204 226 255
204 226 255
204 226 255
204 226 255
204 226 255
204 226 255
204 226 255
204 226 255
204 226 255
204 226 255
204 226 255
204 226 255
204 226 255
204 226 255
204 227 255
204 227 255
205 227 255
205 227 255
205 227 255
205 227 255
205 227 255
205 227 255
205 227 255
205 227 255
205 227 255
205 227 255
205 227 255
205 227 255
205 227 255
205 227 255
205 227 255
206 227 255
206 227 255
206 227 255
206 227 255
206 227 255
206 227 255
206 227 255
206 227 255
206 227 255
206 227 255
206 227 255
206 227 255
206 227 255
206 228 255
206 228 255
206 228 255
206 228 255
207 228 255
207 228 255
207 228 255
207 228 255
207 228 255
207 228 255
207 228 255
207 228 255
207 228 255
207 228 255
207 228 255
207 228 255
207 228 255
207 228 255
207 228 255
207 228 255
207 228 255
208 228 255
208 228 255
208 228 255
208 228 255
208 228 255
208 228 255
208 228 255
208 228 255
208 228 255
208 228 255
208 228 255
208 228 255
208 229 255
208 229 255
208 229 255
208 229 255
208 229 255
208 229 255
208 229 255
209 229 255
209 229 255
209 229 255
209 229 255
209 229 255
209 229 255
209 229 255
209 229 255
209 229 255
209 229 255
209 229 255
209 229 255
209 229 255
209 229 255
209 229 255
209 229 255
209 229 255
209 229 255
208 229 255
208 229 255
208 229 255
208 229 255
208 229 255
208 229 255
208 229 255
208 228 255
208 228 255
208 228 255
208 228 255
208 228 255
208 228 255
208 228 255
208 228 255
208 228 255
208 228 255
208 228 255
208 228 255
207 228 255
207 228 255
207 228 255
207 228 255
207 228 255
207 228 255
207 228 255
207 228 255
207 228 255
207 228 255
207 228 255
207 228 255
207 228 255
207 228 255
207 228 255
207 228 255
207 228 255
206 228 255
206 228 255
206 228 255
206 228 255
206 228 255
206 227 255
206 227 255
206 227 255
206 227 255
206 227 255
206 227 255
206 227 255
206 227 255
206 227 255
206 227 255
206 227 255
206 227 255
205 227 255
205 227 255
205 227 255
205 227 255
205 227 255
205 227 255
205 227 255
205 227 255
205 227 255
205 227 255
205 227 255
205 227 255
205 227 255
205 227 255
205 227 255
205 227 255
204 227 255
204 226 255
204 226 255
204 226 255
204 226 255
204 226 255
204 226 255
204 226 255
204 226 255
204 226 255
204 226 255
204 226 255
204 226 255
204 226 255
204 226 255
203 226 255
203 226 255
203 226 255
203 226 255
203 226 255
203 226 255
203 226 255
203 226 255
203 226 255
203 226 255
203 226 255
203 226 255
203 226 255
203 226 255
203 226 255
202 225 255
202 225 255
202 225 255
202 225 255
202 225 255
202 225 255
202 225 255
202 225 255
202 225 255
202 225 255
202 225 255
202 225 255
202 225 255
202 225 255
202 225 255
202 225 255
202 225 255
201 225 255
201 225 255
201 225 255
201 225 255
201 225 255
201 225 255
201 225 255
201 225 255
201 225 255
201 225 255
201 225 255
201 225 255
201 225 255
201 225 255
201 225 255
201 224 255
201 224 255
200 224 255
200 224 255
200 224 255
200 224 255
200 224 255
200 224 255
200 224 255
200 224 255
200 224 255
200 224 255
200 224 255
200 224 255
200 224 255
200 224 255
200 224 255
200 224 255
200 224 255
200 224 255
200 224 255
200 224 255
200 224 255
200 224 255
200 224 255
199 224 255
199 224 255
199 224 255
199 224 255
199 224 255
199 224 255
199 224 255
199 224 255
199 224 255
199 224 255
199 224 255
199 224 255
199 224 255
199 224 255
199 224 255
199 224 255
199 224 255
199 224 255
199 224 255
199 224 255
199 224 255
199 224 255
199 224 255
199 224 255
199 224 255
199 224 255
199 224 255
199 224 255
199 224 255
199 224 255
199 224 255
199 224 255
199 224 255
199 224 255
199 224 255
199 224 255
199 224 255
199 224 255
199 224 255
199 224 255
199 224 255
199 224 255
199 224 255
199 224 255
199 224 255
199 224 255
199 224 255
199 224 255
199 224 255
199 224 255
199 224 255
199 224 255
199 224 255
199 224 255
199 224 255
199 224 255
199 224 255
199 224 255
199 224 255
199 224 255
199 224 255
199 224 255
199 224 255
199 224 255
199 224 255
199 224 255
199 224 255
199 224 255
199 224 255
200 224 255
200 224 255
200 224 255
200 224 255
200 224 255
200 224 255
200 224 255
200 224 255
200 224 255
200 224 255
200 224 255
200 224 255
200 224 255
200 224 255
200 224 255
200 224 255
200 224 255
200 224 255
200 224 255
200 224 255
200 224 255
200 224 255
201 224 255
201 224 255
201 225 255
201 225 255
201 225 255
201 225 255
201 225 255
201 225 255
201 225 255
201 225 255
201 225 255
201 225 255
201 225 255
201 225 255
201 225 255
201 225 255
201 225 255
201 225 255
202 225 255
202 225 255
202 225 255
202 225 255
202 225 255
202 225 255
202 225 255
202 225 255
202 225 255
202 225 255
202 225 255
202 225 255
202 225 255
202 225 255
202 225 255
202 225 255
203 226 255
203 226 255
203 226 255
203 226 255
203 226 255
203 226 255
203 226 255
203 226 255
203 226 255
203 226 255
203 226 255
203 226 255
203 226 255
203 226 255
203 226 255
204 226 255
204 226 255
204 226 255
204 226 255
204 226 255
204 226 255
204 226 255
204 226 255
204 226 255
204 226 255
204 226 255
204 226 255
204 226 255
204 226 255
204 227 255
205 227 255
205 227 255
205 227 255
205 227 255
205 227 255
205 227 255
205 227 255
205 227 255
205 227 255
205 227 255
205 227 255
205 227 255
205 227 255
205 227 255
205 227 255
205 227 255
206 227 255
206 227 255
206 227 255
206 227 255
206 227 255
206 227 255
206 227 255
206 227 255
206 227 255
206 227 255
206 227 255
206 227 255
206 227 255
206 228 255
206 228 255
206 228 255
206 228 255
207 228 255
207 228 255
207 228 255
207 228 255
207 228 255
207 228 255
207 228 255
207 228 255
207 228 255
207 228 255
207 228 255
207 228 255
207 228 255
207 228 255
207 228 255
207 228 255
207 228 255
208 228 255
208 228 255
208 228 255
208 228 255
208 228 255
208 228 255
208 228 255
208 228 255
208 228 255
208 228 255
208 228 255
208 228 255
208 229 255
208 229 255
208 229 255
208 229 255
208 229 255
208 229 255
208 229 255
209 229 255
209 229 255
209 229 255
209 229 255
209 229 255
209 229 255
209 229 255
209 229 255
209 229 255
209 229 255
209 229 255
209 229 255
209 229 255
209 229 255
209 229 255
209 229 255
209 229 255
209 229 255
209 229 255
209 229 255
209 229 255
209 229 255
209 229 255
208 229 255
208 229 255
208 229 255
208 229 255
208 229 255
208 229 255
208 229 255
208 228 255
208 228 255
208 228 255
208 228 255
208 228 255
208 228 255
208 228 255
208 228 255
208 228 255
208 228 255
208 228 255
207 228 255
207 228 255
207 228 255
207 228 255
207 228 255
207 228 255
207 228 255
207 228 255
207 228 255
207 228 255
207 228 255
207 228 255
207 228 255
207 228 255
207 228 255
207 228 255
207 228 255
207 228 255
206 228 255
206 228 255
206 228 255
206 228 255
206 227 255
206 227 255
206 227 255
206 227 255
206 227 255
206 227 255
206 227 255
206 227 255
206 227 255
206 227 255
206 227 255
206 227 255
205 227 255
205 227 255
205 227 255
205 227 255
205 227 255
205 227 255
205 227 255
205 227 255
205 227 255
205 227 255
205 227 255
205 227 255
205 227 255
205 227 255
205 227 255
205 227 255
204 227 255
204 226 255
204 226 255
204 226 255
204 226 255
204 226 255
204 226 255
204 226 255
204 226 255
204 226 255
204 226 255
204 226 255
204 226 255
204 226 255
204 226 255
203 226 255
203 226 255
203 226 255
203 226 255
203 226 255
203 226 255
203 226 255
203 226 255
203 226 255
203 226 255
203 226 255
203 226 255
203 226 255
203 226 255
203 226 255
203 226 255
202 225 255
202 225 255
202 225 255
202 225 255
202 225 255
202 225 255
202 225 255
202 225 255
202 225 255
202 225 255
202 225 255
202 225 255
202 225 255
202 225 255
202 225 255
202 225 255
201 225 255
201 225 255
201 225 255
201 225 255
201 225 255
201 225 255
201 225 255
201 225 255
201 225 255
201 225 255
201 225 255
201 225 255
201 225 255
201 225 255
201 225 255
201 225 255
201 224 255
201 224 255
200 224 255
200 224 255
200 224 255
200 224 255
200 224 255
200 224 255
200 224 255
200 224 255
200 224 255
200 224 255
200 224 255
200 224 255
200 224 255
200 224 255
200 224 255
200 224 255
200 224 255
200 224 255
200 224 255
200 224 255
200 224 255
200 224 255
200 224 255
199 224 255
199 224 255
199 224 255
199 224 255
199 224 255
199 224 255
199 224 255
199 224 255
199 224 255
199 224 255
199 224 255
199 224 255
199 224 255
199 224 255
199 224 255
199 224 255
199 224 255
199 224 255
199 224 255
199 224 255
199 224 255
199 224 255
199 224 255
199 224 255
199 224 255
199 224 255
199 224 255
199 224 255
199 224 255
199 224 255
199 224 255
199 224 255
199 224 255
199 224 255
199 224 255
199 224 255
199 224 255
199 224 255
199 224 255
199 224 255
199 224 255
199 224 255
199 224 255
199 224 255
199 224 255
199 224 255
199 224 255
199 224 255
199 224 255
199 224 255
199 224 255
199 224 255
199 224 255
199 224 255
199 224 255
199 224 255
199 224 255
199 224 255
199 224 255
199 224 255
199 224 255
199 224 255
200 224 255
200 224 255
200 224 255
200 224 255
200 224 255
200 224 255
200 224 255
200 224 255
200 224 255
200 224 255
200 224 255
200 224 255
200 224 255
200 224 255
200 224 255
200 224 255
200 224 255
200 224 255
200 224 255
200 224 255
200 224 255
200 224 255
200 224 255
201 224 255
201 224 255
201 225 255
201 225 255
201 225 255
201 225 255
201 225 255
201 225 255
201 225 255
201 225 255
201 225 255
201 225 255
201 225 255
201 225 255
201 225 255
201 225 255
201 225 255
201 225 255
202 225 255
202 225 255
202 225 255
202 225 255
202 225 255
202 225 255
202 225 255
202 225 255
202 225 255
202 225 255
202 225 255
202 225 255
202 225 255
202 225 255
202 225 255
202 225 255
203 226 255
203 226 255
203 226 255
203 226 255
203 226 255
203 226 255
203 226 255
203 226 255
203 226 255
203 226 255
203 226 255
203 226 255
203 226 255
203 226 255
203 226 255
203 226 255
204 226 255
204 226 255
204 226 255
204 226 255
204 226 255
204 226 255
204 226 255
204 226 255
204 226 255
204 226 255
204 226 255
204 226 255
204 226 255
204 226 255
204 227 255
205 227 255
205 227 255
205 227 255
205 227 255
205 227 255
205 227 255
205 227 255
205 227 255
205 227 255
205 227 255
205 227 255
205 227 255
205 227 255
205 227 255
205 227 255
205 227 255
206 227 255
206 227 255
206 227 255
206 227 255
206 227 255
206 227 255
206 227 255
206 227 255
206 227 255
206 227 255
206 227 255
206 227 255
206 227 255
206 228 255
206 228 255
206 228 255
207 228 255
207 228 255
207 228 255
207 228 255
207 228 255
207 228 255
207 228 255
207 228 255
207 228 255
207 228 255
207 228 255
207 228 255
207 228 255
207 228 255
207 228 255
207 228 255
207 228 255
207 228 255
208 228 255
208 228 255
208 228 255
208 228 255
208 228 255
208 228 255
208 228 255
208 228 255
208 228 255
208 228 255
208 228 255
208 229 255
208 229 255
208 229 255
208 229 255
208 229 255
208 229 255
208 229 255
209 229 255
209 229 255
209 229 255
209 229 255
209 229 255
209 229 255
209 229 255
209 229 255
209 229 255
209 229 255
209 229 255
209 229 255
209 229 255
209 229 255
209 229 255
209 229 255
209 229 255
209 229 255
209 229 255
209 229 255
209 229 255
209 229 255
209 229 255
209 229 255
209 229 255
209 229 255
209 229 255
209 229 255
208 229 255
208 229 255
208 229 255
208 229 255
208 229 255
208 229 255
208 229 255
208 228 255
208 228 255
208 228 255
208 228 255
208 228 255
208 228 255
208 228 255
208 228 255
208 228 255
208 228 255
208 228 255
208 228 255
207 228 255
207 228 255
207 228 255
207 228 255
207 228 255
207 228 255
207 228 255
207 228 255
207 228 255
207 228 255
207 228 255
207 228 255
207 228 255
207 228 255
207 228 255
207 228 255
207 228 255
206 228 255
206 228 255
206 228 255
206 228 255
206 227 255
206 227 255
206 227 255
206 227 255
206 227 255
206 227 255
206 227 255
206 227 255
206 227 255
206 227 255
206 227 255
206 227 255
205 227 255
205 227 255
205 227 255
205 227 255
205 227 255
205 227 255
205 227 255
205 227 255
205 227 255
205 227 255
205 227 255
205 227 255
205 227 255
205 227 255
205 227 255
205 227 255
204 227 255
204 227 255
204 226 255
204 226 255
204 226 255
204 226 255
204 226 255
204 226 255
204 226 255
204 226 255
204 226 255
204 226 255
204 226 255
204 226 255
204 226 255
203 226 255
203 226 255
203 226 255
203 226 255
203 226 255
203 226 255
203 226 255
203 226 255
203 226 255
203 226 255
203 226 255
203 226 255
203 226 255
203 226 255
203 226 255
203 226 255
202 225 255
202 225 255
202 225 255
202 225 255
202 225 255
202 225 255
202 225 255
202 225 255
202 225 255
202 225 255
202 225 255
202 225 255
202 225 255
202 225 255
202 225 255
202 225 255
201 225 255
201 225 255
201 225 255
201 225 255
201 225 255
201 225 255
201 225 255
201 225 255
201 225 255
201 225 255
201 225 255
201 225 255
201 225 255
201 225 255
201 225 255
201 225 255
201 224 255
201 224 255
201 224 255
200 224 255
200 224 255
200 224 255
200 224 255
200 224 255
200 224 255
200 224 255
200 224 255
200 224 255
200 224 255
200 224 255
200 224 255
200 224 255
200 224 255
200 224 255
200 224 255
200 224 255
200 224 255
200 224 255
200 224 255
200 224 255
200 224 255
200 224 255
200 224 255
200 224 255
199 224 255
199 224 255
199 224 255
199 224 255
199 224 255
199 224 255
199 224 255
199 224 255
199 224 255
199 224 255
199 224 255
199 224 255
199 224 255
199 224 255
199 224 255
199 224 255
199 224 255
199 224 255
199 224 255
199 224 255
199 224 255
199 224 255
199 224 255
199 224 255
199 224 255
199 224 255
199 224 255
199 224 255
199 224 255
199 224 255
199 224 255
199 224 255
199 224 255
199 224 255
199 224 255
199 224 255
199 224 255
199 224 255
199 224 255
199 224 255
199 224 255
199 224 255
199 224 255
199 224 255
199 224 255
199 224 255
199 224 255
199 224 255
199 224 255
199 224 255
199 224 255
199 224 255
200 224 255
200 224 255
200 224 255
200 224 255
200 224 255
200 224 255
200 224 255
200 224 255
200 224 255
200 224 255
200 224 255
200 224 255
200 224 255
200 224 255
200 224 255
200 224 255
200 224 255
200 224 255
200 224 255
200 224 255
200 224 255
200 224 255
200 224 255
200 224 255
200 224 255
201 224 255
201 224 255
201 225 255
201 225 255
201 225 255
201 225 255
201 225 255
201 225 255
201 225 255
201 225 255
201 225 255
201 225 255
201 225 255
201 225 255
201 225 255
201 225 255
201 225 255
201 225 255
201 225 255
202 225 255
202 225 255
202 225 255
202 225 255
202 225 255
202 225 255
202 225 255
202 225 255
202 225 255
202 225 255
202 225 255
202 225 255
202 225 255
202 225 255
202 225 255
202 225 255
203 226 255
203 226 255
203 226 255
203 226 255
203 226 255
203 226 255
203 226 255
203 226 255
203 226 255
203 226 255
203 226 255
203 226 255
203 226 255
203 226 255
203 226 255
203 226 255
204 226 255
204 226 255
204 226 255
204 226 255
204 226 255
204 226 255
204 226 255
204 226 255
204 226 255
204 226 255
204 226 255
204 226 255
204 226 255
204 227 255
204 227 255
205 227 255
205 227 255
205 227 255
205 227 255
205 227 255
205 227 255
205 227 255
205 227 255
205 227 255
205 227 255
205 227 255
205 227 255
205 227 255
205 227 255
205 227 255
205 227 255
206 227 255
206 227 255
206 227 255
206 227 255
206 227 255
206 227 255
206 227 255
206 227 255
206 227 255
206 227 255
206 227 255
206 227 255
206 228 255
206 228 255
206 228 255
206 228 255
207 228 255
207 228 255
207 228 255
207 228 255
207 228 255
207 228 255
207 228 255
207 228 255
207 228 255
207 228 255
207 228 255
207 228 255
207 228 255
207 228 255
207 228 255
207 228 255
207 228 255
208 228 255
208 228 255
208 228 255
208 228 255
208 228 255
208 228 255
208 228 255
208 228 255
208 228 255
208 228 255
208 228 255
208 228 255
208 229 255
208 229 255
208 229 255
208 229 255
208 229 255
208 229 255
208 229 255
209 229 255
209 229 255
209 229 255
209 229 255
209 229 255
209 229 255
209 229 255
209 229 255
209 229 255
209 229 255
209 229 255
209 229 255
209 229 255
209 229 255
209 229 255
209 229 255
209 229 255
209 229 255
209 229 255
209 229 255
209 229 255
209 229 255
209 229 255
209 229 255
209 229 255
209 229 255
209 229 255
209 229 255
209 229 255
209 229 255
209 229 255
209 229 255
209 229 255
208 229 255
208 229 255
208 229 255
208 229 255
208 229 255
208 229 255
208 229 255
208 228 255
208 228 255
208 228 255
208 228 255
208 228 255
208 228 255
208 228 255
208 228 255
208 228 255
208 228 255
208 228 255
207 228 255
207 228 255
207 228 255
207 228 255
207 228 255
207 228 255
207 228 255
207 228 255
207 228 255
207 228 255
207 228 255
207 228 255
207 228 255
207 228 255
207 228 255
207 228 255
207 228 255
206 228 255
206 228 255
206 228 255
206 228 255
206 227 255
206 227 255
206 227 255
206 227 255
206 227 255
206 227 255
206 227 255
206 227 255
206 227 255
206 227 255
206 227 255
206 227 255
205 227 255
205 227 255
205 227 255
205 227 255
205 227 255
205 227 255
205 227 255
205 227 255
205 227 255
205 227 255
205 227 255
205 227 255
205 227 255
205 227 255
205 227 255
205 227 255
204 227 255
204 227 255
204 226 255
204 226 255
204 226 255
204 226 255
204 226 255
204 226 255
204 226 255
204 226 255
204 226 255
204 226 255
204 226 255
204 226 255
204 226 255
203 226 255
203 226 255
203 226 255
203 226 255
203 226 255
203 226 255
203 226 255
203 226 255
203 226 255
203 226 255
203 226 255
203 226 255
203 226 255
203 226 255
203 226 255
203 226 255
202 225 255
202 225 255
202 225 255
202 225 255
202 225 255
202 225 255
202 225 255
202 225 255
202 225 255
202 225 255
202 225 255
202 225 255
202 225 255
202 225 255
202 225 255
202 225 255
201 225 255
201 225 255
201 225 255
201 225 255
201 225 255
201 225 255
201 225 255
201 225 255
201 225 255
201 225 255
201 225 255
201 225 255
201 225 255
201 225 255
201 225 255
201 225 255
201 225 255
201 224 255
201 224 255
200 224 255
200 224 255
200 224 255
200 224 255
200 224 255
200 224 255
200 224 255
200 224 255
200 224 255
200 224 255
200 224 255
200 224 255
200 224 255
200 224 255
200 224 255
200 224 255
200 224 255
200 224 255
200 224 255
200 224 255
200 224 255
200 224 255
200 224 255
200 224 255
200 224 255
200 224 255
200 224 255
200 224 255
199 224 255
199 224 255
199 224 255
199 224 255
199 224 255
199 224 255
199 224 255
199 224 255
199 224 255
199 224 255
199 224 255
199 224 255
199 224 255
199 224 255
199 224 255
199 224 255
199 224 255
199 224 255
199 224 255
199 224 255
199 224 255
199 224 255
199 224 255
199 224 255
199 224 255
199 224 255
199 224 255
199 224 255
199 224 255
199 224 255
199 224 255
199 224 255
199 224 255
199 224 255
199 224 255
199 224 255
199 224 255
199 224 255
199 224 255
199 224 255
199 224 255
199 224 255
200 224 255
200 224 255
200 224 255
200 224 255
200 224 255
200 224 255
200 224 255
200 224 255
200 224 255
200 224 255
200 224 255
200 224 255
200 224 255
200 224 255
200 224 255
200 224 255
200 224 255
200 224 255
200 224 255
200 224 255
200 224 255
200 224 255
200 224 255
200 224 255
200 224 255
200 224 255
200 224 255
200 224 255
201 224 255
201 224 255
201 225 255
201 225 255
201 225 255
201 225 255
201 225 255
201 225 255
201 225 255
201 225 255
201 225 255
201 225 255
201 225 255
201 225 255
201 225 255
201 225 255
201 225 255
201 225 255
201 225 255
202 225 255
202 225 255
202 225 255
202 225 255
202 225 255
202 225 255
202 225 255
202 225 255
202 225 255
202 225 255
202 225 255
202 225 255
202 225 255
202 225 255
202 225 255
202 225 255
203 226 255
203 226 255
203 226 255
203 226 255
203 226 255
203 226 255
203 226 255
203 226 255
203 226 255
203 226 255
203 226 255
203 226 255
203 226 255
203 226 255
203 226 255
203 226 255
204 226 255
204 226 255
204 226 255
204 226 255
204 226 255
204 226 255
204 226 255
204 226 255
204 226 255
204 226 255
204 226 255
204 226 255
204 226 255
204 227 255
204 227 255
205 227 255
205 227 255
205 227 255
205 227 255
205 227 255
205 227 255
205 227 255
205 227 255
205 227 255
205 227 255
205 227 255
205 227 255
205 227 255
205 227 255
205 227 255
205 227 255
206 227 255
206 227 255
206 227 255
206 227 255
206 227 255
206 227 255
206 227 255
206 227 255
206 227 255
206 227 255
206 227 255
206 227 255
206 228 255
206 228 255
206 228 255
206 228 255
207 228 255
207 228 255
207 228 255
207 228 255
207 228 255
207 228 255
207 228 255
207 228 255
207 228 255
207 228 255
207 228 255
207 228 255
207 228 255
207 228 255
207 228 255
207 228 255
207 228 255
208 228 255
208 228 255
208 228 255
208 228 255
208 228 255
208 228 255
208 228 255
208 228 255
208 228 255
208 228 255
208 228 255
208 228 255
208 229 255
208 229 255
208 229 255
208 229 255
208 229 255
208 229 255
209 229 255
209 229 255
209 229 255
209 229 255
209 229 255
209 229 255
209 229 255
209 229 255
209 229 255
209 229 255
209 229 255
209 229 255
209 229 255
209 229 255
209 229 255
209 229 255
209 229 255
209 229 255
209 229 255
209 229 255
209 229 255
209 229 255
209 229 255
209 229 255
209 229 255
209 229 255
209 229 255
209 229 255
209 229 255
209 229 255
209 229 255
209 229 255
209 229 255
209 229 255
209 229 255
209 229 255
209 229 255
209 229 255
208 229 255
208 229 255
208 229 255
208 229 255
208 229 255
208 229 255
208 229 255
208 228 255
208 228 255
208 228 255
208 228 255
208 228 255
208 228 255
208 228 255
208 228 255
208 228 255
208 228 255
208 228 255
207 228 255
207 228 255
207 228 255
207 228 255
207 228 255
207 228 255
207 228 255
207 228 255
207 228 255
207 228 255
207 228 255
207 228 255
207 228 255
207 228 255
207 228 255
207 228 255
207 228 255
206 228 255
206 228 255
206 228 255
206 228 255
206 227 255
206 227 255
206 227 255
206 227 255
206 227 255
206 227 255
206 227 255
206 227 255
206 227 255
206 227 255
206 227 255
206 227 255
206 227 255
205 227 255
205 227 255
205 227 255
205 227 255
205 227 255
205 227 255
205 227 255
205 227 255
205 227 255
205 227 255
205 227 255
205 227 255
205 227 255
205 227 255
205 227 255
204 227 255
204 227 255
204 226 255
204 226 255
204 226 255
204 226 255
204 226 255
204 226 255
204 226 255
204 226 255
204 226 255
204 226 255
204 226 255
204 226 255
204 226 255
203 226 255
203 226 255
203 226 255
203 226 255
203 226 255
203 226 255
203 226 255
203 226 255
203 226 255
203 226 255
203 226 255
203 226 255
203 226 255
203 226 255
203 226 255
203 226 255
202 225 255
202 225 255
202 225 255
202 225 255
202 225 255
202 225 255
202 225 255
202 225 255
202 225 255
202 225 255
202 225 255
202 225 255
202 225 255
202 225 255
202 225 255
202 225 255
202 225 255
201 225 255
201 225 255
201 225 255
201 225 255
201 225 255
201 225 255
201 225 255
201 225 255
201 225 255
201 225 255
201 225 255
201 225 255
201 225 255
201 225 255
201 225 255
201 225 255
201 225 255
201 224 255
201 224 255
200 224 255
200 224 255
200 224 255
200 224 255
200 224 255
200 224 255
200 224 255
200 224 255
200 224 255
200 224 255
200 224 255
200 224 255
200 224 255
200 224 255
200 224 255
200 224 255
200 224 255
200 224 255
200 224 255
200 224 255
200 224 255
200 224 255
200 224 255
200 224 255
200 224 255
200 224 255
200 224 255
200 224 255
200 224 255
200 224 255
200 224 255
200 224 255
199 224 255
199 224 255
199 224 255
199 224 255
199 224 255
199 224 255
199 224 255
199 224 255
199 224 255
199 224 255
199 224 255
199 224 255
199 224 255
199 224 255
199 224 255
199 224 255
199 224 255
199 224 255
199 224 255
199 224 255
199 224 255
199 224 255
199 224 255
199 224 255
199 224 255
199 224 255
199 224 255
199 224 255
200 224 255
200 224 255
200 224 255
200 224 255
200 224 255
200 224 255
200 224 255
200 224 255
200 224 255
200 224 255
200 224 255
200 224 255
200 224 255
200 224 255
200 224 255
200 224 255
200 224 255
200 224 255
200 224 255
200 224 255
200 224 255
200 224 255
200 224 255
200 224 255
200 224 255
200 224 255
200 224 255
200 224 255
200 224 255
200 224 255
200 224 255
200 224 255
201 224 255
201 224 255
201 225 255
201 225 255
201 225 255
201 225 255
201 225 255
201 225 255
201 225 255
201 225 255
201 225 255
201 225 255
201 225 255
201 225 255
201 225 255
201 225 255
201 225 255
201 225 255
201 225 255
202 225 255
202 225 255
202 225 255
202 225 255
202 225 255
202 225 255
202 225 255
202 225 255
202 225 255
202 225 255
202 225 255
202 225 255
202 225 255
202 225 255
202 225 255
202 225 255
202 225 255
203 226 255
203 226 255
203 226 255
203 226 255
203 226 255
203 226 255
203 226 255
203 226 255
203 226 255
203 226 255
203 226 255
203 226 255
203 226 255
203 226 255
203 226 255
204 226 255
204 226 255
204 226 255
204 226 255
204 226 255
204 226 255
204 226 255
204 226 255
204 226 255
204 226 255
204 226 255
204 226 255
204 226 255
204 226 255
204 227 255
204 227 255
205 227 255
205 227 255
205 227 255
205 227 255
205 227 255
205 227 255
205 227 255
205 227 255
205 227 255
205 227 255
205 227 255
205 227 255
205 227 255
205 227 255
205 227 255
206 227 255
206 227 255
206 227 255
206 227 255
206 227 255
206 227 255
206 227 255
206 227 255
206 227 255
206 227 255
206 227 255
206 227 255
206 227 255
206 228 255
206 228 255
206 228 255
206 228 255
207 228 255
207 228 255
207 228 255
207 228 255
207 228 255
207 228 255
207 228 255
207 228 255
207 228 255
207 228 255
207 228 255
207 228 255
207 228 255
207 228 255
207 228 255
207 228 255
207 228 255
208 228 255
208 228 255
208 228 255
208 228 255
208 228 255
208 228 255
208 228 255
208 228 255
208 228 255
208 228 255
208 228 255
208 229 255
208 229 255
208 229 255
208 229 255
208 229 255
208 229 255
208 229 255
209 229 255
209 229 255
209 229 255
209 229 255
209 229 255
209 229 255
209 229 255
209 229 255
209 229 255
209 229 255
209 229 255
209 229 255
209 229 255
209 229 255
209 229 255
209 229 255
209 229 255
209 229 255
209 229 255
209 229 255
210 229 255
210 229 255
210 229 255
209 229 255
209 229 255
209 229 255
209 229 255
209 229 255
209 229 255
209 229 255
209 229 255
209 229 255
209 229 255
209 229 255
209 229 255
209 229 255
209 229 255
209 229 255
209 229 255
209 229 255
209 229 255
209 229 255
208 229 255
208 229 255
208 229 255
208 229 255
208 229 255
208 229 255
208 229 255
208 228 255
208 228 255
208 228 255
208 228 255
208 228 255
208 228 255
208 228 255
208 228 255
208 228 255
208 228 255
208 228 255
208 228 255
207 228 255
207 228 255
207 228 255
207 228 255
207 228 255
207 228 255
207 228 255
207 228 255
207 228 255
207 228 255
207 228 255
207 228 255
207 228 255
207 228 255
207 228 255
207 228 255
207 228 255
206 228 255
206 228 255
206 228 255
206 227 255
206 227 255
206 227 255
206 227 255
206 227 255
206 227 255
206 227 255
206 227 255
206 227 255
206 227 255
206 227 255
206 227 255
206 227 255
205 227 255
205 227 255
205 227 255
205 227 255
205 227 255
205 227 255
205 227 255
205 227 255
205 227 255
205 227 255
205 227 255
205 227 255
205 227 255
205 227 255
205 227 255
204 227 255
204 227 255
204 226 255
204 226 255
204 226 255
204 226 255
204 226 255
204 226 255
204 226 255
204 226 255
204 226 255
204 226 255
204 226 255
204 226 255
204 226 255
204 226 255
203 226 255
203 226 255
203 226 255
203 226 255
203 226 255
203 226 255
203 226 255
203 226 255
203 226 255
203 226 255
203 226 255
203 226 255
203 226 255
203 226 255
203 226 255
203 226 255
202 225 255
202 225 255
202 225 255
202 225 255
202 225 255
202 225 255
202 225 255
202 225 255
202 225 255
202 225 255
202 225 255
202 225 255
202 225 255
202 225 255
202 225 255
202 225 255
202 225 255
201 225 255
201 225 255
201 225 255
201 225 255
201 225 255
201 225 255
201 225 255
201 225 255
201 225 255
201 225 255
201 225 255
201 225 255
201 225 255
201 225 255
201 225 255
201 225 255
201 225 255
201 224 255
201 224 255
201 224 255
200 224 255
200 224 255
200 224 255
200 224 255
200 224 255
200 224 255
200 224 255
200 224 255
200 224 255
200 224 255
200 224 255
200 224 255
200 224 255
200 224 255
200 224 255
200 224 255
200 224 255
200 224 255
200 224 255
200 224 255
200 224 255
200 224 255
200 224 255
200 224 255
200 224 255
200 224 255
200 224 255
200 224 255
200 224 255
200 224 255
200 224 255
200 224 255
200 224 255
200 224 255
200 224 255
200 224 255
200 224 255
200 224 255
200 224 255
200 224 255
200 224 255
200 224 255
200 224 255
200 224 255
200 224 255
200 224 255
200 224 255
200 224 255
200 224 255
200 224 255
200 224 255
200 224 255
200 224 255
200 224 255
200 224 255
200 224 255
200 224 255
200 224 255
200 224 255
200 224 255
200 224 255
200 224 255
200 224 255
200 224 255
200 224 255
200 224 255
200 224 255
200 224 255
200 224 255
200 224 255
200 224 255
200 224 255
200 224 255
200 224 255
200 224 255
200 224 255
200 224 255
200 224 255
200 224 255
200 224 255
200 224 255
200 224 255
200 224 255
200 224 255
201 224 255
201 224 255
201 224 255
201 225 255
201 225 255
201 225 255
201 225 255
201 225 255
201 225 255
201 225 255
201 225 255
201 225 255
201 225 255
201 225 255
201 225 255
201 225 255
201 225 255
201 225 255
201 225 255
201 225 255
201 225 255
202 225 255
202 225 255
202 225 255
202 225 255
202 225 255
202 225 255
202 225 255
202 225 255
202 225 255
202 225 255
202 225 255
202 225 255
202 225 255
202 225 255
202 225 255
202 225 255
203 226 255
203 226 255
203 226 255
203 226 255
203 226 255
203 226 255
203 226 255
203 226 255
203 226 255
203 226 255
203 226 255
203 226 255
203 226 255
203 226 255
203 226 255
203 226 255
204 226 255
204 226 255
204 226 255
204 226 255
204 226 255
204 226 255
204 226 255
204 226 255
204 226 255
204 226 255
204 226 255
204 226 255
204 226 255
204 226 255
204 227 255
204 227 255
205 227 255
205 227 255
205 227 255
205 227 255
205 227 255
205 227 255
205 227 255
205 227 255
205 227 255
205 227 255
205 227 255
205 227 255
205 227 255
205 227 255
205 227 255
206 227 255
206 227 255
206 227 255
206 227 255
206 227 255
206 227 255
206 227 255
206 227 255
206 227 255
206 227 255
206 227 255
206 227 255
206 227 255
206 228 255
206 228 255
206 228 255
206 228 255
207 228 255
207 228 255
207 228 255
207 228 255
207 228 255
207 228 255
207 228 255
207 228 255
207 228 255
207 228 255
207 228 255
207 228 255
207 228 255
207 228 255
207 228 255
207 228 255
208 228 255
208 228 255
208 228 255
208 228 255
208 228 255
208 228 255
208 228 255
208 228 255
208 228 255
208 228 255
208 228 255
208 228 255
208 229 255
208 229 255
208 229 255
208 229 255
208 229 255
208 229 255
208 229 255
209 229 255
209 229 255
209 229 255
209 229 255
209 229 255
209 229 255
209 229 255
209 229 255
209 229 255
209 229 255
209 229 255
209 229 255
209 229 255
209 229 255
209 229 255
209 229 255
209 229 255
209 229 255
209 229 255
210 229 255
210 229 255
210 229 255
210 229 255
210 229 255
210 229 255
210 229 255
210 229 255
209 229 255
209 229 255
209 229 255
209 229 255
209 229 255
209 229 255
209 229 255
209 229 255
209 229 255
209 229 255
209 229 255
209 229 255
209 229 255
209 229 255
209 229 255
209 229 255
209 229 255
209 229 255
209 229 255
209 229 255
208 229 255
208 229 255
208 229 255
208 229 255
208 229 255
208 229 255
208 228 255
208 228 255
208 228 255
208 228 255
208 228 255
208 228 255
208 228 255
208 228 255
208 228 255
208 228 255
208 228 255
208 228 255
207 228 255
207 228 255
207 228 255
207 228 255
207 228 255
207 228 255
207 228 255
207 228 255
207 228 255
207 228 255
207 228 255
207 228 255
207 228 255
207 228 255
207 228 255
207 228 255
207 228 255
206 228 255
206 228 255
206 228 255
206 228 255
206 227 255
206 227 255
206 227 255
206 227 255
206 227 255
206 227 255
206 227 255
206 227 255
206 227 255
206 227 255
206 227 255
206 227 255
205 227 255
205 227 255
205 227 255
205 227 255
205 227 255
205 227 255
205 227 255
205 227 255
205 227 255
205 227 255
205 227 255
205 227 255
205 227 255
205 227 255
205 227 255
205 227 255
204 227 255
204 226 255
204 226 255
204 226 255
204 226 255
204 226 255
204 226 255
204 226 255
204 226 255
204 226 255
204 226 255
204 226 255
204 226 255
204 226 255
204 226 255
203 226 255
203 226 255
203 226 255
203 226 255
203 226 255
203 226 255
203 226 255
203 226 255
203 226 255
203 226 255
203 226 255
203 226 255
203 226 255
203 226 255
203 226 255
203 226 255
202 225 255
202 225 255
202 225 255
202 225 255
202 225 255
202 225 255
202 225 255
202 225 255
202 225 255
202 225 255
202 225 255
202 225 255
202 225 255
202 225 255
202 225 255
202 225 255
202 225 255
201 225 255
201 225 255
201 225 255
201 225 255
201 225 255
201 225 255
201 225 255
201 225 255
201 225 255
201 225 255
201 225 255
201 225 255
201 225 255
201 225 255
201 225 255
201 225 255
201 225 255
201 225 255
201 225 255
201 224 255
201 224 255
200 224 255
200 224 255
200 224 255
200 224 255
200 224 255
200 224 255
200 224 255
200 224 255
200 224 255
200 224 255
200 224 255
200 224 255
200 224 255
200 224 255
200 224 255
200 224 255
200 224 255
200 224 255
200 224 255
200 224 255
200 224 255
200 224 255
200 224 255
200 224 255
200 224 255
200 224 255
200 224 255
200 224 255
200 224 255
200 224 255
200 224 255
200 224 255
200 224 255
200 224 255
200 224 255
200 224 255
200 224 255
200 224 255
200 224 255
200 224 255
200 224 255
200 224 255
200 224 255
200 224 255
200 224 255
200 224 255
200 224 255
200 224 255
200 224 255
200 224 255
200 224 255
200 224 255
200 224 255
200 224 255
200 224 255
200 224 255
200 224 255
200 224 255
200 224 255
200 224 255
200 224 255
200 224 255
200 224 255
200 224 255
200 224 255
200 224 255
200 224 255
200 224 255
200 224 255
200 224 255
200 224 255
200 224 255
200 224 255
200 224 255
200 224 255
200 224 255
200 224 255
200 224 255
201 224 255
201 224 255
201 225 255
201 225 255
201 225 255
201 225 255
201 225 255
201 225 255
201 225 255
201 225 255
201 225 255
201 225 255
201 225 255
201 225 255
201 225 255
201 225 255
201 225 255
201 225 255
201 225 255
201 225 255
201 225 255
202 225 255
202 225 255
202 225 255
202 225 255
202 225 255
202 225 255
202 225 255
202 225 255
202 225 255
202 225 255
202 225 255
202 225 255
202 225 255
202 225 255
202 225 255
202 225 255
202 225 255
203 226 255
203 226 255
203 226 255
203 226 255
203 226 255
203 226 255
203 226 255
203 226 255
203 226 255
203 226 255
203 226 255
203 226 255
203 226 255
203 226 255
203 226 255
203 226 255
204 226 255
204 226 255
204 226 255
204 226 255
204 226 255
204 226 255
204 226 255
204 226 255
204 226 255
204 226 255
204 226 255
204 226 255
204 226 255
204 226 255
204 227 255
204 227 255
205 227 255
205 227 255
205 227 255
205 227 255
205 227 255
205 227 255
205 227 255
205 227 255
205 227 255
205 227 255
205 227 255
205 227 255
205 227 255
205 227 255
205 227 255
206 227 255
206 227 255
206 227 255
206 227 255
206 227 255
206 227 255
206 227 255
206 227 255
206 227 255
206 227 255
206 227 255
206 227 255
206 228 255
206 228 255
206 228 255
206 228 255
207 228 255
207 228 255
207 228 255
207 228 255
207 228 255
207 228 255
207 228 255
207 228 255
207 228 255
207 228 255
207 228 255
207 228 255
207 228 255
207 228 255
207 228 255
207 228 255
207 228 255
208 228 255
208 228 255
208 228 255
208 228 255
208 228 255
208 228 255
208 228 255
208 228 255
208 228 255
208 228 255
208 228 255
208 229 255
208 229 255
208 229 255
208 229 255
208 229 255
208 229 255
208 229 255
209 229 255
209 229 255
209 229 255
209 229 255
209 229 255
209 229 255
209 229 255
209 229 255
209 229 255
209 229 255
209 229 255
209 229 255
209 229 255
209 229 255
209 229 255
209 229 255
209 229 255
209 229 255
209 229 255
209 229 255
210 229 255
210 229 255
210 229 255
210 229 255
210 229 255
210 229 255
210 229 255
210 229 255
210 229 255
210 229 255
210 229 255
210 229 255
210 229 255
209 229 255
209 229 255
209 229 255
209 229 255
209 229 255
209 229 255
209 229 255
209 229 255
209 229 255
209 229 255
209 229 255
209 229 255
209 229 255
209 229 255
209 229 255
209 229 255
209 229 255
209 229 255
209 229 255
208 229 255
208 229 255
208 229 255
208 229 255
208 229 255
208 229 255
208 229 255
208 228 255
208 228 255
208 228 255
208 228 255
208 228 255
208 228 255
208 228 255
208 228 255
208 228 255
208 228 255
208 228 255
207 228 255
207 228 255
207 228 255
207 228 255
207 228 255
207 228 255
207 228 255
207 228 255
207 228 255
207 228 255
207 228 255
207 228 255
207 228 255
207 228 255
207 228 255
207 228 255
207 228 255
206 228 255
206 228 255
206 228 255
206 228 255
206 227 255
206 227 255
206 227 255
206 227 255
206 227 255
206 227 255
206 227 255
206 227 255
206 227 255
206 227 255
206 227 255
206 227 255
205 227 255
205 227 255
205 227 255
205 227 255
205 227 255
205 227 255
205 227 255
205 227 255
205 227 255
205 227 255
205 227 255
205 227 255
205 227 255
205 227 255
205 227 255
205 227 255
204 227 255
204 227 255
204 226 255
204 226 255
204 226 255
204 226 255
204 226 255
204 226 255
204 226 255
204 226 255
204 226 255
204 226 255
204 226 255
204 226 255
204 226 255
203 226 255
203 226 255
203 226 255
203 226 255
203 226 255
203 226 255
203 226 255
203 226 255
203 226 255
203 226 255
203 226 255
203 226 255
203 226 255
203 226 255
203 226 255
203 226 255
202 225 255
202 225 255
202 225 255
202 225 255
202 225 255
202 225 255
202 225 255
202 225 255
202 225 255
202 225 255
202 225 255
202 225 255
202 225 255
202 225 255
202 225 255
202 225 255
202 225 255
202 225 255
201 225 255
201 225 255
201 225 255
201 225 255
201 225 255
201 225 255
201 225 255
201 225 255
201 225 255
201 225 255
201 225 255
201 225 255
201 225 255
201 225 255
201 225 255
201 225 255
201 225 255
201 225 255
201 225 255
201 224 255
201 224 255
201 224 255
200 224 255
200 224 255
200 224 255
200 224 255
200 224 255
200 224 255
200 224 255
200 224 255
200 224 255
200 224 255
200 224 255
200 224 255
200 224 255
200 224 255
200 224 255
200 224 255
200 224 255
200 224 255
200 224 255
200 224 255
200 224 255
200 224 255
200 224 255
200 224 255
200 224 255
200 224 255
200 224 255
200 224 255
200 224 255
200 224 255
200 224 255
200 224 255
200 224 255
200 224 255
200 224 255
200 224 255
200 224 255
200 224 255
200 224 255
200 224 255
200 224 255
200 224 255
200 224 255
200 224 255
200 224 255
200 224 255
200 224 255
200 224 255
200 224 255
200 224 255
200 224 255
200 224 255
200 224 255
200 224 255
200 224 255
200 224 255
200 224 255
200 224 255
200 224 255
200 224 255
200 224 255
200 224 255
200 224 255
200 224 255
200 224 255
200 224 255
200 224 255
200 224 255
200 224 255
200 224 255
201 224 255
201 224 255
201 224 255
201 225 255
201 225 255
201 225 255
201 225 255
201 225 255
201 225 255
201 225 255
201 225 255
201 225 255
201 225 255
201 225 255
201 225 255
201 225 255
201 225 255
201 225 255
201 225 255
201 225 255
201 225 255
201 225 255
202 225 255
202 225 255
202 225 255
202 225 255
202 225 255
202 225 255
202 225 255
202 225 255
202 225 255
202 225 255
202 225 255
202 225 255
202 225 255
202 225 255
202 225 255
202 225 255
202 225 255
202 225 255
203 226 255
203 226 255
203 226 255
203 226 255
203 226 255
203 226 255
203 226 255
203 226 255
203 226 255
203 226 255
203 226 255
203 226 255
203 226 255
203 226 255
203 226 255
203 226 255
204 226 255
204 226 255
204 226 255
204 226 255
204 226 255
204 226 255
204 226 255
204 226 255
204 226 255
204 226 255
204 226 255
204 226 255
204 226 255
204 227 255
204 227 255
205 227 255
205 227 255
205 227 255
205 227 255
205 227 255
205 227 255
205 227 255
205 227 255
205 227 255
205 227 255
205 227 255
205 227 255
205 227 255
205 227 255
205 227 255
205 227 255
206 227 255
206 227 255
206 227 255
206 227 255
206 227 255
206 227 255
206 227 255
206 227 255
206 227 255
206 227 255
206 227 255
206 227 255
206 228 255
206 228 255
206 228 255
206 228 255
207 228 255
207 228 255
207 228 255
207 228 255
207 228 255
207 228 255
207 228 255
207 228 255
207 228 255
207 228 255
207 228 255
207 228 255
207 228 255
207 228 255
207 228 255
207 228 255
207 228 255
208 228 255
208 228 255
208 228 255
208 228 255
208 228 255
208 228 255
208 228 255
208 228 255
208 228 255
208 228 255
208 228 255
208 229 255
208 229 255
208 229 255
208 229 255
208 229 255
208 229 255
208 229 255
209 229 255
209 229 255
209 229 255
209 229 255
209 229 255
209 229 255
209 229 255
209 229 255
209 229 255
209 229 255
209 229 255
209 229 255
209 229 255
209 229 255
209 229 255
209 229 255
209 229 255
209 229 255
209 229 255
210 229 255
210 229 255
210 229 255
210 229 255
210 229 255
210 229 255
210 229 255
210 229 255
210 229 255
210 229 255
210 229 255
210 229 255
210 229 255
210 229 255
210 229 255
210 229 255
210 229 255
210 229 255
209 229 255
209 229 255
209 229 255
209 229 255
209 229 255
209 229 255
209 229 255
209 229 255
209 229 255
209 229 255
209 229 255
209 229 255
209 229 255
209 229 255
209 229 255
209 229 255
209 229 255
209 229 255
209 229 255
209 229 255
208 229 255
208 229 255
208 229 255
208 229 255
208 229 255
208 229 255
208 228 255
208 228 255
208 228 255
208 228 255
208 228 255
208 228 255
208 228 255
208 228 255
208 228 255
208 228 255
208 228 255
208 228 255
207 228 255
207 228 255
207 228 255
207 228 255
207 228 255
207 228 255
207 228 255
207 228 255
207 228 255
207 228 255
207 228 255
207 228 255
207 228 255
207 228 255
207 228 255
207 228 255
206 228 255
206 228 255
206 228 255
206 228 255
206 227 255
206 227 255
206 227 255
206 227 255
206 227 255
206 227 255
206 227 255
206 227 255
206 227 255
206 227 255
206 227 255
206 227 255
205 227 255
205 227 255
205 227 255
205 227 255
205 227 255
205 227 255
205 227 255
205 227 255
205 227 255
205 227 255
205 227 255
205 227 255
205 227 255
205 227 255
205 227 255
205 227 255
204 227 255
204 227 255
204 226 255
204 226 255
204 226 255
204 226 255
204 226 255
204 226 255
204 226 255
204 226 255
204 226 255
204 226 255
204 226 255
204 226 255
204 226 255
203 226 255
203 226 255
203 226 255
203 226 255
203 226 255
203 226 255
203 226 255
203 226 255
203 226 255
203 226 255
203 226 255
203 226 255
203 226 255
203 226 255
203 226 255
203 226 255
203 226 255
202 225 255
202 225 255
202 225 255
202 225 255
202 225 255
202 225 255
202 225 255
202 225 255
202 225 255
202 225 255
202 225 255
202 225 255
202 225 255
202 225 255
202 225 255
202 225 255
202 225 255
202 225 255
201 225 255
201 225 255
201 225 255
201 225 255
201 225 255
201 225 255
201 225 255
201 225 255
201 225 255
201 225 255
201 225 255
201 225 255
201 225 255
201 225 255
201 225 255
201 225 255
201 225 255
201 225 255
201 225 255
201 225 255
201 224 255
201 224 255
200 224 255
200 224 255
200 224 255
200 224 255
200 224 255
200 224 255
200 224 255
200 224 255
200 224 255
200 224 255
200 224 255
200 224 255
200 224 255
200 224 255
200 224 255
200 224 255
200 224 255
200 224 255
200 224 255
200 224 255
200 224 255
200 224 255
200 224 255
200 224 255
200 224 255
200 224 255
200 224 255
200 224 255
200 224 255
200 224 255
200 224 255
200 224 255
200 224 255
200 224 255
200 224 255
200 224 255
200 224 255
200 224 255
200 224 255
200 224 255
200 224 255
200 224 255
200 224 255
200 224 255
200 224 255
200 224 255
200 224 255
200 224 255
200 224 255
200 224 255
200 224 255
200 224 255
200 224 255
200 224 255
200 224 255
200 224 255
200 224 255
200 224 255
200 224 255
200 224 255
200 224 255
200 224 255
200 224 255
201 224 255
201 224 255
201 224 255
201 225 255
201 225 255
201 225 255
201 225 255
201 225 255
201 225 255
201 225 255
201 225 255
201 225 255
201 225 255
201 225 255
201 225 255
201 225 255
201 225 255
201 225 255
201 225 255
201 225 255
201 225 255
201 225 255
201 225 255
202 225 255
202 225 255
202 225 255
202 225 255
202 225 255
202 225 255
202 225 255
202 225 255
202 225 255
202 225 255
202 225 255
202 225 255
202 225 255
202 225 255
202 225 255
202 225 255
202 225 255
202 225 255
202 226 255
203 226 255
203 226 255
203 226 255
203 226 255
203 226 255
203 226 255
203 226 255
203 226 255
203 226 255
203 226 255
203 226 255
203 226 255
203 226 255
203 226 255
203 226 255
204 226 255
204 226 255
204 226 255
204 226 255
204 226 255
204 226 255
204 226 255
204 226 255
204 226 255
204 226 255
204 226 255
204 226 255
204 226 255
204 226 255
204 227 255
204 227 255
205 227 255
205 227 255
205 227 255
205 227 255
205 227 255
205 227 255
205 227 255
205 227 255
205 227 255
205 227 255
205 227 255
205 227 255
205 227 255
205 227 255
205 227 255
205 227 255
206 227 255
206 227 255
206 227 255
206 227 255
206 227 255
206 227 255
206 227 255
206 227 255
206 227 255
206 227 255
206 227 255
206 227 255
206 228 255
206 228 255
206 228 255
206 228 255
207 228 255
207 228 255
207 228 255
207 228 255
207 228 255
207 228 255
207 228 255
207 228 255
207 228 255
207 228 255
207 228 255
207 228 255
207 228 255
207 228 255
207 228 255
207 228 255
207 228 255
208 228 255
208 228 255
208 228 255
208 228 255
208 228 255
208 228 255
208 228 255
208 228 255
208 228 255
208 228 255
208 228 255
208 229 255
208 229 255
208 229 255
208 229 255
208 229 255
208 229 255
209 229 255
209 229 255
209 229 255
209 229 255
209 229 255
209 229 255
209 229 255
209 229 255
209 229 255
209 229 255
209 229 255
209 229 255
209 229 255
209 229 255
209 229 255
209 229 255
209 229 255
209 229 255
209 229 255
209 229 255
210 229 255
210 229 255
210 229 255
210 229 255
210 229 255
210 229 255
210 229 255
210 229 255
210 229 255
210 229 255
210 230 255
210 230 255
210 230 255
210 229 255
210 229 255
210 229 255
210 229 255
210 229 255
210 229 255
210 229 255
210 229 255
210 229 255
210 229 255
209 229 255
209 229 255
209 229 255
209 229 255
209 229 255
209 229 255
209 229 255
209 229 255
209 229 255
209 229 255
209 229 255
209 229 255
209 229 255
209 229 255
209 229 255
209 229 255
209 229 255
209 229 255
209 229 255
208 229 255
208 229 255
208 229 255
208 229 255
208 229 255
208 229 255
208 229 255
208 228 255
208 228 255
208 228 255
208 228 255
208 228 255
208 228 255
208 228 255
208 228 255
208 228 255
208 228 255
208 228 255
207 228 255
207 228 255
207 228 255
207 228 255
207 228 255
207 228 255
207 228 255
207 228 255
207 228 255
207 228 255
207 228 255
207 228 255
207 228 255
207 228 255
207 228 255
207 228 255
207 228 255
206 228 255
206 228 255
206 228 255
206 227 255
206 227 255
206 227 255
206 227 255
206 227 255
206 227 255
206 227 255
206 227 255
206 227 255
206 227 255
206 227 255
206 227 255
206 227 255
205 227 255
205 227 255
205 227 255
205 227 255
205 227 255
205 227 255
205 227 255
205 227 255
205 227 255
205 227 255
205 227 255
205 227 255
205 227 255
205 227 255
205 227 255
204 227 255
204 227 255
204 226 255
204 226 255
204 226 255
204 226 255
204 226 255
204 226 255
204 226 255
204 226 255
204 226 255
204 226 255
204 226 255
204 226 255
204 226 255
204 226 255
203 226 255
203 226 255
203 226 255
203 226 255
203 226 255
203 226 255
203 226 255
203 226 255
203 226 255
203 226 255
203 226 255
203 226 255
203 226 255
203 226 255
203 226 255
203 226 255
202 225 255
202 225 255
202 225 255
202 225 255
202 225 255
202 225 255
202 225 255
202 225 255
202 225 255
202 225 255
202 225 255
202 225 255
202 225 255
202 225 255
202 225 255
202 225 255
202 225 255
202 225 255
201 225 255
201 225 255
201 225 255
201 225 255
201 225 255
201 225 255
201 225 255
201 225 255
201 225 255
201 225 255
201 225 255
201 225 255
201 225 255
201 225 255
201 225 255
201 225 255
201 225 255
201 225 255
201 225 255
201 225 255
201 225 255
201 225 255
201 224 255
201 224 255
201 224 255
200 224 255
200 224 255
200 224 255
200 224 255
200 224 255
200 224 255
200 224 255
200 224 255
200 224 255
200 224 255
200 224 255
200 224 255
200 224 255
200 224 255
200 224 255
200 224 255
200 224 255
200 224 255
200 224 255
200 224 255
200 224 255
200 224 255
200 224 255
200 224 255
200 224 255
200 224 255
200 224 255
200 224 255
200 224 255
200 224 255
200 224 255
200 224 255
200 224 255
200 224 255
200 224 255
200 224 255
200 224 255
200 224 255
200 224 255
200 224 255
200 224 255
200 224 255
200 224 255
200 224 255
200 224 255
200 224 255
200 224 255
200 224 255
200 224 255
200 224 255
200 224 255
200 224 255
200 224 255
200 224 255
201 224 255
201 224 255
201 224 255
201 225 255
201 225 255
201 225 255
201 225 255
201 225 255
201 225 255
201 225 255
201 225 255
201 225 255
201 225 255
201 225 255
201 225 255
201 225 255
201 225 255
201 225 255
201 225 255
201 225 255
201 225 255
201 225 255
201 225 255
201 225 255
202 225 255
202 225 255
202 225 255
202 225 255
202 225 255
202 225 255
202 225 255
202 225 255
202 225 255
202 225 255
202 225 255
202 225 255
202 225 255
202 225 255
202 225 255
202 225 255
202 225 255
202 225 255
202 225 255
203 226 255
203 226 255
203 226 255
203 226 255
203 226 255
203 226 255
203 226 255
203 226 255
203 226 255
203 226 255
203 226 255
203 226 255
203 226 255
203 226 255
203 226 255
203 226 255
204 226 255
204 226 255
204 226 255
204 226 255
204 226 255
204 226 255
204 226 255
204 226 255
204 226 255
204 226 255
204 226 255
204 226 255
204 226 255
204 226 255
204 227 255
204 227 255
205 227 255
205 227 255
205 227 255
205 227 255
205 227 255
205 227 255
205 227 255
205 227 255
205 227 255
205 227 255
205 227 255
205 227 255
205 227 255
205 227 255
205 227 255
206 227 255
206 227 255
206 227 255
206 227 255
206 227 255
206 227 255
206 227 255
206 227 255
206 227 255
206 227 255
206 227 255
206 227 255
206 227 255
206 228 255
206 228 255
206 228 255
207 228 255
207 228 255
207 228 255
207 228 255
207 228 255
207 228 255
207 228 255
207 228 255
207 228 255
207 228 255
207 228 255
207 228 255
207 228 255
207 228 255
207 228 255
207 228 255
207 228 255
208 228 255
208 228 255
208 228 255
208 228 255
208 228 255
208 228 255
208 228 255
208 228 255
208 228 255
208 228 255
208 228 255
208 229 255
208 229 255
208 229 255
208 229 255
208 229 255
208 229 255
208 229 255
209 229 255
209 229 255
209 229 255
209 229 255
209 229 255
209 229 255
209 229 255
209 229 255
209 229 255
209 229 255
209 229 255
209 229 255
209 229 255
209 229 255
209 229 255
209 229 255
209 229 255
209 229 255
209 229 255
210 229 255
210 229 255
210 229 255
210 229 255
210 229 255
210 229 255
210 229 255
210 229 255
210 229 255
210 229 255
210 230 255
210 230 255
210 230 255
210 230 255
210 230 255
210 230 255
210 230 255
210 230 255
210 229 255
210 229 255
210 229 255
210 229 255
210 229 255
210 229 255
210 229 255
210 229 255
210 229 255
210 229 255
210 229 255
209 229 255
209 229 255
209 229 255
209 229 255
209 229 255
209 229 255
209 229 255
209 229 255
209 229 255
209 229 255
209 229 255
209 229 255
209 229 255
209 229 255
209 229 255
209 229 255
209 229 255
209 229 255
209 229 255
208 229 255
208 229 255
208 229 255
208 229 255
208 229 255
208 229 255
208 228 255
208 228 255
208 228 255
208 228 255
208 228 255
208 228 255
208 228 255
208 228 255
208 228 255
208 228 255
208 228 255
207 228 255
207 228 255
207 228 255
207 228 255
207 228 255
207 228 255
207 228 255
207 228 255
207 228 255
207 228 255
207 228 255
207 228 255
207 228 255
207 228 255
207 228 255
207 228 255
207 228 255
206 228 255
206 228 255
206 228 255
206 228 255
206 227 255
206 227 255
206 227 255
206 227 255
206 227 255
206 227 255
206 227 255
206 227 255
206 227 255
206 227 255
206 227 255
206 227 255
205 227 255
205 227 255
205 227 255
205 227 255
205 227 255
205 227 255
205 227 255
205 227 255
205 227 255
205 227 255
205 227 255
205 227 255
205 227 255
205 227 255
205 227 255
204 227 255
204 227 255
204 226 255
204 226 255
204 226 255
204 226 255
204 226 255
204 226 255
204 226 255
204 226 255
204 226 255
204 226 255
204 226 255
204 226 255
204 226 255
204 226 255
203 226 255
203 226 255
203 226 255
203 226 255
203 226 255
203 226 255
203 226 255
203 226 255
203 226 255
203 226 255
203 226 255
203 226 255
203 226 255
203 226 255
203 226 255
203 226 255
203 226 255
202 225 255
202 225 255
202 225 255
202 225 255
202 225 255
202 225 255
202 225 255
202 225 255
202 225 255
202 225 255
202 225 255
202 225 255
202 225 255
202 225 255
202 225 255
202 225 255
202 225 255
202 225 255
202 225 255
201 225 255
201 225 255
201 225 255
201 225 255
201 225 255
201 225 255
201 225 255
201 225 255
201 225 255
201 225 255
201 225 255
201 225 255
201 225 255
201 225 255
201 225 255
201 225 255
201 225 255
201 225 255
201 225 255
201 225 255
201 225 255
201 225 255
201 225 255
201 224 255
201 224 255
201 224 255
201 224 255
200 224 255
200 224 255
200 224 255
200 224 255
200 224 255
200 224 255
200 224 255
200 224 255
200 224 255
200 224 255
200 224 255
200 224 255
200 224 255
200 224 255
200 224 255
200 224 255
200 224 255
200 224 255
200 224 255
200 224 255
200 224 255
200 224 255
200 224 255
200 224 255
200 224 255
200 224 255
200 224 255
200 224 255
200 224 255
200 224 255
200 224 255
200 224 255
200 224 255
200 224 255
200 224 255
200 224 255
200 224 255
200 224 255
200 224 255
200 224 255
200 224 255
200 224 255
201 224 255
201 224 255
201 224 255
201 225 255
201 225 255
201 225 255
201 225 255
201 225 255
201 225 255
201 225 255
201 225 255
201 225 255
201 225 255
201 225 255
201 225 255
201 225 255
201 225 255
201 225 255
201 225 255
201 225 255
201 225 255
201 225 255
201 225 255
201 225 255
201 225 255
201 225 255
201 225 255
201 225 255
202 225 255
202 225 255
202 225 255
202 225 255
202 225 255
202 225 255
202 225 255
202 225 255
202 225 255
202 225 255
202 225 255
202 225 255
202 225 255
202 225 255
202 225 255
202 225 255
202 225 255
202 225 255
203 226 255
203 226 255
203 226 255
203 226 255
203 226 255
203 226 255
203 226 255
203 226 255
203 226 255
203 226 255
203 226 255
203 226 255
203 226 255
203 226 255
203 226 255
203 226 255
203 226 255
204 226 255
204 226 255
204 226 255
204 226 255
204 226 255
204 226 255
204 226 255
204 226 255
204 226 255
204 226 255
204 226 255
204 226 255
204 226 255
204 226 255
204 227 255
204 227 255
205 227 255
205 227 255
205 227 255
205 227 255
205 227 255
205 227 255
205 227 255
205 227 255
205 227 255
205 227 255
205 227 255
205 227 255
205 227 255
205 227 255
205 227 255
206 227 255
206 227 255
206 227 255
206 227 255
206 227 255
206 227 255
206 227 255
206 227 255
206 227 255
206 227 255
206 227 255
206 227 255
206 228 255
206 228 255
206 228 255
206 228 255
207 228 255
207 228 255
207 228 255
207 228 255
207 228 255
207 228 255
207 228 255
207 228 255
207 228 255
207 228 255
207 228 255
207 228 255
207 228 255
207 228 255
207 228 255
207 228 255
207 228 255
208 228 255
208 228 255
208 228 255
208 228 255
208 228 255
208 228 255
208 228 255
208 228 255
208 228 255
208 228 255
208 228 255
208 229 255
208 229 255
208 229 255
208 229 255
208 229 255
208 229 255
209 229 255
209 229 255
209 229 255
209 229 255
209 229 255
209 229 255
209 229 255
209 229 255
209 229 255
209 229 255
209 229 255
209 229 255
209 229 255
209 229 255
209 229 255
209 229 255
209 229 255
209 229 255
209 229 255
209 229 255
210 229 255
210 229 255
210 229 255
210 229 255
210 229 255
210 229 255
210 229 255
210 229 255
210 229 255
210 229 255
210 230 255
210 230 255
210 230 255
210 230 255
210 230 255
210 230 255
210 230 255
210 230 255
210 230 255
210 230 255
210 230 255
210 230 255
210 230 255
210 229 255
210 229 255
210 229 255
210 229 255
210 229 255
210 229 255
210 229 255
210 229 255
210 229 255
210 229 255
209 229 255
209 229 255
209 229 255
209 229 255
209 229 255
209 229 255
209 229 255
209 229 255
209 229 255
209 229 255
209 229 255
209 229 255
209 229 255
209 229 255
209 229 255
209 229 255
209 229 255
209 229 255
209 229 255
208 229 255
208 229 255
208 229 255
208 229 255
208 229 255
208 229 255
208 229 255
208 228 255
208 228 255
208 228 255
208 228 255
208 228 255
208 228 255
208 228 255
208 228 255
208 228 255
208 228 255
208 228 255
207 228 255
207 228 255
207 228 255
207 228 255
207 228 255
207 228 255
207 228 255
207 228 255
207 228 255
207 228 255
207 228 255
207 228 255
207 228 255
207 228 255
207 228 255
207 228 255
206 228 255
206 228 255
206 228 255
206 228 255
206 227 255
206 227 255
206 227 255
206 227 255
206 227 255
206 227 255
206 227 255
206 227 255
206 227 255
206 227 255
206 227 255
206 227 255
205 227 255
205 227 255
205 227 255
205 227 255
205 227 255
205 227 255
205 227 255
205 227 255
205 227 255
205 227 255
205 227 255
205 227 255
205 227 255
205 227 255
205 227 255
205 227 255
204 227 255
204 227 255
204 226 255
204 226 255
204 226 255
204 226 255
204 226 255
204 226 255
204 226 255
204 226 255
204 226 255
204 226 255
204 226 255
204 226 255
204 226 255
204 226 255
203 226 255
203 226 255
203 226 255
203 226 255
203 226 255
203 226 255
203 226 255
203 226 255
203 226 255
203 226 255
203 226 255
203 226 255
203 226 255
203 226 255
203 226 255
203 226 255
202 225 255
202 225 255
202 225 255
202 225 255
202 225 255
202 225 255
202 225 255
202 225 255
202 225 255
202 225 255
202 225 255
202 225 255
202 225 255
202 225 255
202 225 255
202 225 255
202 225 255
202 225 255
202 225 255
202 225 255
201 225 255
201 225 255
201 225 255
201 225 255
201 225 255
201 225 255
201 225 255
201 225 255
201 225 255
201 225 255
201 225 255
201 225 255
201 225 255
201 225 255
201 225 255
201 225 255
201 225 255
201 225 255
201 225 255
201 225 255
201 225 255
201 225 255
201 225 255
201 225 255
201 225 255
201 225 255
201 225 255
201 224 255
201 224 255
201 224 255
201 224 255
201 224 255
200 224 255
200 224 255
200 224 255
200 224 255
200 224 255
200 224 255
200 224 255
200 224 255
200 224 255
200 224 255
200 224 255
200 224 255
200 224 255
200 224 255
200 224 255
200 224 255
200 224 255
200 224 255
200 224 255
200 224 255
200 224 255
200 224 255
200 224 255
200 224 255
200 224 255
200 224 255
201 224 255
201 224 255
201 224 255
201 224 255
201 224 255
201 225 255
201 225 255
201 225 255
201 225 255
201 225 255
201 225 255
201 225 255
201 225 255
201 225 255
201 225 255
201 225 255
201 225 255
201 225 255
201 225 255
201 225 255
201 225 255
201 225 255
201 225 255
201 225 255
201 225 255
201 225 255
201 225 255
201 225 255
201 225 255
201 225 255
201 225 255
201 225 255
202 225 255
202 225 255
202 225 255
202 225 255
202 225 255
202 225 255
202 225 255
202 225 255
202 225 255
202 225 255
202 225 255
202 225 255
202 225 255
202 225 255
202 225 255
202 225 255
202 225 255
202 225 255
202 225 255
202 225 255
203 226 255
203 226 255
203 226 255
203 226 255
203 226 255
203 226 255
203 226 255
203 226 255
203 226 255
203 226 255
203 226 255
203 226 255
203 226 255
203 226 255
203 226 255
203 226 255
204 226 255
204 226 255
204 226 255
204 226 255
204 226 255
204 226 255
204 226 255
204 226 255
204 226 255
204 226 255
204 226 255
204 226 255
204 226 255
204 226 255
204 227 255
204 227 255
205 227 255
205 227 255
205 227 255
205 227 255
205 227 255
205 227 255
205 227 255
205 227 255
205 227 255
205 227 255
205 227 255
205 227 255
205 227 255
205 227 255
205 227 255
205 227 255
206 227 255
206 227 255
206 227 255
206 227 255
206 227 255
206 227 255
206 227 255
206 227 255
206 227 255
206 227 255
206 227 255
206 227 255
206 228 255
206 228 255
206 228 255
206 228 255
207 228 255
207 228 255
207 228 255
207 228 255
207 228 255
207 228 255
207 228 255
207 228 255
207 228 255
207 228 255
207 228 255
207 228 255
207 228 255
207 228 255
207 228 255
207 228 255
208 228 255
208 228 255
208 228 255
208 228 255
208 228 255
208 228 255
208 228 255
208 228 255
208 228 255
208 228 255
208 228 255
208 229 255
208 229 255
208 229 255
208 229 255
208 229 255
208 229 255
208 229 255
209 229 255
209 229 255
209 229 255
209 229 255
209 229 255
209 229 255
209 229 255
209 229 255
209 229 255
209 229 255
209 229 255
209 229 255
209 229 255
209 229 255
209 229 255
209 229 255
209 229 255
209 229 255
209 229 255
210 229 255
210 229 255
210 229 255
210 229 255
210 229 255
210 229 255
210 229 255
210 229 255
210 229 255
210 229 255
210 230 255
210 230 255
210 230 255
210 230 255
210 230 255
210 230 255
210 230 255
210 230 255
210 230 255
210 230 255
210 230 255
210 230 255
210 230 255
210 230 255
210 230 255
210 230 255
210 230 255
210 230 255
210 230 255
210 229 255
210 229 255
210 229 255
210 229 255
210 229 255
210 229 255
210 229 255
210 229 255
210 229 255
210 229 255
209 229 255
209 229 255
209 229 255
209 229 255
209 229 255
209 229 255
209 229 255
209 229 255
209 229 255
209 229 255
209 229 255
209 229 255
209 229 255
209 229 255
209 229 255
209 229 255
209 229 255
209 229 255
208 229 255
208 229 255
208 229 255
208 229 255
208 229 255
208 229 255
208 229 255
208 228 255
208 228 255
208 228 255
208 228 255
208 228 255
208 228 255
208 228 255
208 228 255
208 228 255
208 228 255
208 228 255
207 228 255
207 228 255
207 228 255
207 228 255
207 228 255
207 228 255
207 228 255
207 228 255
207 228 255
207 228 255
207 228 255
207 228 255
207 228 255
207 228 255
207 228 255
207 228 255
206 228 255
206 228 255
206 228 255
206 228 255
206 227 255
206 227 255
206 227 255
206 227 255
206 227 255
206 227 255
206 227 255
206 227 255
206 227 255
206 227 255
206 227 255
206 227 255
205 227 255
205 227 255
205 227 255
205 227 255
205 227 255
205 227 255
205 227 255
205 227 255
205 227 255
205 227 255
205 227 255
205 227 255
205 227 255
205 227 255
205 227 255
205 227 255
204 227 255
204 227 255
204 226 255
204 226 255
204 226 255
204 226 255
204 226 255
204 226 255
204 226 255
204 226 255
204 226 255
204 226 255
204 226 255
204 226 255
204 226 255
204 226 255
203 226 255
203 226 255
203 226 255
203 226 255
203 226 255
203 226 255
203 226 255
203 226 255
203 226 255
203 226 255
203 226 255
203 226 255
203 226 255
203 226 255
203 226 255
203 226 255
203 226 255
202 225 255
202 225 255
202 225 255
202 225 255
202 225 255
202 225 255
202 225 255
202 225 255
202 225 255
202 225 255
202 225 255
202 225 255
202 225 255
202 225 255
202 225 255
202 225 255
202 225 255
202 225 255
202 225 255
202 225 255
201 225 255
201 225 255
201 225 255
201 225 255
201 225 255
201 225 255
201 225 255
201 225 255
201 225 255
201 225 255
201 225 255
201 225 255
201 225 255
201 225 255
201 225 255
201 225 255
201 225 255
201 225 255
201 225 255
201 225 255
201 225 255
201 225 255
201 225 255
201 225 255
201 225 255
201 225 255
201 225 255
201 225 255
201 225 255
201 225 255
201 225 255
201 225 255
201 225 255
201 225 255
201 224 255
201 224 255
201 224 255
201 224 255
201 224 255
201 224 255
201 224 255
201 224 255
201 224 255
201 224 255
201 224 255
201 224 255
201 224 255
201 224 255
201 224 255
201 224 255
201 225 255
201 225 255
201 225 255
201 225 255
201 225 255
201 225 255
201 225 255
201 225 255
201 225 255
201 225 255
201 225 255
201 225 255
201 225 255
201 225 255
201 225 255
201 225 255
201 225 255
201 225 255
201 225 255
201 225 255
201 225 255
201 225 255
201 225 255
201 225 255
201 225 255
201 225 255
201 225 255
201 225 255
201 225 255
201 225 255
201 225 255
201 225 255
201 225 255
201 225 255
202 225 255
202 225 255
202 225 255
202 225 255
202 225 255
202 225 255
202 225 255
202 225 255
202 225 255
202 225 255
202 225 255
202 225 255
202 225 255
202 225 255
202 225 255
202 225 255
202 225 255
202 225 255
202 225 255
202 225 255
203 226 255
203 226 255
203 226 255
203 226 255
203 226 255
203 226 255
203 226 255
203 226 255
203 226 255
203 226 255
203 226 255
203 226 255
203 226 255
203 226 255
203 226 255
203 226 255
203 226 255
204 226 255
204 226 255
204 226 255
204 226 255
204 226 255
204 226 255
204 226 255
204 226 255
204 226 255
204 226 255
204 226 255
204 226 255
204 226 255
204 226 255
204 227 255
204 227 255
205 227 255
205 227 255
205 227 255
205 227 255
205 227 255
205 227 255
205 227 255
205 227 255
205 227 255
205 227 255
205 227 255
205 227 255
205 227 255
205 227 255
205 227 255
206 227 255
206 227 255
206 227 255
206 227 255
206 227 255
206 227 255
206 227 255
206 227 255
206 227 255
206 227 255
206 227 255
206 227 255
206 227 255
206 228 255
206 228 255
206 228 255
207 228 255
207 228 255
207 228 255
207 228 255
207 228 255
207 228 255
207 228 255
207 228 255
207 228 255
207 228 255
207 228 255
207 228 255
207 228 255
207 228 255
207 228 255
207 228 255
207 228 255
208 228 255
208 228 255
208 228 255
208 228 255
208 228 255
208 228 255
208 228 255
208 228 255
208 228 255
208 228 255
208 228 255
208 229 255
208 229 255
208 229 255
208 229 255
208 229 255
208 229 255
209 229 255
209 229 255
209 229 255
209 229 255
209 229 255
209 229 255
209 229 255
209 229 255
209 229 255
209 229 255
209 229 255
209 229 255
209 229 255
209 229 255
209 229 255
209 229 255
209 229 255
209 229 255
209 229 255
210 229 255
210 229 255
210 229 255
210 229 255
210 229 255
210 229 255
210 229 255
210 229 255
210 229 255
210 229 255
210 230 255
210 230 255
210 230 255
210 230 255
210 230 255
210 230 255
210 230 255
210 230 255
210 230 255
210 230 255
210 230 255
211 230 255
211 230 255
211 230 255
210 230 255
210 230 255
210 230 255
210 230 255
210 230 255
210 230 255
210 230 255
210 230 255
210 230 255
210 230 255
210 229 255
210 229 255
210 229 255
210 229 255
210 229 255
210 229 255
210 229 255
210 229 255
210 229 255
210 229 255
209 229 255
209 229 255
209 229 255
209 229 255
209 229 255
209 229 255
209 229 255
209 229 255
209 229 255
209 229 255
209 229 255
209 229 255
209 229 255
209 229 255
209 229 255
209 229 255
209 229 255
209 229 255
209 229 255
208 229 255
208 229 255
208 229 255
208 229 255
208 229 255
208 229 255
208 228 255
208 228 255
208 228 255
208 228 255
208 228 255
208 228 255
208 228 255
208 228 255
208 228 255
208 228 255
208 228 255
207 228 255
207 228 255
207 228 255
207 228 255
207 228 255
207 228 255
207 228 255
207 228 255
207 228 255
207 228 255
207 228 255
207 228 255
207 228 255
207 228 255
207 228 255
207 228 255
207 228 255
206 228 255
206 228 255
206 228 255
206 228 255
206 227 255
206 227 255
206 227 255
206 227 255
206 227 255
206 227 255
206 227 255
206 227 255
206 227 255
206 227 255
206 227 255
206 227 255
205 227 255
205 227 255
205 227 255
205 227 255
205 227 255
205 227 255
205 227 255
205 227 255
205 227 255
205 227 255
205 227 255
205 227 255
205 227 255
205 227 255
205 227 255
205 227 255
204 227 255
204 226 255
204 226 255
204 226 255
204 226 255
204 226 255
204 226 255
204 226 255
204 226 255
204 226 255
204 226 255
204 226 255
204 226 255
204 226 255
204 226 255
204 226 255
203 226 255
203 226 255
203 226 255
203 226 255
203 226 255
203 226 255
203 226 255
203 226 255
203 226 255
203 226 255
203 226 255
203 226 255
203 226 255
203 226 255
203 226 255
203 226 255
203 226 255
202 225 255
202 225 255
202 225 255
202 225 255
202 225 255
202 225 255
202 225 255
202 225 255
202 225 255
202 225 255
202 225 255
202 225 255
202 225 255
202 225 255
202 225 255
202 225 255
202 225 255
202 225 255
202 225 255
202 225 255
202 225 255
201 225 255
201 225 255
201 225 255
201 225 255
201 225 255
201 225 255
201 225 255
201 225 255
201 225 255
201 225 255
201 225 255
201 225 255
201 225 255
201 225 255
201 225 255
201 225 255
201 225 255
201 225 255
201 225 255
201 225 255
201 225 255
201 225 255
201 225 255
201 225 255
201 225 255
201 225 255
201 225 255
201 225 255
201 225 255
201 225 255
201 225 255
201 225 255
201 225 255
201 225 255
201 225 255
201 225 255
201 225 255
201 225 255
201 225 255
201 225 255
201 225 255
201 225 255
201 225 255
201 225 255
201 225 255
201 225 255
201 225 255
201 225 255
201 225 255
201 225 255
201 225 255
201 225 255
201 225 255
201 225 255
201 225 255
201 225 255
201 225 255
201 225 255
201 225 255
201 225 255
201 225 255
201 225 255
201 225 255
201 225 255
201 225 255
201 225 255
201 225 255
201 225 255
201 225 255
201 225 255
201 225 255
201 225 255
201 225 255
201 225 255
201 225 255
201 225 255
202 225 255
202 225 255
202 225 255
202 225 255
202 225 255
202 225 255
202 225 255
202 225 255
202 225 255
202 225 255
202 225 255
202 225 255
202 225 255
202 225 255
202 225 255
202 225 255
202 225 255
202 225 255
202 225 255
202 225 255
202 225 255
203 226 255
203 226 255
203 226 255
203 226 255
203 226 255
203 226 255
203 226 255
203 226 255
203 226 255
203 226 255
203 226 255
203 226 255
203 226 255
203 226 255
203 226 255
203 226 255
203 226 255
204 226 255
204 226 255
204 226 255
204 226 255
204 226 255
204 226 255
204 226 255
204 226 255
204 226 255
204 226 255
204 226 255
204 226 255
204 226 255
204 226 255
204 226 255
204 227 255
205 227 255
205 227 255
205 227 255
205 227 255
205 227 255
205 227 255
205 227 255
205 227 255
205 227 255
205 227 255
205 227 255
205 227 255
205 227 255
205 227 255
205 227 255
205 227 255
206 227 255
206 227 255
206 227 255
206 227 255
206 227 255
206 227 255
206 227 255
206 227 255
206 227 255
206 227 255
206 227 255
206 227 255
206 228 255
206 228 255
206 228 255
206 228 255
207 228 255
207 228 255
207 228 255
207 228 255
207 228 255
207 228 255
207 228 255
207 228 255
207 228 255
207 228 255
207 228 255
207 228 255
207 228 255
207 228 255
207 228 255
207 228 255
208 228 255
208 228 255
208 228 255
208 228 255
208 228 255
208 228 255
208 228 255
208 228 255
208 228 255
208 228 255
208 228 255
208 228 255
208 229 255
208 229 255
208 229 255
208 229 255
208 229 255
208 229 255
209 229 255
209 229 255
209 229 255
209 229 255
209 229 255
209 229 255
209 229 255
209 229 255
209 229 255
209 229 255
209 229 255
209 229 255
209 229 255
209 229 255
209 229 255
209 229 255
209 229 255
209 229 255
209 229 255
210 229 255
210 229 255
210 229 255
210 229 255
210 229 255
210 229 255
210 229 255
210 229 255
210 229 255
210 229 255
210 230 255
210 230 255
210 230 255
210 230 255
210 230 255
210 230 255
210 230 255
210 230 255
210 230 255
210 230 255
211 230 255
211 230 255
211 230 255
211 230 255
211 230 255
211 230 255
211 230 255
211 230 255
210 230 255
210 230 255
210 230 255
210 230 255
210 230 255
210 230 255
210 230 255
210 230 255
210 230 255
210 230 255
210 230 255
210 229 255
210 229 255
210 229 255
210 229 255
210 229 255
210 229 255
210 229 255
210 229 255
210 229 255
210 229 255
209 229 255
209 229 255
209 229 255
209 229 255
209 229 255
209 229 255
209 229 255
209 229 255
209 229 255
209 229 255
209 229 255
209 229 255
209 229 255
209 229 255
209 229 255
209 229 255
209 229 255
209 229 255
208 229 255
208 229 255
208 229 255
208 229 255
208 229 255
208 229 255
208 229 255
208 228 255
208 228 255
208 228 255
208 228 255
208 228 255
208 228 255
208 228 255
208 228 255
208 228 255
208 228 255
208 228 255
207 228 255
207 228 255
207 228 255
207 228 255
207 228 255
207 228 255
207 228 255
207 228 255
207 228 255
207 228 255
207 228 255
207 228 255
207 228 255
207 228 255
207 228 255
207 228 255
206 228 255
206 228 255
206 228 255
206 228 255
206 227 255
206 227 255
206 227 255
206 227 255
206 227 255
206 227 255
206 227 255
206 227 255
206 227 255
206 227 255
206 227 255
206 227 255
205 227 255
205 227 255
205 227 255
205 227 255
205 227 255
205 227 255
205 227 255
205 227 255
205 227 255
205 227 255
205 227 255
205 227 255
205 227 255
205 227 255
205 227 255
205 227 255
204 227 255
204 227 255
204 226 255
204 226 255
204 226 255
204 226 255
204 226 255
204 226 255
204 226 255
204 226 255
204 226 255
204 226 255
204 226 255
204 226 255
204 226 255
204 226 255
203 226 255
203 226 255
203 226 255
203 226 255
203 226 255
203 226 255
203 226 255
203 226 255
203 226 255
203 226 255
203 226 255
203 226 255
203 226 255
203 226 255
203 226 255
203 226 255
203 226 255
203 226 255
202 225 255
202 225 255
202 225 255
202 225 255
202 225 255
202 225 255
202 225 255
202 225 255
202 225 255
202 225 255
202 225 255
202 225 255
202 225 255
202 225 255
202 225 255
202 225 255
202 225 255
202 225 255
202 225 255
202 225 255
202 225 255
202 225 255
201 225 255
201 225 255
201 225 255
201 225 255
201 225 255
201 225 255
201 225 255
201 225 255
201 225 255
201 225 255
201 225 255
201 225 255
201 225 255
201 225 255
201 225 255
201 225 255
201 225 255
201 225 255
201 225 255
201 225 255
201 225 255
201 225 255
201 225 255
201 225 255
201 225 255
201 225 255
201 225 255
201 225 255
201 225 255
201 225 255
201 225 255
201 225 255
201 225 255
201 225 255
201 225 255
201 225 255
201 225 255
201 225 255
201 225 255
201 225 255
201 225 255
201 225 255
201 225 255
201 225 255
201 225 255
201 225 255
201 225 255
201 225 255
201 225 255
201 225 255
201 225 255
201 225 255
201 225 255
201 225 255
201 225 255
201 225 255
201 225 255
201 225 255
201 225 255
201 225 255
201 225 255
201 225 255
201 225 255
201 225 255
201 225 255
201 225 255
201 225 255
201 225 255
202 225 255
202 225 255
202 225 255
202 225 255
202 225 255
202 225 255
202 225 255
202 225 255
202 225 255
202 225 255
202 225 255
202 225 255
202 225 255
202 225 255
202 225 255
202 225 255
202 225 255
202 225 255
202 225 255
202 225 255
202 225 255
202 225 255
203 226 255
203 226 255
203 226 255
203 226 255
203 226 255
203 226 255
203 226 255
203 226 255
203 226 255
203 226 255
203 226 255
203 226 255
203 226 255
203 226 255
203 226 255
203 226 255
203 226 255
203 226 255
204 226 255
204 226 255
204 226 255
204 226 255
204 226 255
204 226 255
204 226 255
204 226 255
204 226 255
204 226 255
204 226 255
204 226 255
204 226 255
204 226 255
204 227 255
204 227 255
205 227 255
205 227 255
205 227 255
205 227 255
205 227 255
205 227 255
205 227 255
205 227 255
205 227 255
205 227 255
205 227 255
205 227 255
205 227 255
205 227 255
205 227 255
205 227 255
206 227 255
206 227 255
206 227 255
206 227 255
206 227 255
206 227 255
206 227 255
206 227 255
206 227 255
206 227 255
206 227 255
206 227 255
206 228 255
206 228 255
206 228 255
206 228 255
207 228 255
207 228 255
207 228 255
207 228 255
207 228 255
207 228 255
207 228 255
207 228 255
207 228 255
207 228 255
207 228 255
207 228 255
207 228 255
207 228 255
207 228 255
207 228 255
208 228 255
208 228 255
208 228 255
208 228 255
208 228 255
208 228 255
208 228 255
208 228 255
208 228 255
208 228 255
208 228 255
208 229 255
208 229 255
208 229 255
208 229 255
208 229 255
208 229 255
209 229 255
209 229 255
209 229 255
209 229 255
209 229 255
209 229 255
209 229 255
209 229 255
209 229 255
209 229 255
209 229 255
209 229 255
209 229 255
209 229 255
209 229 255
209 229 255
209 229 255
209 229 255
209 229 255
210 229 255
210 229 255
210 229 255
210 229 255
210 229 255
210 229 255
210 229 255
210 229 255
210 229 255
210 229 255
210 230 255
210 230 255
210 230 255
210 230 255
210 230 255
210 230 255
210 230 255
210 230 255
210 230 255
210 230 255
210 230 255
211 230 255
211 230 255
211 230 255
211 230 255
211 230 255
211 230 255
211 230 255
211 230 255
211 230 255
211 230 255
211 230 255
211 230 255
211 230 255
210 230 255
210 230 255
210 230 255
210 230 255
210 230 255
210 230 255
210 230 255
210 230 255
210 230 255
210 230 255
210 230 255
210 229 255
210 229 255
210 229 255
210 229 255
210 229 255
210 229 255
210 229 255
210 229 255
210 229 255
210 229 255
209 229 255
209 229 255
209 229 255
209 229 255
209 229 255
209 229 255
209 229 255
209 229 255
209 229 255
209 229 255
209 229 255
209 229 255
209 229 255
209 229 255
209 229 255
209 229 255
209 229 255
209 229 255
208 229 255
208 229 255
208 229 255
208 229 255
208 229 255
208 229 255
208 229 255
208 228 255
208 228 255
208 228 255
208 228 255
208 228 255
208 228 255
208 228 255
208 228 255
208 228 255
208 228 255
207 228 255
207 228 255
207 228 255
207 228 255
207 228 255
207 228 255
207 228 255
207 228 255
207 228 255
207 228 255
207 228 255
207 228 255
207 228 255
207 228 255
207 228 255
207 228 255
207 228 255
206 228 255
206 228 255
206 228 255
206 228 255
206 227 255
206 227 255
206 227 255
206 227 255
206 227 255
206 227 255
206 227 255
206 227 255
206 227 255
206 227 255
206 227 255
206 227 255
205 227 255
205 227 255
205 227 255
205 227 255
205 227 255
205 227 255
205 227 255
205 227 255
205 227 255
205 227 255
205 227 255
205 227 255
205 227 255
205 227 255
205 227 255
205 227 255
204 227 255
204 226 255
204 226 255
204 226 255
204 226 255
204 226 255
204 226 255
204 226 255
204 226 255
204 226 255
204 226 255
204 226 255
204 226 255
204 226 255
204 226 255
204 226 255
203 226 255
203 226 255
203 226 255
203 226 255
203 226 255
203 226 255
203 226 255
203 226 255
203 226 255
203 226 255
203 226 255
203 226 255
203 226 255
203 226 255
203 226 255
203 226 255
203 226 255
203 226 255
202 225 255
202 225 255
202 225 255
202 225 255
202 225 255
202 225 255
202 225 255
202 225 255
202 225 255
202 225 255
202 225 255
202 225 255
202 225 255
202 225 255
202 225 255
202 225 255
202 225 255
202 225 255
202 225 255
202 225 255
202 225 255
202 225 255
202 225 255
202 225 255
201 225 255
201 225 255
201 225 255
201 225 255
201 225 255
201 225 255
201 225 255
201 225 255
201 225 255
201 225 255
201 225 255
201 225 255
201 225 255
201 225 255
201 225 255
201 225 255
201 225 255
201 225 255
201 225 255
201 225 255
201 225 255
201 225 255
201 225 255
201 225 255
201 225 255
201 225 255
201 225 255
201 225 255
201 225 255
201 225 255
201 225 255
201 225 255
201 225 255
201 225 255
201 225 255
201 225 255
201 225 255
201 225 255
201 225 255
201 225 255
201 225 255
201 225 255
201 225 255
201 225 255
201 225 255
201 225 255
201 225 255
201 225 255
201 225 255
201 225 255
201 225 255
201 225 255
201 225 255
201 225 255
201 225 255
201 225 255
201 225 255
201 225 255
202 225 255
202 225 255
202 225 255
202 225 255
202 225 255
202 225 255
202 225 255
202 225 255
202 225 255
202 225 255
202 225 255
202 225 255
202 225 255
202 225 255
202 225 255
202 225 255
202 225 255
202 225 255
202 225 255
202 225 255
202 225 255
202 225 255
202 225 255
202 225 255
203 226 255
203 226 255
203 226 255
203 226 255
203 226 255
203 226 255
203 226 255
203 226 255
203 226 255
203 226 255
203 226 255
203 226 255
203 226 255
203 226 255
203 226 255
203 226 255
203 226 255
203 226 255
204 226 255
204 226 255
204 226 255
204 226 255
204 226 255
204 226 255
204 226 255
204 226 255
204 226 255
204 226 255
204 226 255
204 226 255
204 226 255
204 226 255
204 226 255
204 227 255
205 227 255
205 227 255
205 227 255
205 227 255
205 227 255
205 227 255
205 227 255
205 227 255
205 227 255
205 227 255
205 227 255
205 227 255
205 227 255
205 227 255
205 227 255
205 227 255
206 227 255
206 227 255
206 227 255
206 227 255
206 227 255
206 227 255
206 227 255
206 227 255
206 227 255
206 227 255
206 227 255
206 227 255
206 228 255
206 228 255
206 228 255
206 228 255
207 228 255
207 228 255
207 228 255
207 228 255
207 228 255
207 228 255
207 228 255
207 228 255
207 228 255
207 228 255
207 228 255
207 228 255
207 228 255
207 228 255
207 228 255
207 228 255
207 228 255
208 228 255
208 228 255
208 228 255
208 228 255
208 228 255
208 228 255
208 228 255
208 228 255
208 228 255
208 228 255
208 228 255
208 229 255
208 229 255
208 229 255
208 229 255
208 229 255
208 229 255
209 229 255
209 229 255
209 229 255
209 229 255
209 229 255
209 229 255
209 229 255
209 229 255
209 229 255
209 229 255
209 229 255
209 229 255
209 229 255
209 229 255
209 229 255
209 229 255
209 229 255
209 229 255
210 229 255
210 229 255
210 229 255
210 229 255
210 229 255
210 229 255
210 229 255
210 229 255
210 229 255
210 229 255
210 229 255
210 230 255
210 230 255
210 230 255
210 230 255
210 230 255
210 230 255
210 230 255
210 230 255
210 230 255
210 230 255
211 230 255
211 230 255
211 230 255
211 230 255
211 230 255
211 230 255
211 230 255
211 230 255
211 230 255
211 230 255
211 230 255
211 230 255
211 230 255
211 230 255
211 230 255
211 230 255
211 230 255
211 230 255
211 230 255
210 230 255
210 230 255
210 230 255
210 230 255
210 230 255
210 230 255
210 230 255
210 230 255
210 230 255
210 230 255
210 229 255
210 229 255
210 229 255
210 229 255
210 229 255
210 229 255
210 229 255
210 229 255
210 229 255
210 229 255
209 229 255
209 229 255
209 229 255
209 229 255
209 229 255
209 229 255
209 229 255
209 229 255
209 229 255
209 229 255
209 229 255
209 229 255
209 229 255
209 229 255
209 229 255
209 229 255
209 229 255
209 229 255
209 229 255
208 229 255
208 229 255
208 229 255
208 229 255
208 229 255
208 229 255
208 228 255
208 228 255
208 228 255
208 228 255
208 228 255
208 228 255
208 228 255
208 228 255
208 228 255
208 228 255
208 228 255
207 228 255
207 228 255
207 228 255
207 228 255
207 228 255
207 228 255
207 228 255
207 228 255
207 228 255
207 228 255
207 228 255
207 228 255
207 228 255
207 228 255
207 228 255
207 228 255
206 228 255
206 228 255
206 228 255
206 228 255
206 227 255
206 227 255
206 227 255
206 227 255
206 227 255
206 227 255
206 227 255
206 227 255
206 227 255
206 227 255
206 227 255
206 227 255
205 227 255
205 227 255
205 227 255
205 227 255
205 227 255
205 227 255
205 227 255
205 227 255
205 227 255
205 227 255
205 227 255
205 227 255
205 227 255
205 227 255
205 227 255
205 227 255
204 227 255
204 227 255
204 226 255
204 226 255
204 226 255
204 226 255
204 226 255
204 226 255
204 226 255
204 226 255
204 226 255
204 226 255
204 226 255
204 226 255
204 226 255
204 226 255
204 226 255
203 226 255
203 226 255
203 226 255
203 226 255
203 226 255
203 226 255
203 226 255
203 226 255
203 226 255
203 226 255
203 226 255
203 226 255
203 226 255
203 226 255
203 226 255
203 226 255
203 226 255
203 226 255
202 225 255
202 225 255
202 225 255
202 225 255
202 225 255
202 225 255
202 225 255
202 225 255
202 225 255
202 225 255
202 225 255
202 225 255
202 225 255
202 225 255
202 225 255
202 225 255
202 225 255
202 225 255
202 225 255
202 225 255
202 225 255
202 225 255
202 225 255
202 225 255
202 225 255
202 225 255
201 225 255
201 225 255
201 225 255
201 225 255
201 225 255
201 225 255
201 225 255
201 225 255
201 225 255
201 225 255
201 225 255
201 225 255
201 225 255
201 225 255
201 225 255
201 225 255
201 225 255
201 225 255
201 225 255
201 225 255
201 225 255
201 225 255
201 225 255
201 225 255
201 225 255
201 225 255
201 225 255
201 225 255
201 225 255
201 225 255
201 225 255
201 225 255
201 225 255
201 225 255
201 225 255
201 225 255
201 225 255
201 225 255
201 225 255
201 225 255
201 225 255
201 225 255
201 225 255
201 225 255
201 225 255
201 225 255
201 225 255
201 225 255
202 225 255
202 225 255
202 225 255
202 225 255
202 225 255
202 225 255
202 225 255
202 225 255
202 225 255
202 225 255
202 225 255
202 225 255
202 225 255
202 225 255
202 225 255
202 225 255
202 225 255
202 225 255
202 225 255
202 225 255
202 225 255
202 225 255
202 225 255
202 225 255
202 225 255
202 225 255
203 226 255
203 226 255
203 226 255
203 226 255
203 226 255
203 226 255
203 226 255
203 226 255
203 226 255
203 226 255
203 226 255
203 226 255
203 226 255
203 226 255
203 226 255
203 226 255
203 226 255
203 226 255
204 226 255
204 226 255
204 226 255
204 226 255
204 226 255
204 226 255
204 226 255
204 226 255
204 226 255
204 226 255
204 226 255
204 226 255
204 226 255
204 226 255
204 226 255
204 227 255
204 227 255
205 227 255
205 227 255
205 227 255
205 227 255
205 227 255
205 227 255
205 227 255
205 227 255
205 227 255
205 227 255
205 227 255
205 227 255
205 227 255
205 227 255
205 227 255
205 227 255
206 227 255
206 227 255
206 227 255
206 227 255
206 227 255
206 227 255
206 227 255
206 227 255
206 227 255
206 227 255
206 227 255
206 227 255
206 228 255
206 228 255
206 228 255
206 228 255
207 228 255
207 228 255
207 228 255
207 228 255
207 228 255
207 228 255
207 228 255
207 228 255
207 228 255
207 228 255
207 228 255
207 228 255
207 228 255
207 228 255
207 228 255
207 228 255
208 228 255
208 228 255
208 228 255
208 228 255
208 228 255
208 228 255
208 228 255
208 228 255
208 228 255
208 228 255
208 228 255
208 229 255
208 229 255
208 229 255
208 229 255
208 229 255
208 229 255
209 229 255
209 229 255
209 229 255
209 229 255
209 229 255
209 229 255
209 229 255
209 229 255
209 229 255
209 229 255
209 229 255
209 229 255
209 229 255
209 229 255
209 229 255
209 229 255
209 229 255
209 229 255
209 229 255
210 229 255
210 229 255
210 229 255
210 229 255
210 229 255
210 229 255
210 229 255
210 229 255
210 229 255
210 229 255
210 230 255
210 230 255
210 230 255
210 230 255
210 230 255
210 230 255
210 230 255
210 230 255
210 230 255
210 230 255
211 230 255
211 230 255
211 230 255
211 230 255
211 230 255
211 230 255
211 230 255
211 230 255
211 230 255
211 230 255
211 230 255
211 230 255
211 230 255
211 230 255
211 230 255
211 230 255
211 230 255
211 230 255
211 230 255
211 230 255
211 230 255
211 230 255
211 230 255
211 230 255
211 230 255
210 230 255
210 230 255
210 230 255
210 230 255
210 230 255
210 230 255
210 230 255
210 230 255
210 230 255
210 230 255
210 229 255
210 229 255
210 229 255
210 229 255
210 229 255
210 229 255
210 229 255
210 229 255
210 229 255
210 229 255
209 229 255
209 229 255
209 229 255
209 229 255
209 229 255
209 229 255
209 229 255
209 229 255
209 229 255
209 229 255
209 229 255
209 229 255
209 229 255
209 229 255
209 229 255
209 229 255
209 229 255
209 229 255
208 229 255
208 229 255
208 229 255
208 229 255
208 229 255
208 229 255
208 229 255
208 228 255
208 228 255
208 228 255
208 228 255
208 228 255
208 228 255
208 228 255
208 228 255
208 228 255
208 228 255
207 228 255
207 228 255
207 228 255
207 228 255
207 228 255
207 228 255
207 228 255
207 228 255
207 228 255
207 228 255
207 228 255
207 228 255
207 228 255
207 228 255
207 228 255
207 228 255
207 228 255
206 228 255
206 228 255
206 228 255
206 228 255
206 227 255
206 227 255
206 227 255
206 227 255
206 227 255
206 227 255
206 227 255
206 227 255
206 227 255
206 227 255
206 227 255
206 227 255
205 227 255
205 227 255
205 227 255
205 227 255
205 227 255
205 227 255
205 227 255
205 227 255
205 227 255
205 227 255
205 227 255
205 227 255
205 227 255
205 227 255
205 227 255
205 227 255
204 227 255
204 226 255
204 226 255
204 226 255
204 226 255
204 226 255
204 226 255
204 226 255
204 226 255
204 226 255
204 226 255
204 226 255
204 226 255
204 226 255
204 226 255
204 226 255
204 226 255
203 226 255
203 226 255
203 226 255
203 226 255
203 226 255
203 226 255
203 226 255
203 226 255
203 226 255
203 226 255
203 226 255
203 226 255
203 226 255
203 226 255
203 226 255
203 226 255
203 226 255
203 226 255
203 226 255
202 225 255
202 225 255
202 225 255
202 225 255
202 225 255
202 225 255
202 225 255
202 225 255
202 225 255
202 225 255
202 225 255
202 225 255
202 225 255
202 225 255
202 225 255
202 225 255
202 225 255
202 225 255
202 225 255
202 225 255
202 225 255
202 225 255
202 225 255
202 225 255
202 225 255
202 225 255
202 225 255
202 225 255
202 225 255
202 225 255
201 225 255
201 225 255
201 225 255
201 225 255
201 225 255
201 225 255
201 225 255
201 225 255
201 225 255
201 225 255
201 225 255
201 225 255
201 225 255
201 225 255
201 225 255
201 225 255
201 225 255
201 225 255
201 225 255
201 225 255
201 225 255
201 225 255
201 225 255
201 225 255
201 225 255
201 225 255
201 225 255
201 225 255
201 225 255
201 225 255
201 225 255
201 225 255
201 225 255
202 225 255
202 225 255
202 225 255
202 225 255
202 225 255
202 225 255
202 225 255
202 225 255
202 225 255
202 225 255
202 225 255
202 225 255
202 225 255
202 225 255
202 225 255
202 225 255
202 225 255
202 225 255
202 225 255
202 225 255
202 225 255
202 225 255
202 225 255
202 225 255
202 225 255
202 225 255
202 225 255
202 225 255
202 225 255
203 226 255
203 226 255
203 226 255
203 226 255
203 226 255
203 226 255
203 226 255
203 226 255
203 226 255
203 226 255
203 226 255
203 226 255
203 226 255
203 226 255
203 226 255
203 226 255
203 226 255
203 226 255
203 226 255
203 226 255
204 226 255
204 226 255
204 226 255
204 226 255
204 226 255
204 226 255
204 226 255
204 226 255
204 226 255
204 226 255
204 226 255
204 226 255
204 226 255
204 226 255
204 226 255
204 227 255
205 227 255
205 227 255
205 227 255
205 227 255
205 227 255
205 227 255
205 227 255
205 227 255
205 227 255
205 227 255
205 227 255
205 227 255
205 227 255
205 227 255
205 227 255
205 227 255
206 227 255
206 227 255
206 227 255
206 227 255
206 227 255
206 227 255
206 227 255
206 227 255
206 227 255
206 227 255
206 227 255
206 227 255
206 227 255
206 228 255
206 228 255
206 228 255
207 228 255
207 228 255
207 228 255
207 228 255
207 228 255
207 228 255
207 228 255
207 228 255
207 228 255
207 228 255
207 228 255
207 228 255
207 228 255
207 228 255
207 228 255
207 228 255
207 228 255
208 228 255
208 228 255
208 228 255
208 228 255
208 228 255
208 228 255
208 228 255
208 228 255
208 228 255
208 228 255
208 228 255
208 229 255
208 229 255
208 229 255
208 229 255
208 229 255
208 229 255
209 229 255
209 229 255
209 229 255
209 229 255
209 229 255
209 229 255
209 229 255
209 229 255
209 229 255
209 229 255
209 229 255
209 229 255
209 229 255
209 229 255
209 229 255
209 229 255
209 229 255
209 229 255
210 229 255
210 229 255
210 229 255
210 229 255
210 229 255
210 229 255
210 229 255
210 229 255
210 229 255
210 229 255
210 230 255
210 230 255
210 230 255
210 230 255
210 230 255
210 230 255
210 230 255
210 230 255
210 230 255
210 230 255
211 230 255
211 230 255
211 230 255
211 230 255
211 230 255
211 230 255
211 230 255
211 230 255
211 230 255
211 230 255
211 230 255
211 230 255
211 230 255
211 230 255
211 230 255
211 230 255
211 230 255
211 230 255
211 230 255
211 230 255
211 230 255
211 230 255
211 230 255
211 230 255
211 230 255
211 230 255
211 230 255
211 230 255
211 230 255
211 230 255
210 230 255
210 230 255
210 230 255
210 230 255
210 230 255
210 230 255
210 230 255
210 230 255
210 230 255
210 230 255
210 230 255
210 229 255
210 229 255
210 229 255
210 229 255
210 229 255
210 229 255
210 229 255
210 229 255
210 229 255
209 229 255
209 229 255
209 229 255
209 229 255
209 229 255
209 229 255
209 229 255
209 229 255
209 229 255
209 229 255
209 229 255
209 229 255
209 229 255
209 229 255
209 229 255
209 229 255
209 229 255
209 229 255
209 229 255
208 229 255
208 229 255
208 229 255
208 229 255
208 229 255
208 229 255
208 228 255
208 228 255
208 228 255
208 228 255
208 228 255
208 228 255
208 228 255
208 228 255
208 228 255
208 228 255
208 228 255
207 228 255
207 228 255
207 228 255
207 228 255
207 228 255
207 228 255
207 228 255
207 228 255
207 228 255
207 228 255
207 228 255
207 228 255
207 228 255
207 228 255
207 228 255
207 228 255
206 228 255
206 228 255
206 228 255
206 228 255
206 227 255
206 227 255
206 227 255
206 227 255
206 227 255
206 227 255
206 227 255
206 227 255
206 227 255
206 227 255
206 227 255
206 227 255
205 227 255
205 227 255
205 227 255
205 227 255
205 227 255
205 227 255
205 227 255
205 227 255
205 227 255
205 227 255
205 227 255
205 227 255
205 227 255
205 227 255
205 227 255
205 227 255
204 227 255
204 227 255
204 226 255
204 226 255
204 226 255
204 226 255
204 226 255
204 226 255
204 226 255
204 226 255
204 226 255
204 226 255
204 226 255
204 226 255
204 226 255
204 226 255
204 226 255
203 226 255
203 226 255
203 226 255
203 226 255
203 226 255
203 226 255
203 226 255
203 226 255
203 226 255
203 226 255
203 226 255
203 226 255
203 226 255
203 226 255
203 226 255
203 226 255
203 226 255
203 226 255
203 226 255
203 226 255
202 225 255
202 225 255
202 225 255
202 225 255
202 225 255
202 225 255
202 225 255
202 225 255
202 225 255
202 225 255
202 225 255
202 225 255
202 225 255
202 225 255
202 225 255
202 225 255
202 225 255
202 225 255
202 225 255
202 225 255
202 225 255
202 225 255
202 225 255
202 225 255
202 225 255
202 225 255
202 225 255
202 225 255
202 225 255
202 225 255
202 225 255
202 225 255
202 225 255
202 225 255
202 225 255
202 225 255
202 225 255
202 225 255
202 225 255
202 225 255
202 225 255
202 225 255
201 225 255
202 225 255
202 225 255
202 225 255
202 225 255
202 225 255
202 225 255
202 225 255
202 225 255
202 225 255
202 225 255
202 225 255
202 225 255
202 225 255
202 225 255
202 225 255
202 225 255
202 225 255
202 225 255
202 225 255
202 225 255
202 225 255
202 225 255
202 225 255
202 225 255
202 225 255
202 225 255
202 225 255
202 225 255
202 225 255
202 225 255
202 225 255
202 225 255
202 225 255
202 225 255
202 225 255
202 225 255
202 225 255
202 225 255
202 225 255
202 225 255
202 225 255
202 225 255
202 225 255
203 226 255
203 226 255
203 226 255
203 226 255
203 226 255
203 226 255
203 226 255
203 226 255
203 226 255
203 226 255
203 226 255
203 226 255
203 226 255
203 226 255
203 226 255
203 226 255
203 226 255
203 226 255
203 226 255
203 226 255
204 226 255
204 226 255
204 226 255
204 226 255
204 226 255
204 226 255
204 226 255
204 226 255
204 226 255
204 226 255
204 226 255
204 226 255
204 226 255
204 226 255
204 226 255
204 227 255
204 227 255
205 227 255
205 227 255
205 227 255
205 227 255
205 227 255
205 227 255
205 227 255
205 227 255
205 227 255
205 227 255
205 227 255
205 227 255
205 227 255
205 227 255
205 227 255
205 227 255
206 227 255
206 227 255
206 227 255
206 227 255
206 227 255
206 227 255
206 227 255
206 227 255
206 227 255
206 227 255
206 227 255
206 227 255
206 228 255
206 228 255
206 228 255
206 228 255
207 228 255
207 228 255
207 228 255
207 228 255
207 228 255
207 228 255
207 228 255
207 228 255
207 228 255
207 228 255
207 228 255
207 228 255
207 228 255
207 228 255
207 228 255
207 228 255
208 228 255
208 228 255
208 228 255
208 228 255
208 228 255
208 228 255
208 228 255
208 228 255
208 228 255
208 228 255
208 228 255
208 229 255
208 229 255
208 229 255
208 229 255
208 229 255
208 229 255
209 229 255
209 229 255
209 229 255
209 229 255
209 229 255
209 229 255
209 229 255
209 229 255
209 229 255
209 229 255
209 229 255
209 229 255
209 229 255
209 229 255
209 229 255
209 229 255
209 229 255
209 229 255
210 229 255
210 229 255
210 229 255
210 229 255
210 229 255
210 229 255
210 229 255
210 229 255
210 229 255
210 229 255
210 230 255
210 230 255
210 230 255
210 230 255
210 230 255
210 230 255
210 230 255
210 230 255
210 230 255
210 230 255
210 230 255
211 230 255
211 230 255
211 230 255
211 230 255
211 230 255
211 230 255
211 230 255
211 230 255
211 230 255
211 230 255
211 230 255
211 230 255
211 230 255
211 230 255
211 230 255
211 230 255
211 230 255
211 230 255
211 230 255
211 230 255
211 230 255
211 230 255
211 230 255
211 230 255
211 230 255
211 230 255
211 230 255
211 230 255
211 230 255
211 230 255
211 230 255
211 230 255
211 230 255
211 230 255
211 230 255
210 230 255
210 230 255
210 230 255
210 230 255
210 230 255
210 230 255
210 230 255
210 230 255
210 230 255
210 230 255
210 230 255
210 229 255
210 229 255
210 229 255
210 229 255
210 229 255
210 229 255
210 229 255
210 229 255
210 229 255
209 229 255
209 229 255
209 229 255
209 229 255
209 229 255
209 229 255
209 229 255
209 229 255
209 229 255
209 229 255
209 229 255
209 229 255
209 229 255
209 229 255
209 229 255
209 229 255
209 229 255
209 229 255
208 229 255
208 229 255
208 229 255
208 229 255
208 229 255
208 229 255
208 229 255
208 228 255
208 228 255
208 228 255
208 228 255
208 228 255
208 228 255
208 228 255
208 228 255
208 228 255
208 228 255
207 228 255
207 228 255
207 228 255
207 228 255
207 228 255
207 228 255
207 228 255
207 228 255
207 228 255
207 228 255
207 228 255
207 228 255
207 228 255
207 228 255
207 228 255
207 228 255
207 228 255
206 228 255
206 228 255
206 228 255
206 227 255
206 227 255
206 227 255
206 227 255
206 227 255
206 227 255
206 227 255
206 227 255
206 227 255
206 227 255
206 227 255
206 227 255
206 227 255
205 227 255
205 227 255
205 227 255
205 227 255
205 227 255
205 227 255
205 227 255
205 227 255
205 227 255
205 227 255
205 227 255
205 227 255
205 227 255
205 227 255
205 227 255
205 227 255
204 227 255
204 227 255
204 226 255
204 226 255
204 226 255
204 226 255
204 226 255
204 226 255
204 226 255
204 226 255
204 226 255
204 226 255
204 226 255
204 226 255
204 226 255
204 226 255
204 226 255
203 226 255
203 226 255
203 226 255
203 226 255
203 226 255
203 226 255
203 226 255
203 226 255
203 226 255
203 226 255
203 226 255
203 226 255
203 226 255
203 226 255
203 226 255
203 226 255
203 226 255
203 226 255
203 226 255
203 226 255
203 226 255
202 225 255
202 225 255
202 225 255
202 225 255
202 225 255
202 225 255
202 225 255
202 225 255
202 225 255
202 225 255
202 225 255
202 225 255
202 225 255
202 225 255
202 225 255
202 225 255
202 225 255
202 225 255
202 225 255
202 225 255
202 225 255
202 225 255
202 225 255
202 225 255
202 225 255
202 225 255
202 225 255
202 225 255
202 225 255
202 225 255
202 225 255
202 225 255
202 225 255
202 225 255
202 225 255
202 225 255
202 225 255
202 225 255
202 225 255
202 225 255
202 225 255
202 225 255
202 225 255
202 225 255
202 225 255
202 225 255
202 225 255
202 225 255
202 225 255
202 225 255
202 225 255
202 225 255
202 225 255
202 225 255
202 225 255
202 225 255
202 225 255
202 225 255
202 225 255
202 225 255
202 225 255
202 225 255
202 225 255
202 225 255
202 225 255
202 225 255
202 225 255
202 225 255
202 225 255
202 225 255
202 225 255
202 225 255
202 225 255
202 225 255
202 225 255
202 225 255
202 225 255
202 225 255
203 226 255
203 226 255
203 226 255
203 226 255
203 226 255
203 226 255
203 226 255
203 226 255
203 226 255
203 226 255
203 226 255
203 226 255
203 226 255
203 226 255
203 226 255
203 226 255
203 226 255
203 226 255
203 226 255
203 226 255
203 226 255
204 226 255
204 226 255
204 226 255
204 226 255
204 226 255
204 226 255
204 226 255
204 226 255
204 226 255
204 226 255
204 226 255
204 226 255
204 226 255
204 226 255
204 226 255
204 227 255
204 227 255
205 227 255
205 227 255
205 227 255
205 227 255
205 227 255
205 227 255
205 227 255
205 227 255
205 227 255
205 227 255
205 227 255
205 227 255
205 227 255
205 227 255
205 227 255
205 227 255
206 227 255
206 227 255
206 227 255
206 227 255
206 227 255
206 227 255
206 227 255
206 227 255
206 227 255
206 227 255
206 227 255
206 227 255
206 228 255
206 228 255
206 228 255
206 228 255
207 228 255
207 228 255
207 228 255
207 228 255
207 228 255
207 228 255
207 228 255
207 228 255
207 228 255
207 228 255
207 228 255
207 228 255
207 228 255
207 228 255
207 228 255
207 228 255
207 228 255
208 228 255
208 228 255
208 228 255
208 228 255
208 228 255
208 228 255
208 228 255
208 228 255
208 228 255
208 228 255
208 229 255
208 229 255
208 229 255
208 229 255
208 229 255
208 229 255
208 229 255
209 229 255
209 229 255
209 229 255
209 229 255
209 229 255
209 229 255
209 229 255
209 229 255
209 229 255
209 229 255
209 229 255
209 229 255
209 229 255
209 229 255
209 229 255
209 229 255
209 229 255
209 229 255
210 229 255
210 229 255
210 229 255
210 229 255
210 229 255
210 229 255
210 229 255
210 229 255
210 229 255
210 230 255
210 230 255
210 230 255
210 230 255
210 230 255
210 230 255
210 230 255
210 230 255
210 230 255
210 230 255
210 230 255
211 230 255
211 230 255
211 230 255
211 230 255
211 230 255
211 230 255
211 230 255
211 230 255
211 230 255
211 230 255
211 230 255
211 230 255
211 230 255
211 230 255
211 230 255
211 230 255
211 230 255
211 230 255
211 230 255
211 230 255
211 230 255
211 230 255
211 230 255
211 230 255
211 230 255
211 230 255
211 230 255
211 230 255
211 230 255
211 230 255
211 230 255
211 230 255
211 230 255
211 230 255
211 230 255
211 230 255
211 230 255
211 230 255
211 230 255
211 230 255
211 230 255
210 230 255
210 230 255
210 230 255
210 230 255
210 230 255
210 230 255
210 230 255
210 230 255
210 230 255
210 230 255
210 229 255
210 229 255
210 229 255
210 229 255
210 229 255
210 229 255
210 229 255
210 229 255
210 229 255
210 229 255
209 229 255
209 229 255
209 229 255
209 229 255
209 229 255
209 229 255
209 229 255
209 229 255
209 229 255
209 229 255
209 229 255
209 229 255
209 229 255
209 229 255
209 229 255
209 229 255
209 229 255
209 229 255
208 229 255
208 229 255
208 229 255
208 229 255
208 229 255
208 229 255
208 228 255
208 228 255
208 228 255
208 228 255
208 228 255
208 228 255
208 228 255
208 228 255
208 228 255
208 228 255
208 228 255
207 228 255
207 228 255
207 228 255
207 228 255
207 228 255
207 228 255
207 228 255
207 228 255
207 228 255
207 228 255
207 228 255
207 228 255
207 228 255
207 228 255
207 228 255
207 228 255
206 228 255
206 228 255
206 228 255
206 228 255
206 227 255
206 227 255
206 227 255
206 227 255
206 227 255
206 227 255
206 227 255
206 227 255
206 227 255
206 227 255
206 227 255
206 227 255
205 227 255
205 227 255
205 227 255
205 227 255
205 227 255
205 227 255
205 227 255
205 227 255
205 227 255
205 227 255
205 227 255
205 227 255
205 227 255
205 227 255
205 227 255
205 227 255
205 227 255
204 227 255
204 227 255
204 226 255
204 226 255
204 226 255
204 226 255
204 226 255
204 226 255
204 226 255
204 226 255
204 226 255
204 226 255
204 226 255
204 226 255
204 226 255
204 226 255
204 226 255
203 226 255
203 226 255
203 226 255
203 226 255
203 226 255
203 226 255
203 226 255
203 226 255
203 226 255
203 226 255
203 226 255
203 226 255
203 226 255
203 226 255
203 226 255
203 226 255
203 226 255
203 226 255
203 226 255
203 226 255
203 226 255
203 226 255
202 225 255
202 225 255
202 225 255
202 225 255
202 225 255
202 225 255
202 225 255
202 225 255
202 225 255
202 225 255
202 225 255
202 225 255
202 225 255
202 225 255
202 225 255
202 225 255
202 225 255
202 225 255
202 225 255
202 225 255
202 225 255
202 225 255
202 225 255
202 225 255
202 225 255
202 225 255
202 225 255
202 225 255
202 225 255
202 225 255
202 225 255
202 225 255
202 225 255
202 225 255
202 225 255
202 225 255
202 225 255
202 225 255
202 225 255
202 225 255
202 225 255
202 225 255
202 225 255
202 225 255
202 225 255
202 225 255
202 225 255
202 225 255
202 225 255
202 225 255
202 225 255
202 225 255
202 225 255
202 225 255
202 225 255
202 225 255
202 225 255
202 225 255
202 225 255
202 225 255
202 225 255
202 225 255
202 225 255
202 225 255
202 225 255
202 225 255
202 225 255
202 225 255
202 225 255
202 225 255
203 226 255
203 226 255
203 226 255
203 226 255
203 226 255
203 226 255
203 226 255
203 226 255
203 226 255
203 226 255
203 226 255
203 226 255
203 226 255
203 226 255
203 226 255
203 226 255
203 226 255
203 226 255
203 226 255
203 226 255
203 226 255
203 226 255
204 226 255
204 226 255
204 226 255
204 226 255
204 226 255
204 226 255
204 226 255
204 226 255
204 226 255
204 226 255
204 226 255
204 226 255
204 226 255
204 226 255
204 226 255
204 227 255
204 227 255
205 227 255
205 227 255
205 227 255
205 227 255
205 227 255
205 227 255
205 227 255
205 227 255
205 227 255
205 227 255
205 227 255
205 227 255
205 227 255
205 227 255
205 227 255
205 227 255
205 227 255
206 227 255
206 227 255
206 227 255
206 227 255
206 227 255
206 227 255
206 227 255
206 227 255
206 227 255
206 227 255
206 227 255
206 227 255
206 228 255
206 228 255
206 228 255
206 228 255
207 228 255
207 228 255
207 228 255
207 228 255
207 228 255
207 228 255
207 228 255
207 228 255
207 228 255
207 228 255
207 228 255
207 228 255
207 228 255
207 228 255
207 228 255
207 228 255
208 228 255
208 228 255
208 228 255
208 228 255
208 228 255
208 228 255
208 228 255
208 228 255
208 228 255
208 228 255
208 228 255
208 229 255
208 229 255
208 229 255
208 229 255
208 229 255
208 229 255
209 229 255
209 229 255
209 229 255
209 229 255
209 229 255
209 229 255
209 229 255
209 229 255
209 229 255
209 229 255
209 229 255
209 229 255
209 229 255
209 229 255
209 229 255
209 229 255
209 229 255
209 229 255
210 229 255
210 229 255
210 229 255
210 229 255
210 229 255
210 229 255
210 229 255
210 229 255
210 229 255
210 229 255
210 230 255
210 230 255
210 230 255
210 230 255
210 230 255
210 230 255
210 230 255
210 230 255
210 230 255
210 230 255
211 230 255
211 230 255
211 230 255
211 230 255
211 230 255
211 230 255
211 230 255
211 230 255
211 230 255
211 230 255
211 230 255
211 230 255
211 230 255
211 230 255
211 230 255
211 230 255
211 230 255
211 230 255
211 230 255
211 230 255
211 230 255
211 230 255
212 230 255
212 230 255
212 230 255
211 230 255
211 230 255
211 230 255
211 230 255
211 230 255
211 230 255
211 230 255
211 230 255
211 230 255
211 230 255
211 230 255
211 230 255
211 230 255
211 230 255
211 230 255
211 230 255
211 230 255
211 230 255
211 230 255
211 230 255
211 230 255
211 230 255
210 230 255
210 230 255
210 230 255
210 230 255
210 230 255
210 230 255
210 230 255
210 230 255
210 230 255
210 230 255
210 229 255
210 229 255
210 229 255
210 229 255
210 229 255
210 229 255
210 229 255
210 229 255
210 229 255
210 229 255
209 229 255
209 229 255
209 229 255
209 229 255
209 229 255
209 229 255
209 229 255
209 229 255
209 229 255
209 229 255
209 229 255
209 229 255
209 229 255
209 229 255
209 229 255
209 229 255
209 229 255
209 229 255
208 229 255
208 229 255
208 229 255
208 229 255
208 229 255
208 229 255
208 228 255
208 228 255
208 228 255
208 228 255
208 228 255
208 228 255
208 228 255
208 228 255
208 228 255
208 228 255
207 228 255
207 228 255
207 228 255
207 228 255
207 228 255
207 228 255
207 228 255
207 228 255
207 228 255
207 228 255
207 228 255
207 228 255
207 228 255
207 228 255
207 228 255
207 228 255
207 228 255
206 228 255
206 228 255
206 228 255
206 228 255
206 227 255
206 227 255
206 227 255
206 227 255
206 227 255
206 227 255
206 227 255
206 227 255
206 227 255
206 227 255
206 227 255
206 227 255
205 227 255
205 227 255
205 227 255
205 227 255
205 227 255
205 227 255
205 227 255
205 227 255
205 227 255
205 227 255
205 227 255
205 227 255
205 227 255
205 227 255
205 227 255
205 227 255
204 227 255
204 227 255
204 226 255
204 226 255
204 226 255
204 226 255
204 226 255
204 226 255
204 226 255
204 226 255
204 226 255
204 226 255
204 226 255
204 226 255
204 226 255
204 226 255
204 226 255
204 226 255
204 226 255
203 226 255
203 226 255
203 226 255
203 226 255
203 226 255
203 226 255
203 226 255
203 226 255
203 226 255
203 226 255
203 226 255
203 226 255
203 226 255
203 226 255
203 226 255
203 226 255
203 226 255
203 226 255
203 226 255
203 226 255
203 226 255
203 226 255
203 226 255
203 226 255
202 225 255
202 225 255
202 225 255
202 225 255
202 225 255
202 225 255
202 225 255
202 225 255
202 225 255
202 225 255
202 225 255
202 225 255
202 225 255
202 225 255
202 225 255
202 225 255
202 225 255
202 225 255
202 225 255
202 225 255
202 225 255
202 225 255
202 225 255
202 225 255
202 225 255
202 225 255
202 225 255
202 225 255
202 225 255
202 225 255
202 225 255
202 225 255
202 225 255
202 225 255
202 225 255
202 225 255
202 225 255
202 225 255
202 225 255
202 225 255
202 225 255
202 225 255
202 225 255
202 225 255
202 225 255
202 225 255
202 225 255
202 225 255
202 225 255
202 225 255
202 225 255
202 225 255
202 225 255
202 225 255
202 225 255
202 225 255
202 225 255
202 225 255
202 225 255
203 226 255
203 226 255
203 226 255
203 226 255
203 226 255
203 226 255
203 226 255
203 226 255
203 226 255
203 226 255
203 226 255
203 226 255
203 226 255
203 226 255
203 226 255
203 226 255
203 226 255
203 226 255
203 226 255
203 226 255
203 226 255
203 226 255
203 226 255
203 226 255
204 226 255
204 226 255
204 226 255
204 226 255
204 226 255
204 226 255
204 226 255
204 226 255
204 226 255
204 226 255
204 226 255
204 226 255
204 226 255
204 226 255
204 226 255
204 226 255
204 227 255
204 227 255
205 227 255
205 227 255
205 227 255
205 227 255
205 227 255
205 227 255
205 227 255
205 227 255
205 227 255
205 227 255
205 227 255
205 227 255
205 227 255
205 227 255
205 227 255
205 227 255
206 227 255
206 227 255
206 227 255
206 227 255
206 227 255
206 227 255
206 227 255
206 227 255
206 227 255
206 227 255
206 227 255
206 227 255
206 227 255
206 228 255
206 228 255
206 228 255
207 228 255
207 228 255
207 228 255
207 228 255
207 228 255
207 228 255
207 228 255
207 228 255
207 228 255
207 228 255
207 228 255
207 228 255
207 228 255
207 228 255
207 228 255
207 228 255
208 228 255
208 228 255
208 228 255
208 228 255
208 228 255
208 228 255
208 228 255
208 228 255
208 228 255
208 228 255
208 228 255
208 229 255
208 229 255
208 229 255
208 229 255
208 229 255
208 229 255
209 229 255
209 229 255
209 229 255
209 229 255
209 229 255
209 229 255
209 229 255
209 229 255
209 229 255
209 229 255
209 229 255
209 229 255
209 229 255
209 229 255
209 229 255
209 229 255
209 229 255
209 229 255
209 229 255
210 229 255
210 229 255
210 229 255
210 229 255
210 229 255
210 229 255
210 229 255
210 229 255
210 229 255
210 230 255
210 230 255
210 230 255
210 230 255
210 230 255
210 230 255
210 230 255
210 230 255
210 230 255
210 230 255
211 230 255
211 230 255
211 230 255
211 230 255
211 230 255
211 230 255
211 230 255
211 230 255
211 230 255
211 230 255
211 230 255
211 230 255
211 230 255
211 230 255
211 230 255
211 230 255
211 230 255
211 230 255
211 230 255
211 230 255
211 230 255
211 230 255
212 230 255
212 230 255
212 230 255
212 230 255
212 230 255
212 230 255
212 230 255
212 230 255
212 230 255
211 230 255
211 230 255
211 230 255
211 230 255
211 230 255
211 230 255
211 230 255
211 230 255
211 230 255
211 230 255
211 230 255
211 230 255
211 230 255
211 230 255
211 230 255
211 230 255
211 230 255
211 230 255
211 230 255
211 230 255
211 230 255
211 230 255
210 230 255
210 230 255
210 230 255
210 230 255
210 230 255
210 230 255
210 230 255
210 230 255
210 230 255
210 230 255
210 229 255
210 229 255
210 229 255
210 229 255
210 229 255
210 229 255
210 229 255
210 229 255
210 229 255
209 229 255
209 229 255
209 229 255
209 229 255
209 229 255
209 229 255
209 229 255
209 229 255
209 229 255
209 229 255
209 229 255
209 229 255
209 229 255
209 229 255
209 229 255
209 229 255
209 229 255
209 229 255
208 229 255
208 229 255
208 229 255
208 229 255
208 229 255
208 229 255
208 229 255
208 228 255
208 228 255
208 228 255
208 228 255
208 228 255
208 228 255
208 228 255
208 228 255
208 228 255
208 228 255
207 228 255
207 228 255
207 228 255
207 228 255
207 228 255
207 228 255
207 228 255
207 228 255
207 228 255
207 228 255
207 228 255
207 228 255
207 228 255
207 228 255
207 228 255
207 228 255
206 228 255
206 228 255
206 228 255
206 228 255
206 227 255
206 227 255
206 227 255
206 227 255
206 227 255
206 227 255
206 227 255
206 227 255
206 227 255
206 227 255
206 227 255
206 227 255
205 227 255
205 227 255
205 227 255
205 227 255
205 227 255
205 227 255
205 227 255
205 227 255
205 227 255
205 227 255
205 227 255
205 227 255
205 227 255
205 227 255
205 227 255
205 227 255
205 227 255
204 227 255
204 227 255
204 226 255
204 226 255
204 226 255
204 226 255
204 226 255
204 226 255
204 226 255
204 226 255
204 226 255
204 226 255
204 226 255
204 226 255
204 226 255
204 226 255
204 226 255
204 226 255
204 226 255
203 226 255
203 226 255
203 226 255
203 226 255
203 226 255
203 226 255
203 226 255
203 226 255
203 226 255
203 226 255
203 226 255
203 226 255
203 226 255
203 226 255
203 226 255
203 226 255
203 226 255
203 226 255
203 226 255
203 226 255
203 226 255
203 226 255
203 226 255
203 226 255
203 226 255
203 226 255
202 225 255
202 225 255
202 225 255
202 225 255
202 225 255
202 225 255
202 225 255
202 225 255
202 225 255
202 225 255
202 225 255
202 225 255
202 225 255
202 225 255
202 225 255
202 225 255
202 225 255
202 225 255
202 225 255
202 225 255
202 225 255
202 225 255
202 225 255
202 225 255
202 225 255
202 225 255
202 225 255
202 225 255
202 225 255
202 225 255
202 225 255
202 225 255
202 225 255
202 225 255
202 225 255
202 225 255
202 225 255
202 225 255
202 225 255
202 225 255
202 225 255
202 225 255
202 225 255
202 225 255
202 225 255
202 225 255
202 225 255
202 225 255
203 226 255
203 226 255
203 226 255
203 226 255
203 226 255
203 226 255
203 226 255
203 226 255
203 226 255
203 226 255
203 226 255
203 226 255
203 226 255
203 226 255
203 226 255
203 226 255
203 226 255
203 226 255
203 226 255
203 226 255
203 226 255
203 226 255
203 226 255
203 226 255
203 226 255
203 226 255
204 226 255
204 226 255
204 226 255
204 226 255
204 226 255
204 226 255
204 226 255
204 226 255
204 226 255
204 226 255
204 226 255
204 226 255
204 226 255
204 226 255
204 226 255
204 226 255
204 226 255
204 227 255
204 227 255
205 227 255
205 227 255
205 227 255
205 227 255
205 227 255
205 227 255
205 227 255
205 227 255
205 227 255
205 227 255
205 227 255
205 227 255
205 227 255
205 227 255
205 227 255
205 227 255
206 227 255
206 227 255
206 227 255
206 227 255
206 227 255
206 227 255
206 227 255
206 227 255
206 227 255
206 227 255
206 227 255
206 227 255
206 227 255
206 228 255
206 228 255
206 228 255
207 228 255
207 228 255
207 228 255
207 228 255
207 228 255
207 228 255
207 228 255
207 228 255
207 228 255
207 228 255
207 228 255
207 228 255
207 228 255
207 228 255
207 228 255
207 228 255
207 228 255
208 228 255
208 228 255
208 228 255
208 228 255
208 228 255
208 228 255
208 228 255
208 228 255
208 228 255
208 228 255
208 229 255
208 229 255
208 229 255
208 229 255
208 229 255
208 229 255
208 229 255
209 229 255
209 229 255
209 229 255
209 229 255
209 229 255
209 229 255
209 229 255
209 229 255
209 229 255
209 229 255
209 229 255
209 229 255
209 229 255
209 229 255
209 229 255
209 229 255
209 229 255
209 229 255
210 229 255
210 229 255
210 229 255
210 229 255
210 229 255
210 229 255
210 229 255
210 229 255
210 229 255
210 230 255
210 230 255
210 230 255
210 230 255
210 230 255
210 230 255
210 230 255
210 230 255
210 230 255
210 230 255
211 230 255
211 230 255
211 230 255
211 230 255
211 230 255
211 230 255
211 230 255
211 230 255
211 230 255
211 230 255
211 230 255
211 230 255
211 230 255
211 230 255
211 230 255
211 230 255
211 230 255
211 230 255
211 230 255
211 230 255
211 230 255
211 230 255
212 230 255
212 230 255
212 230 255
212 230 255
212 230 255
212 230 255
212 231 255
212 230 255
212 230 255
212 230 255
212 230 255
212 230 255
212 230 255
212 230 255
212 230 255
211 230 255
211 230 255
211 230 255
211 230 255
211 230 255
211 230 255
211 230 255
211 230 255
211 230 255
211 230 255
211 230 255
211 230 255
211 230 255
211 230 255
211 230 255
211 230 255
211 230 255
211 230 255
211 230 255
211 230 255
211 230 255
211 230 255
210 230 255
210 230 255
210 230 255
210 230 255
210 230 255
210 230 255
210 230 255
210 230 255
210 230 255
210 230 255
210 229 255
210 229 255
210 229 255
210 229 255
210 229 255
210 229 255
210 229 255
210 229 255
210 229 255
209 229 255
209 229 255
209 229 255
209 229 255
209 229 255
209 229 255
209 229 255
209 229 255
209 229 255
209 229 255
209 229 255
209 229 255
209 229 255
209 229 255
209 229 255
209 229 255
209 229 255
209 229 255
208 229 255
208 229 255
208 229 255
208 229 255
208 229 255
208 229 255
208 228 255
208 228 255
208 228 255
208 228 255
208 228 255
208 228 255
208 228 255
208 228 255
208 228 255
208 228 255
208 228 255
207 228 255
207 228 255
207 228 255
207 228 255
207 228 255
207 228 255
207 228 255
207 228 255
207 228 255
207 228 255
207 228 255
207 228 255
207 228 255
207 228 255
207 228 255
207 228 255
206 228 255
206 228 255
206 228 255
206 228 255
206 227 255
206 227 255
206 227 255
206 227 255
206 227 255
206 227 255
206 227 255
206 227 255
206 227 255
206 227 255
206 227 255
206 227 255
205 227 255
205 227 255
205 227 255
205 227 255
205 227 255
205 227 255
205 227 255
205 227 255
205 227 255
205 227 255
205 227 255
205 227 255
205 227 255
205 227 255
205 227 255
205 227 255
205 227 255
204 227 255
204 227 255
204 226 255
204 226 255
204 226 255
204 226 255
204 226 255
204 226 255
204 226 255
204 226 255
204 226 255
204 226 255
204 226 255
204 226 255
204 226 255
204 226 255
204 226 255
204 226 255
204 226 255
204 226 255
203 226 255
203 226 255
203 226 255
203 226 255
203 226 255
203 226 255
203 226 255
203 226 255
203 226 255
203 226 255
203 226 255
203 226 255
203 226 255
203 226 255
203 226 255
203 226 255
203 226 255
203 226 255
203 226 255
203 226 255
203 226 255
203 226 255
203 226 255
203 226 255
203 226 255
203 226 255
203 226 255
203 226 255
203 226 255
203 226 255
202 225 255
202 225 255
202 225 255
202 225 255
202 225 255
202 225 255
202 225 255
202 225 255
202 225 255
202 225 255
202 225 255
202 225 255
202 225 255
202 225 255
202 225 255
202 225 255
202 225 255
202 225 255
202 225 255
202 225 255
202 225 255
202 225 255
202 225 255
202 225 255
202 225 255
202 225 255
202 225 255
202 225 255
202 225 255
202 225 255
202 225 255
202 225 255
203 226 255
203 226 255
203 226 255
203 226 255
203 226 255
203 226 255
203 226 255
203 226 255
203 226 255
203 226 255
203 226 255
203 226 255
203 226 255
203 226 255
203 226 255
203 226 255
203 226 255
203 226 255
203 226 255
203 226 255
203 226 255
203 226 255
203 226 255
203 226 255
203 226 255
203 226 255
203 226 255
203 226 255
203 226 255
203 226 255
204 226 255
204 226 255
204 226 255
204 226 255
204 226 255
204 226 255
204 226 255
204 226 255
204 226 255
204 226 255
204 226 255
204 226 255
204 226 255
204 226 255
204 226 255
204 226 255
204 226 255
204 226 255
204 227 255
204 227 255
205 227 255
205 227 255
205 227 255
205 227 255
205 227 255
205 227 255
205 227 255
205 227 255
205 227 255
205 227 255
205 227 255
205 227 255
205 227 255
205 227 255
205 227 255
205 227 255
205 227 255
206 227 255
206 227 255
206 227 255
206 227 255
206 227 255
206 227 255
206 227 255
206 227 255
206 227 255
206 227 255
206 227 255
206 227 255
206 228 255
206 228 255
206 228 255
206 228 255
207 228 255
207 228 255
207 228 255
207 228 255
207 228 255
207 228 255
207 228 255
207 228 255
207 228 255
207 228 255
207 228 255
207 228 255
207 228 255
207 228 255
207 228 255
207 228 255
208 228 255
208 228 255
208 228 255
208 228 255
208 228 255
208 228 255
208 228 255
208 228 255
208 228 255
208 228 255
208 228 255
208 229 255
208 229 255
208 229 255
208 229 255
208 229 255
208 229 255
209 229 255
209 229 255
209 229 255
209 229 255
209 229 255
209 229 255
209 229 255
209 229 255
209 229 255
209 229 255
209 229 255
209 229 255
209 229 255
209 229 255
209 229 255
209 229 255
209 229 255
209 229 255
210 229 255
210 229 255
210 229 255
210 229 255
210 229 255
210 229 255
210 229 255
210 229 255
210 229 255
210 230 255
210 230 255
210 230 255
210 230 255
210 230 255
210 230 255
210 230 255
210 230 255
210 230 255
210 230 255
211 230 255
211 230 255
211 230 255
211 230 255
211 230 255
211 230 255
211 230 255
211 230 255
211 230 255
211 230 255
211 230 255
211 230 255
211 230 255
211 230 255
211 230 255
211 230 255
211 230 255
211 230 255
211 230 255
211 230 255
211 230 255
211 230 255
212 230 255
212 230 255
212 230 255
212 230 255
212 230 255
212 230 255
212 230 255
212 230 255
212 231 255
212 231 255
212 231 255
212 231 255
212 231 255
212 230 255
212 230 255
212 230 255
212 230 255
212 230 255
212 230 255
212 230 255
212 230 255
211 230 255
211 230 255
211 230 255
211 230 255
211 230 255
211 230 255
211 230 255
211 230 255
211 230 255
211 230 255
211 230 255
211 230 255
211 230 255
211 230 255
211 230 255
211 230 255
211 230 255
211 230 255
211 230 255
211 230 255
211 230 255
211 230 255
210 230 255
210 230 255
210 230 255
210 230 255
210 230 255
210 230 255
210 230 255
210 230 255
210 230 255
210 230 255
210 229 255
210 229 255
210 229 255
210 229 255
210 229 255
210 229 255
210 229 255
210 229 255
210 229 255
209 229 255
209 229 255
209 229 255
209 229 255
209 229 255
209 229 255
209 229 255
209 229 255
209 229 255
209 229 255
209 229 255
209 229 255
209 229 255
209 229 255
209 229 255
209 229 255
209 229 255
209 229 255
208 229 255
208 229 255
208 229 255
208 229 255
208 229 255
208 229 255
208 228 255
208 228 255
208 228 255
208 228 255
208 228 255
208 228 255
208 228 255
208 228 255
208 228 255
208 228 255
207 228 255
207 228 255
207 228 255
207 228 255
207 228 255
207 228 255
207 228 255
207 228 255
207 228 255
207 228 255
207 228 255
207 228 255
207 228 255
207 228 255
207 228 255
207 228 255
207 228 255
206 228 255
206 228 255
206 228 255
206 228 255
206 227 255
206 227 255
206 227 255
206 227 255
206 227 255
206 227 255
206 227 255
206 227 255
206 227 255
206 227 255
206 227 255
206 227 255
205 227 255
205 227 255
205 227 255
205 227 255
205 227 255
205 227 255
205 227 255
205 227 255
205 227 255
205 227 255
205 227 255
205 227 255
205 227 255
205 227 255
205 227 255
205 227 255
205 227 255
204 227 255
204 227 255
204 227 255
204 226 255
204 226 255
204 226 255
204 226 255
204 226 255
204 226 255
204 226 255
204 226 255
204 226 255
204 226 255
204 226 255
204 226 255
204 226 255
204 226 255
204 226 255
204 226 255
204 226 255
204 226 255
203 226 255
203 226 255
203 226 255
203 226 255
203 226 255
203 226 255
203 226 255
203 226 255
203 226 255
203 226 255
203 226 255
203 226 255
203 226 255
203 226 255
203 226 255
203 226 255
203 226 255
203 226 255
203 226 255
203 226 255
203 226 255
203 226 255
203 226 255
203 226 255
203 226 255
203 226 255
203 226 255
203 226 255
203 226 255
203 226 255
203 226 255
203 226 255
203 226 255
203 226 255
203 226 255
203 226 255
203 226 255
203 226 255
203 226 255
203 226 255
203 226 255
203 226 255
203 226 255
203 226 255
203 226 255
203 226 255
203 226 255
203 226 255
203 226 255
203 226 255
203 226 255
203 226 255
203 226 255
203 226 255
203 226 255
203 226 255
203 226 255
203 226 255
203 226 255
203 226 255
203 226 255
203 226 255
203 226 255
203 226 255
203 226 255
203 226 255
203 226 255
203 226 255
203 226 255
203 226 255
203 226 255
203 226 255
203 226 255
203 226 255
203 226 255
203 226 255
203 226 255
203 226 255
203 226 255
203 226 255
203 226 255
203 226 255
203 226 255
203 226 255
204 226 255
204 226 255
204 226 255
204 226 255
204 226 255
204 226 255
204 226 255
204 226 255
204 226 255
204 226 255
204 226 255
204 226 255
204 226 255
204 226 255
204 226 255
204 226 255
204 226 255
204 226 255
204 226 255
204 227 255
205 227 255
205 227 255
205 227 255
205 227 255
205 227 255
205 227 255
205 227 255
205 227 255
205 227 255
205 227 255
205 227 255
205 227 255
205 227 255
205 227 255
205 227 255
205 227 255
205 227 255
205 227 255
206 227 255
206 227 255
206 227 255
206 227 255
206 227 255
206 227 255
206 227 255
206 227 255
206 227 255
206 227 255
206 227 255
206 227 255
206 227 255
206 228 255
206 228 255
206 228 255
207 228 255
207 228 255
207 228 255
207 228 255
207 228 255
207 228 255
207 228 255
207 228 255
207 228 255
207 228 255
207 228 255
207 228 255
207 228 255
207 228 255
207 228 255
207 228 255
207 228 255
208 228 255
208 228 255
208 228 255
208 228 255
208 228 255
208 228 255
208 228 255
208 228 255
208 228 255
208 228 255
208 229 255
208 229 255
208 229 255
208 229 255
208 229 255
208 229 255
208 229 255
209 229 255
209 229 255
209 229 255
209 229 255
209 229 255
209 229 255
209 229 255
209 229 255
209 229 255
209 229 255
209 229 255
209 229 255
209 229 255
209 229 255
209 229 255
209 229 255
209 229 255
210 229 255
210 229 255
210 229 255
210 229 255
210 229 255
210 229 255
210 229 255
210 229 255
210 229 255
210 230 255
210 230 255
210 230 255
210 230 255
210 230 255
210 230 255
210 230 255
210 230 255
210 230 255
210 230 255
211 230 255
211 230 255
211 230 255
211 230 255
211 230 255
211 230 255
211 230 255
211 230 255
211 230 255
211 230 255
211 230 255
211 230 255
211 230 255
211 230 255
211 230 255
211 230 255
211 230 255
211 230 255
211 230 255
211 230 255
211 230 255
211 230 255
212 230 255
212 230 255
212 230 255
212 230 255
212 230 255
212 230 255
212 230 255
212 231 255
212 231 255
212 231 255
212 231 255
212 231 255
212 231 255
212 231 255
212 231 255
212 231 255
212 231 255
212 231 255
212 231 255
212 231 255
212 230 255
212 230 255
212 230 255
212 230 255
212 230 255
212 230 255
212 230 255
211 230 255
211 230 255
211 230 255
211 230 255
211 230 255
211 230 255
211 230 255
211 230 255
211 230 255
211 230 255
211 230 255
211 230 255
211 230 255
211 230 255
211 230 255
211 230 255
211 230 255
211 230 255
211 230 255
211 230 255
211 230 255
210 230 255
210 230 255
210 230 255
210 230 255
210 230 255
210 230 255
210 230 255
210 230 255
210 230 255
210 230 255
210 229 255
210 229 255
210 229 255
210 229 255
210 229 255
210 229 255
210 229 255
210 229 255
210 229 255
210 229 255
209 229 255
209 229 255
209 229 255
209 229 255
209 229 255
209 229 255
209 229 255
209 229 255
209 229 255
209 229 255
209 229 255
209 229 255
209 229 255
209 229 255
209 229 255
209 229 255
209 229 255
208 229 255
208 229 255
208 229 255
208 229 255
208 229 255
208 229 255
208 229 255
208 228 255
208 228 255
208 228 255
208 228 255
208 228 255
208 228 255
208 228 255
208 228 255
208 228 255
208 228 255
207 228 255
207 228 255
207 228 255
207 228 255
207 228 255
207 228 255
207 228 255
207 228 255
207 228 255
207 228 255
207 228 255
207 228 255
207 228 255
207 228 255
207 228 255
207 228 255
206 228 255
206 228 255
206 228 255
206 228 255
206 227 255
206 227 255
206 227 255
206 227 255
206 227 255
206 227 255
206 227 255
206 227 255
206 227 255
206 227 255
206 227 255
206 227 255
206 227 255
205 227 255
205 227 255
205 227 255
205 227 255
205 227 255
205 227 255
205 227 255
205 227 255
205 227 255
205 227 255
205 227 255
205 227 255
205 227 255
205 227 255
205 227 255
205 227 255
205 227 255
205 227 255
204 227 255
204 227 255
204 226 255
204 226 255
204 226 255
204 226 255
204 226 255
204 226 255
204 226 255
204 226 255
204 226 255
204 226 255
204 226 255
204 226 255
204 226 255
204 226 255
204 226 255
204 226 255
204 226 255
204 226 255
204 226 255
203 226 255
203 226 255
203 226 255
203 226 255
203 226 255
203 226 255
203 226 255
203 226 255
203 226 255
203 226 255
203 226 255
203 226 255
203 226 255
203 226 255
203 226 255
203 226 255
203 226 255
203 226 255
203 226 255
203 226 255
203 226 255
203 226 255
203 226 255
203 226 255
203 226 255
203 226 255
203 226 255
203 226 255
203 226 255
203 226 255
203 226 255
203 226 255
203 226 255
203 226 255
203 226 255
203 226 255
203 226 255
203 226 255
203 226 255
203 226 255
203 226 255
203 226 255
203 226 255
203 226 255
203 226 255
203 226 255
203 226 255
203 226 255
203 226 255
203 226 255
203 226 255
203 226 255
203 226 255
203 226 255
203 226 255
203 226 255
203 226 255
203 226 255
203 226 255
203 226 255
203 226 255
203 226 255
203 226 255
203 226 255
203 226 255
203 226 255
203 226 255
203 226 255
203 226 255
203 226 255
203 226 255
203 226 255
203 226 255
203 226 255
203 226 255
203 226 255
204 226 255
204 226 255
204 226 255
204 226 255
204 226 255
204 226 255
204 226 255
204 226 255
204 226 255
204 226 255
204 226 255
204 226 255
204 226 255
204 226 255
204 226 255
204 226 255
204 226 255
204 226 255
204 226 255
204 227 255
204 227 255
205 227 255
205 227 255
205 227 255
205 227 255
205 227 255
205 227 255
205 227 255
205 227 255
205 227 255
205 227 255
205 227 255
205 227 255
205 227 255
205 227 255
205 227 255
205 227 255
205 227 255
205 227 255
206 227 255
206 227 255
206 227 255
206 227 255
206 227 255
206 227 255
206 227 255
206 227 255
206 227 255
206 227 255
206 227 255
206 227 255
206 227 255
206 228 255
206 228 255
206 228 255
207 228 255
207 228 255
207 228 255
207 228 255
207 228 255
207 228 255
207 228 255
207 228 255
207 228 255
207 228 255
207 228 255
207 228 255
207 228 255
207 228 255
207 228 255
207 228 255
207 228 255
208 228 255
208 228 255
208 228 255
208 228 255
208 228 255
208 228 255
208 228 255
208 228 255
208 228 255
208 228 255
208 228 255
208 229 255
208 229 255
208 229 255
208 229 255
208 229 255
208 229 255
209 229 255
209 229 255
209 229 255
209 229 255
209 229 255
209 229 255
209 229 255
209 229 255
209 229 255
209 229 255
209 229 255
209 229 255
209 229 255
209 229 255
209 229 255
209 229 255
209 229 255
210 229 255
210 229 255
210 229 255
210 229 255
210 229 255
210 229 255
210 229 255
210 229 255
210 229 255
210 229 255
210 230 255
210 230 255
210 230 255
210 230 255
210 230 255
210 230 255
210 230 255
210 230 255
210 230 255
210 230 255
211 230 255
211 230 255
211 230 255
211 230 255
211 230 255
211 230 255
211 230 255
211 230 255
211 230 255
211 230 255
211 230 255
211 230 255
211 230 255
211 230 255
211 230 255
211 230 255
211 230 255
211 230 255
211 230 255
211 230 255
211 230 255
212 230 255
212 230 255
212 230 255
212 230 255
212 230 255
212 230 255
212 230 255
212 230 255
212 231 255
212 231 255
212 231 255
212 231 255
212 231 255
212 231 255
212 231 255
212 231 255
212 231 255
212 231 255
212 231 255
212 231 255
212 231 255
212 231 255
212 231 255
212 231 255
212 231 255
212 231 255
212 230 255
212 230 255
212 230 255
212 230 255
212 230 255
212 230 255
212 230 255
211 230 255
211 230 255
211 230 255
211 230 255
211 230 255
211 230 255
211 230 255
211 230 255
211 230 255
211 230 255
211 230 255
211 230 255
211 230 255
211 230 255
211 230 255
211 230 255
211 230 255
211 230 255
211 230 255
211 230 255
211 230 255
210 230 255
210 230 255
210 230 255
210 230 255
210 230 255
210 230 255
210 230 255
210 230 255
210 230 255
210 230 255
210 229 255
210 229 255
210 229 255
210 229 255
210 229 255
210 229 255
210 229 255
210 229 255
210 229 255
209 229 255
209 229 255
209 229 255
209 229 255
209 229 255
209 229 255
209 229 255
209 229 255
209 229 255
209 229 255
209 229 255
209 229 255
209 229 255
209 229 255
209 229 255
209 229 255
209 229 255
209 229 255
208 229 255
208 229 255
208 229 255
208 229 255
208 229 255
208 229 255
208 228 255
208 228 255
208 228 255
208 228 255
208 228 255
208 228 255
208 228 255
208 228 255
208 228 255
208 228 255
208 228 255
207 228 255
207 228 255
207 228 255
207 228 255
207 228 255
207 228 255
207 228 255
207 228 255
207 228 255
207 228 255
207 228 255
207 228 255
207 228 255
207 228 255
207 228 255
207 228 255
206 228 255
206 228 255
206 228 255
206 228 255
206 227 255
206 227 255
206 227 255
206 227 255
206 227 255
206 227 255
206 227 255
206 227 255
206 227 255
206 227 255
206 227 255
206 227 255
206 227 255
205 227 255
205 227 255
205 227 255
205 227 255
205 227 255
205 227 255
205 227 255
205 227 255
205 227 255
205 227 255
205 227 255
205 227 255
205 227 255
205 227 255
205 227 255
205 227 255
205 227 255
205 227 255
204 227 255
204 227 255
204 226 255
204 226 255
204 226 255
204 226 255
204 226 255
204 226 255
204 226 255
204 226 255
204 226 255
204 226 255
204 226 255
204 226 255
204 226 255
204 226 255
204 226 255
204 226 255
204 226 255
204 226 255
204 226 255
204 226 255
204 226 255
203 226 255
203 226 255
203 226 255
203 226 255
203 226 255
203 226 255
203 226 255
203 226 255
203 226 255
203 226 255
203 226 255
203 226 255
203 226 255
203 226 255
203 226 255
203 226 255
203 226 255
203 226 255
203 226 255
203 226 255
203 226 255
203 226 255
203 226 255
203 226 255
203 226 255
203 226 255
203 226 255
203 226 255
203 226 255
203 226 255
203 226 255
203 226 255
203 226 255
203 226 255
203 226 255
203 226 255
203 226 255
203 226 255
203 226 255
203 226 255
203 226 255
203 226 255
203 226 255
203 226 255
203 226 255
203 226 255
203 226 255
203 226 255
203 226 255
203 226 255
203 226 255
203 226 255
203 226 255
203 226 255
203 226 255
203 226 255
203 226 255
203 226 255
203 226 255
203 226 255
203 226 255
203 226 255
203 226 255
203 226 255
203 226 255
203 226 255
204 226 255
204 226 255
204 226 255
204 226 255
204 226 255
204 226 255
204 226 255
204 226 255
204 226 255
204 226 255
204 226 255
204 226 255
204 226 255
204 226 255
204 226 255
204 226 255
204 226 255
204 226 255
204 226 255
204 226 255
204 226 255
204 227 255
204 227 255
205 227 255
205 227 255
205 227 255
205 227 255
205 227 255
205 227 255
205 227 255
205 227 255
205 227 255
205 227 255
205 227 255
205 227 255
205 227 255
205 227 255
205 227 255
205 227 255
205 227 255
205 227 255
206 227 255
206 227 255
206 227 255
206 227 255
206 227 255
206 227 255
206 227 255
206 227 255
206 227 255
206 227 255
206 227 255
206 227 255
206 227 255
206 228 255
206 228 255
206 228 255
206 228 255
207 228 255
207 228 255
207 228 255
207 228 255
207 228 255
207 228 255
207 228 255
207 228 255
207 228 255
207 228 255
207 228 255
207 228 255
207 228 255
207 228 255
207 228 255
207 228 255
208 228 255
208 228 255
208 228 255
208 228 255
208 228 255
208 228 255
208 228 255
208 228 255
208 228 255
208 228 255
208 228 255
208 229 255
208 229 255
208 229 255
208 229 255
208 229 255
208 229 255
209 229 255
209 229 255
209 229 255
209 229 255
209 229 255
209 229 255
209 229 255
209 229 255
209 229 255
209 229 255
209 229 255
209 229 255
209 229 255
209 229 255
209 229 255
209 229 255
209 229 255
209 229 255
210 229 255
210 229 255
210 229 255
210 229 255
210 229 255
210 229 255
210 229 255
210 229 255
210 229 255
210 230 255
210 230 255
210 230 255
210 230 255
210 230 255
210 230 255
210 230 255
210 230 255
210 230 255
210 230 255
211 230 255
211 230 255
211 230 255
211 230 255
211 230 255
211 230 255
211 230 255
211 230 255
211 230 255
211 230 255
211 230 255
211 230 255
211 230 255
211 230 255
211 230 255
211 230 255
211 230 255
211 230 255
211 230 255
211 230 255
211 230 255
212 230 255
212 230 255
212 230 255
212 230 255
212 230 255
212 230 255
212 230 255
212 231 255
212 231 255
212 231 255
212 231 255
212 231 255
212 231 255
212 231 255
212 231 255
212 231 255
212 231 255
212 231 255
212 231 255
212 231 255
212 231 255
212 231 255
212 231 255
212 231 255
212 231 255
212 231 255
212 231 255
212 231 255
212 231 255
212 231 255
212 231 255
212 231 255
212 230 255
212 230 255
212 230 255
212 230 255
212 230 255
212 230 255
212 230 255
212 230 255
211 230 255
211 230 255
211 230 255
211 230 255
211 230 255
211 230 255
211 230 255
211 230 255
211 230 255
211 230 255
211 230 255
211 230 255
211 230 255
211 230 255
211 230 255
211 230 255
211 230 255
211 230 255
211 230 255
211 230 255
210 230 255
210 230 255
210 230 255
210 230 255
210 230 255
210 230 255
210 230 255
210 230 255
210 230 255
210 230 255
210 229 255
210 229 255
210 229 255
210 229 255
210 229 255
210 229 255
210 229 255
210 229 255
210 229 255
209 229 255
209 229 255
209 229 255
209 229 255
209 229 255
209 229 255
209 229 255
209 229 255
209 229 255
209 229 255
209 229 255
209 229 255
209 229 255
209 229 255
209 229 255
209 229 255
209 229 255
209 229 255
208 229 255
208 229 255
208 229 255
208 229 255
208 229 255
208 229 255
208 228 255
208 228 255
208 228 255
208 228 255
208 228 255
208 228 255
208 228 255
208 228 255
208 228 255
208 228 255
208 228 255
207 228 255
207 228 255
207 228 255
207 228 255
207 228 255
207 228 255
207 228 255
207 228 255
207 228 255
207 228 255
207 228 255
207 228 255
207 228 255
207 228 255
207 228 255
207 228 255
206 228 255
206 228 255
206 228 255
206 228 255
206 227 255
206 227 255
206 227 255
206 227 255
206 227 255
206 227 255
206 227 255
206 227 255
206 227 255
206 227 255
206 227 255
206 227 255
206 227 255
205 227 255
205 227 255
205 227 255
205 227 255
205 227 255
205 227 255
205 227 255
205 227 255
205 227 255
205 227 255
205 227 255
205 227 255
205 227 255
205 227 255
205 227 255
205 227 255
205 227 255
205 227 255
204 227 255
204 227 255
204 227 255
204 226 255
204 226 255
204 226 255
204 226 255
204 226 255
204 226 255
204 226 255
204 226 255
204 226 255
204 226 255
204 226 255
204 226 255
204 226 255
204 226 255
204 226 255
204 226 255
204 226 255
204 226 255
204 226 255
204 226 255
204 226 255
204 226 255
203 226 255
203 226 255
203 226 255
203 226 255
203 226 255
203 226 255
203 226 255
203 226 255
203 226 255
203 226 255
203 226 255
203 226 255
203 226 255
203 226 255
203 226 255
203 226 255
203 226 255
203 226 255
203 226 255
203 226 255
203 226 255
203 226 255
203 226 255
203 226 255
203 226 255
203 226 255
203 226 255
203 226 255
203 226 255
203 226 255
203 226 255
203 226 255
203 226 255
203 226 255
203 226 255
203 226 255
203 226 255
203 226 255
203 226 255
203 226 255
203 226 255
203 226 255
203 226 255
203 226 255
203 226 255
203 226 255
203 226 255
203 226 255
203 226 255
203 226 255
203 226 255
203 226 255
203 226 255
203 226 255
203 226 255
203 226 255
204 226 255
204 226 255
204 226 255
204 226 255
204 226 255
204 226 255
204 226 255
204 226 255
204 226 255
204 226 255
204 226 255
204 226 255
204 226 255
204 226 255
204 226 255
204 226 255
204 226 255
204 226 255
204 226 255
204 226 255
204 226 255
204 226 255
204 227 255
204 227 255
204 227 255
205 227 255
205 227 255
205 227 255
205 227 255
205 227 255
205 227 255
205 227 255
205 227 255
205 227 255
205 227 255
205 227 255
205 227 255
205 227 255
205 227 255
205 227 255
205 227 255
205 227 255
205 227 255
206 227 255
206 227 255
206 227 255
206 227 255
206 227 255
206 227 255
206 227 255
206 227 255
206 227 255
206 227 255
206 227 255
206 227 255
206 227 255
206 228 255
206 228 255
206 228 255
206 228 255
207 228 255
207 228 255
207 228 255
207 228 255
207 228 255
207 228 255
207 228 255
207 228 255
207 228 255
207 228 255
207 228 255
207 228 255
207 228 255
207 228 255
207 228 255
207 228 255
208 228 255
208 228 255
208 228 255
208 228 255
208 228 255
208 228 255
208 228 255
208 228 255
208 228 255
208 228 255
208 228 255
208 229 255
208 229 255
208 229 255
208 229 255
208 229 255
208 229 255
209 229 255
209 229 255
209 229 255
209 229 255
209 229 255
209 229 255
209 229 255
209 229 255
209 229 255
209 229 255
209 229 255
209 229 255
209 229 255
209 229 255
209 229 255
209 229 255
209 229 255
209 229 255
210 229 255
210 229 255
210 229 255
210 229 255
210 229 255
210 229 255
210 229 255
210 229 255
210 229 255
210 230 255
210 230 255
210 230 255
210 230 255
210 230 255
210 230 255
210 230 255
210 230 255
210 230 255
210 230 255
211 230 255
211 230 255
211 230 255
211 230 255
211 230 255
211 230 255
211 230 255
211 230 255
211 230 255
211 230 255
211 230 255
211 230 255
211 230 255
211 230 255
211 230 255
211 230 255
211 230 255
211 230 255
211 230 255
211 230 255
211 230 255
212 230 255
212 230 255
212 230 255
212 230 255
212 230 255
212 230 255
212 230 255
212 231 255
212 231 255
212 231 255
212 231 255
212 231 255
212 231 255
212 231 255
212 231 255
212 231 255
212 231 255
212 231 255
212 231 255
212 231 255
212 231 255
213 231 255
212 231 255
212 231 255
212 231 255
212 231 255
212 231 255
212 231 255
212 231 255
212 231 255
212 231 255
212 231 255
212 231 255
212 231 255
212 231 255
212 231 255
212 231 255
212 231 255
212 230 255
212 230 255
212 230 255
212 230 255
212 230 255
212 230 255
212 230 255
212 230 255
211 230 255
211 230 255
211 230 255
211 230 255
211 230 255
211 230 255
211 230 255
211 230 255
211 230 255
211 230 255
211 230 255
211 230 255
211 230 255
211 230 255
211 230 255
211 230 255
211 230 255
211 230 255
211 230 255
211 230 255
210 230 255
210 230 255
210 230 255
210 230 255
210 230 255
210 230 255
210 230 255
210 230 255
210 230 255
210 230 255
210 229 255
210 229 255
210 229 255
210 229 255
210 229 255
210 229 255
210 229 255
210 229 255
210 229 255
209 229 255
209 229 255
209 229 255
209 229 255
209 229 255
209 229 255
209 229 255
209 229 255
209 229 255
209 229 255
209 229 255
209 229 255
209 229 255
209 229 255
209 229 255
209 229 255
209 229 255
209 229 255
208 229 255
208 229 255
208 229 255
208 229 255
208 229 255
208 229 255
208 228 255
208 228 255
208 228 255
208 228 255
208 228 255
208 228 255
208 228 255
208 228 255
208 228 255
208 228 255
207 228 255
207 228 255
207 228 255
207 228 255
207 228 255
207 228 255
207 228 255
207 228 255
207 228 255
207 228 255
207 228 255
207 228 255
207 228 255
207 228 255
207 228 255
207 228 255
207 228 255
206 228 255
206 228 255
206 228 255
206 228 255
206 227 255
206 227 255
206 227 255
206 227 255
206 227 255
206 227 255
206 227 255
206 227 255
206 227 255
206 227 255
206 227 255
206 227 255
206 227 255
205 227 255
205 227 255
205 227 255
205 227 255
205 227 255
205 227 255
205 227 255
205 227 255
205 227 255
205 227 255
205 227 255
205 227 255
205 227 255
205 227 255
205 227 255
205 227 255
205 227 255
205 227 255
205 227 255
205 227 255
204 227 255
204 226 255
204 226 255
204 226 255
204 226 255
204 226 255
204 226 255
204 226 255
204 226 255
204 226 255
204 226 255
204 226 255
204 226 255
204 226 255
204 226 255
204 226 255
204 226 255
204 226 255
204 226 255
204 226 255
204 226 255
204 226 255
204 226 255
204 226 255
204 226 255
204 226 255
204 226 255
203 226 255
203 226 255
203 226 255
203 226 255
203 226 255
203 226 255
203 226 255
203 226 255
203 226 255
203 226 255
203 226 255
203 226 255
203 226 255
203 226 255
203 226 255
203 226 255
203 226 255
203 226 255
203 226 255
203 226 255
203 226 255
203 226 255
203 226 255
203 226 255
203 226 255
203 226 255
203 226 255
203 226 255
203 226 255
203 226 255
203 226 255
203 226 255
203 226 255
203 226 255
203 226 255
203 226 255
203 226 255
203 226 255
203 226 255
203 226 255
203 226 255
203 226 255
204 226 255
204 226 255
204 226 255
204 226 255
204 226 255
204 226 255
204 226 255
204 226 255
204 226 255
204 226 255
204 226 255
204 226 255
204 226 255
204 226 255
204 226 255
204 226 255
204 226 255
204 226 255
204 226 255
204 226 255
204 226 255
204 226 255
204 226 255
204 226 255
204 226 255
204 227 255
204 227 255
204 227 255
205 227 255
205 227 255
205 227 255
205 227 255
205 227 255
205 227 255
205 227 255
205 227 255
205 227 255
205 227 255
205 227 255
205 227 255
205 227 255
205 227 255
205 227 255
205 227 255
205 227 255
205 227 255
205 227 255
206 227 255
206 227 255
206 227 255
206 227 255
206 227 255
206 227 255
206 227 255
206 227 255
206 227 255
206 227 255
206 227 255
206 227 255
206 227 255
206 228 255
206 228 255
206 228 255
206 228 255
207 228 255
207 228 255
207 228 255
207 228 255
207 228 255
207 228 255
207 228 255
207 228 255
207 228 255
207 228 255
207 228 255
207 228 255
207 228 255
207 228 255
207 228 255
207 228 255
208 228 255
208 228 255
208 228 255
208 228 255
208 228 255
208 228 255
208 228 255
208 228 255
208 228 255
208 228 255
208 228 255
208 229 255
208 229 255
208 229 255
208 229 255
208 229 255
208 229 255
208 229 255
209 229 255
209 229 255
209 229 255
209 229 255
209 229 255
209 229 255
209 229 255
209 229 255
209 229 255
209 229 255
209 229 255
209 229 255
209 229 255
209 229 255
209 229 255
209 229 255
209 229 255
210 229 255
210 229 255
210 229 255
210 229 255
210 229 255
210 229 255
210 229 255
210 229 255
210 229 255
210 230 255
210 230 255
210 230 255
210 230 255
210 230 255
210 230 255
210 230 255
210 230 255
210 230 255
210 230 255
211 230 255
211 230 255
211 230 255
211 230 255
211 230 255
211 230 255
211 230 255
211 230 255
211 230 255
211 230 255
211 230 255
211 230 255
211 230 255
211 230 255
211 230 255
211 230 255
211 230 255
211 230 255
211 230 255
211 230 255
212 230 255
212 230 255
212 230 255
212 230 255
212 230 255
212 230 255
212 230 255
212 230 255
212 231 255
212 231 255
212 231 255
212 231 255
212 231 255
212 231 255
212 231 255
212 231 255
212 231 255
212 231 255
212 231 255
212 231 255
212 231 255
212 231 255
212 231 255
213 231 255
213 231 255
213 231 255
213 231 255
213 231 255
213 231 255
213 231 255
212 231 255
212 231 255
212 231 255
212 231 255
212 231 255
212 231 255
212 231 255
212 231 255
212 231 255
212 231 255
212 231 255
212 231 255
212 231 255
212 231 255
212 231 255
212 230 255
212 230 255
212 230 255
212 230 255
212 230 255
212 230 255
212 230 255
212 230 255
211 230 255
211 230 255
211 230 255
211 230 255
211 230 255
211 230 255
211 230 255
211 230 255
211 230 255
211 230 255
211 230 255
211 230 255
211 230 255
211 230 255
211 230 255
211 230 255
211 230 255
211 230 255
211 230 255
211 230 255
210 230 255
210 230 255
210 230 255
210 230 255
210 230 255
210 230 255
210 230 255
210 230 255
210 230 255
210 230 255
210 229 255
210 229 255
210 229 255
210 229 255
210 229 255
210 229 255
210 229 255
210 229 255
210 229 255
209 229 255
209 229 255
209 229 255
209 229 255
209 229 255
209 229 255
209 229 255
209 229 255
209 229 255
209 229 255
209 229 255
209 229 255
209 229 255
209 229 255
209 229 255
209 229 255
209 229 255
209 229 255
208 229 255
208 229 255
208 229 255
208 229 255
208 229 255
208 229 255
208 228 255
208 228 255
208 228 255
208 228 255
208 228 255
208 228 255
208 228 255
208 228 255
208 228 255
208 228 255
207 228 255
207 228 255
207 228 255
207 228 255
207 228 255
207 228 255
207 228 255
207 228 255
207 228 255
207 228 255
207 228 255
207 228 255
207 228 255
207 228 255
207 228 255
207 228 255
207 228 255
206 228 255
206 228 255
206 228 255
206 228 255
206 227 255
206 227 255
206 227 255
206 227 255
206 227 255
206 227 255
206 227 255
206 227 255
206 227 255
206 227 255
206 227 255
206 227 255
206 227 255
205 227 255
205 227 255
205 227 255
205 227 255
205 227 255
205 227 255
205 227 255
205 227 255
205 227 255
205 227 255
205 227 255
205 227 255
205 227 255
205 227 255
205 227 255
205 227 255
205 227 255
205 227 255
205 227 255
205 227 255
204 227 255
204 227 255
204 227 255
204 226 255
204 226 255
204 226 255
204 226 255
204 226 255
204 226 255
204 226 255
204 226 255
204 226 255
204 226 255
204 226 255
204 226 255
204 226 255
204 226 255
204 226 255
204 226 255
204 226 255
204 226 255
204 226 255
204 226 255
204 226 255
204 226 255
204 226 255
204 226 255
204 226 255
204 226 255
204 226 255
204 226 255
204 226 255
204 226 255
204 226 255
203 226 255
203 226 255
203 226 255
203 226 255
203 226 255
203 226 255
203 226 255
203 226 255
203 226 255
203 226 255
203 226 255
203 226 255
203 226 255
203 226 255
203 226 255
203 226 255
203 226 255
203 226 255
203 226 255
203 226 255
203 226 255
203 226 255
203 226 255
204 226 255
204 226 255
204 226 255
204 226 255
204 226 255
204 226 255
204 226 255
204 226 255
204 226 255
204 226 255
204 226 255
204 226 255
204 226 255
204 226 255
204 226 255
204 226 255
204 226 255
204 226 255
204 226 255
204 226 255
204 226 255
204 226 255
204 226 255
204 226 255
204 226 255
204 226 255
204 226 255
204 226 255
204 226 255
204 226 255
204 227 255
204 227 255
204 227 255
205 227 255
205 227 255
205 227 255
205 227 255
205 227 255
205 227 255
205 227 255
205 227 255
205 227 255
205 227 255
205 227 255
205 227 255
205 227 255
205 227 255
205 227 255
205 227 255
205 227 255
205 227 255
205 227 255
205 227 255
206 227 255
206 227 255
206 227 255
206 227 255
206 227 255
206 227 255
206 227 255
206 227 255
206 227 255
206 227 255
206 227 255
206 227 255
206 227 255
206 228 255
206 228 255
206 228 255
206 228 255
207 228 255
207 228 255
207 228 255
207 228 255
207 228 255
207 228 255
207 228 255
207 228 255
207 228 255
207 228 255
207 228 255
207 228 255
207 228 255
207 228 255
207 228 255
207 228 255
207 228 255
208 228 255
208 228 255
208 228 255
208 228 255
208 228 255
208 228 255
208 228 255
208 228 255
208 228 255
208 228 255
208 229 255
208 229 255
208 229 255
208 229 255
208 229 255
208 229 255
208 229 255
209 229 255
209 229 255
209 229 255
209 229 255
209 229 255
209 229 255
209 229 255
209 229 255
209 229 255
209 229 255
209 229 255
209 229 255
209 229 255
209 229 255
209 229 255
209 229 255
209 229 255
210 229 255
210 229 255
210 229 255
210 229 255
210 229 255
210 229 255
210 229 255
210 229 255
210 229 255
210 230 255
210 230 255
210 230 255
210 230 255
210 230 255
210 230 255
210 230 255
210 230 255
210 230 255
210 230 255
211 230 255
211 230 255
211 230 255
211 230 255
211 230 255
211 230 255
211 230 255
211 230 255
211 230 255
211 230 255
211 230 255
211 230 255
211 230 255
211 230 255
211 230 255
211 230 255
211 230 255
211 230 255
211 230 255
211 230 255
212 230 255
212 230 255
212 230 255
212 230 255
212 230 255
212 230 255
212 230 255
212 230 255
212 231 255
212 231 255
212 231 255
212 231 255
212 231 255
212 231 255
212 231 255
212 231 255
212 231 255
212 231 255
212 231 255
212 231 255
212 231 255
212 231 255
212 231 255
213 231 255
213 231 255
213 231 255
213 231 255
213 231 255
213 231 255
213 231 255
213 231 255
213 231 255
213 231 255
213 231 255
213 231 255
213 231 255
212 231 255
212 231 255
212 231 255
212 231 255
212 231 255
212 231 255
212 231 255
212 231 255
212 231 255
212 231 255
212 231 255
212 231 255
212 231 255
212 231 255
212 231 255
212 230 255
212 230 255
212 230 255
212 230 255
212 230 255
212 230 255
212 230 255
212 230 255
211 230 255
211 230 255
211 230 255
211 230 255
211 230 255
211 230 255
211 230 255
211 230 255
211 230 255
211 230 255
211 230 255
211 230 255
211 230 255
211 230 255
211 230 255
211 230 255
211 230 255
211 230 255
211 230 255
211 230 255
210 230 255
210 230 255
210 230 255
210 230 255
210 230 255
210 230 255
210 230 255
210 230 255
210 230 255
210 230 255
210 229 255
210 229 255
210 229 255
210 229 255
210 229 255
210 229 255
210 229 255
210 229 255
210 229 255
209 229 255
209 229 255
209 229 255
209 229 255
209 229 255
209 229 255
209 229 255
209 229 255
209 229 255
209 229 255
209 229 255
209 229 255
209 229 255
209 229 255
209 229 255
209 229 255
209 229 255
208 229 255
208 229 255
208 229 255
208 229 255
208 229 255
208 229 255
208 228 255
208 228 255
208 228 255
208 228 255
208 228 255
208 228 255
208 228 255
208 228 255
208 228 255
208 228 255
208 228 255
207 228 255
207 228 255
207 228 255
207 228 255
207 228 255
207 228 255
207 228 255
207 228 255
207 228 255
207 228 255
207 228 255
207 228 255
207 228 255
207 228 255
207 228 255
207 228 255
207 228 255
206 228 255
206 228 255
206 228 255
206 228 255
206 227 255
206 227 255
206 227 255
206 227 255
206 227 255
206 227 255
206 227 255
206 227 255
206 227 255
206 227 255
206 227 255
206 227 255
206 227 255
206 227 255
205 227 255
205 227 255
205 227 255
205 227 255
205 227 255
205 227 255
205 227 255
205 227 255
205 227 255
205 227 255
205 227 255
205 227 255
205 227 255
205 227 255
205 227 255
205 227 255
205 227 255
205 227 255
205 227 255
205 227 255
205 227 255
204 227 255
204 227 255
204 226 255
204 226 255
204 226 255
204 226 255
204 226 255
204 226 255
204 226 255
204 226 255
204 226 255
204 226 255
204 226 255
204 226 255
204 226 255
204 226 255
204 226 255
204 226 255
204 226 255
204 226 255
204 226 255
204 226 255
204 226 255
204 226 255
204 226 255
204 226 255
204 226 255
204 226 255
204 226 255
204 226 255
204 226 255
204 226 255
204 226 255
204 226 255
204 226 255
204 226 255
204 226 255
204 226 255
204 226 255
204 226 255
204 226 255
204 226 255
204 226 255
204 226 255
204 226 255
204 226 255
204 226 255
204 226 255
204 226 255
204 226 255
204 226 255
204 226 255
204 226 255
204 226 255
204 226 255
204 226 255
204 226 255
204 226 255
204 226 255
204 226 255
204 226 255
204 226 255
204 226 255
204 226 255
204 226 255
204 226 255
204 226 255
204 226 255
204 226 255
204 226 255
204 226 255
204 226 255
204 226 255
204 226 255
204 226 255
204 226 255
204 226 255
204 226 255
204 227 255
204 227 255
205 227 255
205 227 255
205 227 255
205 227 255
205 227 255
205 227 255
205 227 255
205 227 255
205 227 255
205 227 255
205 227 255
205 227 255
205 227 255
205 227 255
205 227 255
205 227 255
205 227 255
205 227 255
205 227 255
205 227 255
205 227 255
206 227 255
206 227 255
206 227 255
206 227 255
206 227 255
206 227 255
206 227 255
206 227 255
206 227 255
206 227 255
206 227 255
206 227 255
206 227 255
206 227 255
206 228 255
206 228 255
206 228 255
206 228 255
207 228 255
207 228 255
207 228 255
207 228 255
207 228 255
207 228 255
207 228 255
207 228 255
207 228 255
207 228 255
207 228 255
207 228 255
207 228 255
207 228 255
207 228 255
207 228 255
207 228 255
208 228 255
208 228 255
208 228 255
208 228 255
208 228 255
208 228 255
208 228 255
208 228 255
208 228 255
208 228 255
208 228 255
208 229 255
208 229 255
208 229 255
208 229 255
208 229 255
208 229 255
209 229 255
209 229 255
209 229 255
209 229 255
209 229 255
209 229 255
209 229 255
209 229 255
209 229 255
209 229 255
209 229 255
209 229 255
209 229 255
209 229 255
209 229 255
209 229 255
209 229 255
210 229 255
210 229 255
210 229 255
210 229 255
210 229 255
210 229 255
210 229 255
210 229 255
210 229 255
210 230 255
210 230 255
210 230 255
210 230 255
210 230 255
210 230 255
210 230 255
210 230 255
210 230 255
210 230 255
211 230 255
211 230 255
211 230 255
211 230 255
211 230 255
211 230 255
211 230 255
211 230 255
211 230 255
211 230 255
211 230 255
211 230 255
211 230 255
211 230 255
211 230 255
211 230 255
211 230 255
211 230 255
211 230 255
211 230 255
212 230 255
212 230 255
212 230 255
212 230 255
212 230 255
212 230 255
212 230 255
212 230 255
212 231 255
212 231 255
212 231 255
212 231 255
212 231 255
212 231 255
212 231 255
212 231 255
212 231 255
212 231 255
212 231 255
212 231 255
212 231 255
212 231 255
212 231 255
213 231 255
213 231 255
213 231 255
213 231 255
213 231 255
213 231 255
213 231 255
213 231 255
213 231 255
213 231 255
213 231 255
213 231 255
213 231 255
213 231 255
213 231 255
213 231 255
213 231 255
213 231 255
213 231 255
212 231 255
212 231 255
212 231 255
212 231 255
212 231 255
212 231 255
212 231 255
212 231 255
212 231 255
212 231 255
212 231 255
212 231 255
212 231 255
212 231 255
212 231 255
212 231 255
212 230 255
212 230 255
212 230 255
212 230 255
212 230 255
212 230 255
212 230 255
211 230 255
211 230 255
211 230 255
211 230 255
211 230 255
211 230 255
211 230 255
211 230 255
211 230 255
211 230 255
211 230 255
211 230 255
211 230 255
211 230 255
211 230 255
211 230 255
211 230 255
211 230 255
211 230 255
211 230 255
210 230 255
210 230 255
210 230 255
210 230 255
210 230 255
210 230 255
210 230 255
210 230 255
210 230 255
210 230 255
210 229 255
210 229 255
210 229 255
210 229 255
210 229 255
210 229 255
210 229 255
210 229 255
210 229 255
209 229 255
209 229 255
209 229 255
209 229 255
209 229 255
209 229 255
209 229 255
209 229 255
209 229 255
209 229 255
209 229 255
209 229 255
209 229 255
209 229 255
209 229 255
209 229 255
209 229 255
208 229 255
208 229 255
208 229 255
208 229 255
208 229 255
208 229 255
208 228 255
208 228 255
208 228 255
208 228 255
208 228 255
208 228 255
208 228 255
208 228 255
208 228 255
208 228 255
208 228 255
207 228 255
207 228 255
207 228 255
207 228 255
207 228 255
207 228 255
207 228 255
207 228 255
207 228 255
207 228 255
207 228 255
207 228 255
207 228 255
207 228 255
207 228 255
207 228 255
207 228 255
206 228 255
206 228 255
206 228 255
206 228 255
206 227 255
206 227 255
206 227 255
206 227 255
206 227 255
206 227 255
206 227 255
206 227 255
206 227 255
206 227 255
206 227 255
206 227 255
206 227 255
206 227 255
205 227 255
205 227 255
205 227 255
205 227 255
205 227 255
205 227 255
205 227 255
205 227 255
205 227 255
205 227 255
205 227 255
205 227 255
205 227 255
205 227 255
205 227 255
205 227 255
205 227 255
205 227 255
205 227 255
205 227 255
205 227 255
205 227 255
204 227 255
204 227 255
204 227 255
204 227 255
204 226 255
204 226 255
204 226 255
204 226 255
204 226 255
204 226 255
204 226 255
204 226 255
204 226 255
204 226 255
204 226 255
204 226 255
204 226 255
204 226 255
204 226 255
204 226 255
204 226 255
204 226 255
204 226 255
204 226 255
204 226 255
204 226 255
204 226 255
204 226 255
204 226 255
204 226 255
204 226 255
204 226 255
204 226 255
204 226 255
204 226 255
204 226 255
204 226 255
204 226 255
204 226 255
204 226 255
204 226 255
204 226 255
204 226 255
204 226 255
204 226 255
204 226 255
204 226 255
204 226 255
204 226 255
204 226 255
204 226 255
204 226 255
204 226 255
204 226 255
204 226 255
204 226 255
204 226 255
204 226 255
204 226 255
204 226 255
204 226 255
204 226 255
204 226 255
204 226 255
204 226 255
204 226 255
204 226 255
204 226 255
204 226 255
204 227 255
204 227 255
204 227 255
205 227 255
205 227 255
205 227 255
205 227 255
205 227 255
205 227 255
205 227 255
205 227 255
205 227 255
205 227 255
205 227 255
205 227 255
205 227 255
205 227 255
205 227 255
205 227 255
205 227 255
205 227 255
205 227 255
205 227 255
205 227 255
205 227 255
206 227 255
206 227 255
206 227 255
206 227 255
206 227 255
206 227 255
206 227 255
206 227 255
206 227 255
206 227 255
206 227 255
206 227 255
206 227 255
206 227 255
206 228 255
206 228 255
206 228 255
206 228 255
207 228 255
207 228 255
207 228 255
207 228 255
207 228 255
207 228 255
207 228 255
207 228 255
207 228 255
207 228 255
207 228 255
207 228 255
207 228 255
207 228 255
207 228 255
207 228 255
207 228 255
208 228 255
208 228 255
208 228 255
208 228 255
208 228 255
208 228 255
208 228 255
208 228 255
208 228 255
208 228 255
208 228 255
208 229 255
208 229 255
208 229 255
208 229 255
208 229 255
208 229 255
209 229 255
209 229 255
209 229 255
209 229 255
209 229 255
209 229 255
209 229 255
209 229 255
209 229 255
209 229 255
209 229 255
209 229 255
209 229 255
209 229 255
209 229 255
209 229 255
209 229 255
210 229 255
210 229 255
210 229 255
210 229 255
210 229 255
210 229 255
210 229 255
210 229 255
210 229 255
210 230 255
210 230 255
210 230 255
210 230 255
210 230 255
210 230 255
210 230 255
210 230 255
210 230 255
210 230 255
211 230 255
211 230 255
211 230 255
211 230 255
211 230 255
211 230 255
211 230 255
211 230 255
211 230 255
211 230 255
211 230 255
211 230 255
211 230 255
211 230 255
211 230 255
211 230 255
211 230 255
211 230 255
211 230 255
211 230 255
212 230 255
212 230 255
212 230 255
212 230 255
212 230 255
212 230 255
212 230 255
212 230 255
212 231 255
212 231 255
212 231 255
212 231 255
212 231 255
212 231 255
212 231 255
212 231 255
212 231 255
212 231 255
212 231 255
212 231 255
212 231 255
212 231 255
212 231 255
213 231 255
213 231 255
213 231 255
213 231 255
213 231 255
213 231 255
213 231 255
213 231 255
213 231 255
213 231 255
213 231 255
213 231 255
213 231 255
213 231 255
213 231 255
213 231 255
213 231 255
213 231 255
213 231 255
213 231 255
213 231 255
213 231 255
213 231 255
213 231 255
213 231 255
213 231 255
212 231 255
212 231 255
212 231 255
212 231 255
212 231 255
212 231 255
212 231 255
212 231 255
212 231 255
212 231 255
212 231 255
212 231 255
212 231 255
212 231 255
212 231 255
212 230 255
212 230 255
212 230 255
212 230 255
212 230 255
212 230 255
212 230 255
211 230 255
211 230 255
211 230 255
211 230 255
211 230 255
211 230 255
211 230 255
211 230 255
211 230 255
211 230 255
211 230 255
211 230 255
211 230 255
211 230 255
211 230 255
211 230 255
211 230 255
211 230 255
211 230 255
211 230 255
210 230 255
210 230 255
210 230 255
210 230 255
210 230 255
210 230 255
210 230 255
210 230 255
210 230 255
210 230 255
210 229 255
210 229 255
210 229 255
210 229 255
210 229 255
210 229 255
210 229 255
210 229 255
210 229 255
209 229 255
209 229 255
209 229 255
209 229 255
209 229 255
209 229 255
209 229 255
209 229 255
209 229 255
209 229 255
209 229 255
209 229 255
209 229 255
209 229 255
209 229 255
209 229 255
209 229 255
208 229 255
208 229 255
208 229 255
208 229 255
208 229 255
208 229 255
208 229 255
208 228 255
208 228 255
208 228 255
208 228 255
208 228 255
208 228 255
208 228 255
208 228 255
208 228 255
208 228 255
207 228 255
207 228 255
207 228 255
207 228 255
207 228 255
207 228 255
207 228 255
207 228 255
207 228 255
207 228 255
207 228 255
207 228 255
207 228 255
207 228 255
207 228 255
207 228 255
207 228 255
206 228 255
206 228 255
206 228 255
206 228 255
206 228 255
206 227 255
206 227 255
206 227 255
206 227 255
206 227 255
206 227 255
206 227 255
206 227 255
206 227 255
206 227 255
206 227 255
206 227 255
206 227 255
206 227 255
205 227 255
205 227 255
205 227 255
205 227 255
205 227 255
205 227 255
205 227 255
205 227 255
205 227 255
205 227 255
205 227 255
205 227 255
205 227 255
205 227 255
205 227 255
205 227 255
205 227 255
205 227 255
205 227 255
205 227 255
205 227 255
205 227 255
205 227 255
205 227 255
204 227 255
204 227 255
204 227 255
204 226 255
204 226 255
204 226 255
204 226 255
204 226 255
204 226 255
204 226 255
204 226 255
204 226 255
204 226 255
204 226 255
204 226 255
204 226 255
204 226 255
204 226 255
204 226 255
204 226 255
204 226 255
204 226 255
204 226 255
204 226 255
204 226 255
204 226 255
204 226 255
204 226 255
204 226 255
204 226 255
204 226 255
204 226 255
204 226 255
204 226 255
204 226 255
204 226 255
204 226 255
204 226 255
204 226 255
204 226 255
204 226 255
204 226 255
204 226 255
204 226 255
204 226 255
204 226 255
204 226 255
204 226 255
204 226 255
204 226 255
204 226 255
204 226 255
204 226 255
204 226 255
204 226 255
204 226 255
204 226 255
204 227 255
204 227 255
204 227 255
205 227 255
205 227 255
205 227 255
205 227 255
205 227 255
205 227 255
205 227 255
205 227 255
205 227 255
205 227 255
205 227 255
205 227 255
205 227 255
205 227 255
205 227 255
205 227 255
205 227 255
205 227 255
205 227 255
205 227 255
205 227 255
205 227 255
205 227 255
205 227 255
206 227 255
206 227 255
206 227 255
206 227 255
206 227 255
206 227 255
206 227 255
206 227 255
206 227 255
206 227 255
206 227 255
206 227 255
206 227 255
206 227 255
206 227 255
206 228 255
206 228 255
206 228 255
206 228 255
207 228 255
207 228 255
207 228 255
207 228 255
207 228 255
207 228 255
207 228 255
207 228 255
207 228 255
207 228 255
207 228 255
207 228 255
207 228 255
207 228 255
207 228 255
207 228 255
207 228 255
208 228 255
208 228 255
208 228 255
208 228 255
208 228 255
208 228 255
208 228 255
208 228 255
208 228 255
208 228 255
208 228 255
208 229 255
208 229 255
208 229 255
208 229 255
208 229 255
208 229 255
209 229 255
209 229 255
209 229 255
209 229 255
209 229 255
209 229 255
209 229 255
209 229 255
209 229 255
209 229 255
209 229 255
209 229 255
209 229 255
209 229 255
209 229 255
209 229 255
209 229 255
210 229 255
210 229 255
210 229 255
210 229 255
210 229 255
210 229 255
210 229 255
210 229 255
210 229 255
210 230 255
210 230 255
210 230 255
210 230 255
210 230 255
210 230 255
210 230 255
210 230 255
210 230 255
210 230 255
211 230 255
211 230 255
211 230 255
211 230 255
211 230 255
211 230 255
211 230 255
211 230 255
211 230 255
211 230 255
211 230 255
211 230 255
211 230 255
211 230 255
211 230 255
211 230 255
211 230 255
211 230 255
211 230 255
211 230 255
212 230 255
212 230 255
212 230 255
212 230 255
212 230 255
212 230 255
212 230 255
212 231 255
212 231 255
212 231 255
212 231 255
212 231 255
212 231 255
212 231 255
212 231 255
212 231 255
212 231 255
212 231 255
212 231 255
212 231 255
212 231 255
212 231 255
213 231 255
213 231 255
213 231 255
213 231 255
213 231 255
213 231 255
213 231 255
213 231 255
213 231 255
213 231 255
213 231 255
213 231 255
213 231 255
213 231 255
213 231 255
213 231 255
213 231 255
213 231 255
213 231 255
213 231 255
213 231 255
213 231 255
213 231 255
213 231 255
213 231 255
213 231 255
213 231 255
213 231 255
213 231 255
213 231 255
213 231 255
213 231 255
213 231 255
212 231 255
212 231 255
212 231 255
212 231 255
212 231 255
212 231 255
212 231 255
212 231 255
212 231 255
212 231 255
212 231 255
212 231 255
212 231 255
212 231 255
212 231 255
212 230 255
212 230 255
212 230 255
212 230 255
212 230 255
212 230 255
212 230 255
211 230 255
211 230 255
211 230 255
211 230 255
211 230 255
211 230 255
211 230 255
211 230 255
211 230 255
211 230 255
211 230 255
211 230 255
211 230 255
211 230 255
211 230 255
211 230 255
211 230 255
211 230 255
211 230 255
211 230 255
210 230 255
210 230 255
210 230 255
210 230 255
210 230 255
210 230 255
210 230 255
210 230 255
210 230 255
210 230 255
210 229 255
210 229 255
210 229 255
210 229 255
210 229 255
210 229 255
210 229 255
210 229 255
210 229 255
209 229 255
209 229 255
209 229 255
209 229 255
209 229 255
209 229 255
209 229 255
209 229 255
209 229 255
209 229 255
209 229 255
209 229 255
209 229 255
209 229 255
209 229 255
209 229 255
209 229 255
208 229 255
208 229 255
208 229 255
208 229 255
208 229 255
208 229 255
208 228 255
208 228 255
208 228 255
208 228 255
208 228 255
208 228 255
208 228 255
208 228 255
208 228 255
208 228 255
208 228 255
207 228 255
207 228 255
207 228 255
207 228 255
207 228 255
207 228 255
207 228 255
207 228 255
207 228 255
207 228 255
207 228 255
207 228 255
207 228 255
207 228 255
207 228 255
207 228 255
207 228 255
207 228 255
206 228 255
206 228 255
206 228 255
206 228 255
206 227 255
206 227 255
206 227 255
206 227 255
206 227 255
206 227 255
206 227 255
206 227 255
206 227 255
206 227 255
206 227 255
206 227 255
206 227 255
206 227 255
206 227 255
205 227 255
205 227 255
205 227 255
205 227 255
205 227 255
205 227 255
205 227 255
205 227 255
205 227 255
205 227 255
205 227 255
205 227 255
205 227 255
205 227 255
205 227 255
205 227 255
205 227 255
205 227 255
205 227 255
205 227 255
205 227 255
205 227 255
205 227 255
205 227 255
205 227 255
205 227 255
204 227 255
204 227 255
204 227 255
204 227 255
204 227 255
204 226 255
204 226 255
204 226 255
204 226 255
204 226 255
204 226 255
204 226 255
204 226 255
204 226 255
204 226 255
204 226 255
204 226 255
204 226 255
204 226 255
204 226 255
204 226 255
204 226 255
204 226 255
204 226 255
204 226 255
204 226 255
204 226 255
204 226 255
204 226 255
204 226 255
204 226 255
204 226 255
204 226 255
204 226 255
204 226 255
204 226 255
204 226 255
204 226 255
204 226 255
204 226 255
204 226 255
204 226 255
204 226 255
204 227 255
204 227 255
204 227 255
204 227 255
204 227 255
205 227 255
205 227 255
205 227 255
205 227 255
205 227 255
205 227 255
205 227 255
205 227 255
205 227 255
205 227 255
205 227 255
205 227 255
205 227 255
205 227 255
205 227 255
205 227 255
205 227 255
205 227 255
205 227 255
205 227 255
205 227 255
205 227 255
205 227 255
205 227 255
205 227 255
205 227 255
206 227 255
206 227 255
206 227 255
206 227 255
206 227 255
206 227 255
206 227 255
206 227 255
206 227 255
206 227 255
206 227 255
206 227 255
206 227 255
206 227 255
206 227 255
206 228 255
206 228 255
206 228 255
206 228 255
207 228 255
207 228 255
207 228 255
207 228 255
207 228 255
207 228 255
207 228 255
207 228 255
207 228 255
207 228 255
207 228 255
207 228 255
207 228 255
207 228 255
207 228 255
207 228 255
207 228 255
207 228 255
208 228 255
208 228 255
208 228 255
208 228 255
208 228 255
208 228 255
208 228 255
208 228 255
208 228 255
208 228 255
208 228 255
208 229 255
208 229 255
208 229 255
208 229 255
208 229 255
208 229 255
209 229 255
209 229 255
209 229 255
209 229 255
209 229 255
209 229 255
209 229 255
209 229 255
209 229 255
209 229 255
209 229 255
209 229 255
209 229 255
209 229 255
209 229 255
209 229 255
209 229 255
210 229 255
210 229 255
210 229 255
210 229 255
210 229 255
210 229 255
210 229 255
210 229 255
210 229 255
210 230 255
210 230 255
210 230 255
210 230 255
210 230 255
210 230 255
210 230 255
210 230 255
210 230 255
210 230 255
211 230 255
211 230 255
211 230 255
211 230 255
211 230 255
211 230 255
211 230 255
211 230 255
211 230 255
211 230 255
211 230 255
211 230 255
211 230 255
211 230 255
211 230 255
211 230 255
211 230 255
211 230 255
211 230 255
211 230 255
212 230 255
212 230 255
212 230 255
212 230 255
212 230 255
212 230 255
212 230 255
212 231 255
212 231 255
212 231 255
212 231 255
212 231 255
212 231 255
212 231 255
212 231 255
212 231 255
212 231 255
212 231 255
212 231 255
212 231 255
212 231 255
212 231 255
213 231 255
213 231 255
213 231 255
213 231 255
213 231 255
213 231 255
213 231 255
213 231 255
213 231 255
213 231 255
213 231 255
213 231 255
213 231 255
213 231 255
213 231 255
213 231 255
213 231 255
213 231 255
213 231 255
213 231 255
213 231 255
213 231 255
213 231 255
213 231 255
213 231 255
213 231 255
213 231 255
213 231 255
213 231 255
213 231 255
213 231 255
213 231 255
213 231 255
213 231 255
213 231 255
213 231 255
213 231 255
213 231 255
213 231 255
212 231 255
212 231 255
212 231 255
212 231 255
212 231 255
212 231 255
212 231 255
212 231 255
212 231 255
212 231 255
212 231 255
212 231 255
212 231 255
212 231 255
212 231 255
212 230 255
212 230 255
212 230 255
212 230 255
212 230 255
212 230 255
212 230 255
211 230 255
211 230 255
211 230 255
211 230 255
211 230 255
211 230 255
211 230 255
211 230 255
211 230 255
211 230 255
211 230 255
211 230 255
211 230 255
211 230 255
211 230 255
211 230 255
211 230 255
211 230 255
211 230 255
211 230 255
210 230 255
210 230 255
210 230 255
210 230 255
210 230 255
210 230 255
210 230 255
210 230 255
210 230 255
210 230 255
210 229 255
210 229 255
210 229 255
210 229 255
210 229 255
210 229 255
210 229 255
210 229 255
210 229 255
209 229 255
209 229 255
209 229 255
209 229 255
209 229 255
209 229 255
209 229 255
209 229 255
209 229 255
209 229 255
209 229 255
209 229 255
209 229 255
209 229 255
209 229 255
209 229 255
209 229 255
208 229 255
208 229 255
208 229 255
208 229 255
208 229 255
208 229 255
208 228 255
208 228 255
208 228 255
208 228 255
208 228 255
208 228 255
208 228 255
208 228 255
208 228 255
208 228 255
208 228 255
207 228 255
207 228 255
207 228 255
207 228 255
207 228 255
207 228 255
207 228 255
207 228 255
207 228 255
207 228 255
207 228 255
207 228 255
207 228 255
207 228 255
207 228 255
207 228 255
207 228 255
207 228 255
206 228 255
206 228 255
206 228 255
206 228 255
206 227 255
206 227 255
206 227 255
206 227 255
206 227 255
206 227 255
206 227 255
206 227 255
206 227 255
206 227 255
206 227 255
206 227 255
206 227 255
206 227 255
206 227 255
206 227 255
205 227 255
205 227 255
205 227 255
205 227 255
205 227 255
205 227 255
205 227 255
205 227 255
205 227 255
205 227 255
205 227 255
205 227 255
205 227 255
205 227 255
205 227 255
205 227 255
205 227 255
205 227 255
205 227 255
205 227 255
205 227 255
205 227 255
205 227 255
205 227 255
205 227 255
205 227 255
205 227 255
205 227 255
205 227 255
205 227 255
205 227 255
205 227 255
204 227 255
204 227 255
204 227 255
204 227 255
204 227 255
204 227 255
204 227 255
204 227 255
204 227 255
204 227 255
204 227 255
204 227 255
204 226 255
204 226 255
204 227 255
204 226 255
204 226 255
204 227 255
204 227 255
204 227 255
204 227 255
204 227 255
204 227 255
204 227 255
204 227 255
204 227 255
204 227 255
204 227 255
204 227 255
205 227 255
205 227 255
205 227 255
205 227 255
205 227 255
205 227 255
205 227 255
205 227 255
205 227 255
205 227 255
205 227 255
205 227 255
205 227 255
205 227 255
205 227 255
205 227 255
205 227 255
205 227 255
205 227 255
205 227 255
205 227 255
205 227 255
205 227 255
205 227 255
205 227 255
205 227 255
205 227 255
205 227 255
205 227 255
205 227 255
205 227 255
206 227 255
206 227 255
206 227 255
206 227 255
206 227 255
206 227 255
206 227 255
206 227 255
206 227 255
206 227 255
206 227 255
206 227 255
206 227 255
206 227 255
206 227 255
206 227 255
206 228 255
206 228 255
206 228 255
206 228 255
207 228 255
207 228 255
207 228 255
207 228 255
207 228 255
207 228 255
207 228 255
207 228 255
207 228 255
207 228 255
207 228 255
207 228 255
207 228 255
207 228 255
207 228 255
207 228 255
207 228 255
207 228 255
208 228 255
208 228 255
208 228 255
208 228 255
208 228 255
208 228 255
208 228 255
208 228 255
208 228 255
208 228 255
208 228 255
208 229 255
208 229 255
208 229 255
208 229 255
208 229 255
208 229 255
209 229 255
209 229 255
209 229 255
209 229 255
209 229 255
209 229 255
209 229 255
209 229 255
209 229 255
209 229 255
209 229 255
209 229 255
209 229 255
209 229 255
209 229 255
209 229 255
209 229 255
210 229 255
210 229 255
210 229 255
210 229 255
210 229 255
210 229 255
210 229 255
210 229 255
210 229 255
210 230 255
210 230 255
210 230 255
210 230 255
210 230 255
210 230 255
210 230 255
210 230 255
210 230 255
210 230 255
211 230 255
211 230 255
211 230 255
211 230 255
211 230 255
211 230 255
211 230 255
211 230 255
211 230 255
211 230 255
211 230 255
211 230 255
211 230 255
211 230 255
211 230 255
211 230 255
211 230 255
211 230 255
211 230 255
212 230 255
212 230 255
212 230 255
212 230 255
212 230 255
212 230 255
212 230 255
212 230 255
212 231 255
212 231 255
212 231 255
212 231 255
212 231 255
212 231 255
212 231 255
212 231 255
212 231 255
212 231 255
212 231 255
212 231 255
212 231 255
212 231 255
212 231 255
213 231 255
213 231 255
213 231 255
213 231 255
213 231 255
213 231 255
213 231 255
213 231 255
213 231 255
213 231 255
213 231 255
213 231 255
213 231 255
213 231 255
213 231 255
213 231 255
213 231 255
213 231 255
213 231 255
213 231 255
213 231 255
213 231 255
213 231 255
213 231 255
213 231 255
213 231 255
213 231 255
213 231 255
213 231 255
213 231 255
213 231 255
213 231 255
213 231 255
213 231 255
213 231 255
213 231 255
213 231 255
213 231 255
213 231 255
213 231 255
213 231 255
213 231 255
213 231 255
213 231 255
213 231 255
213 231 255
212 231 255
212 231 255
212 231 255
212 231 255
212 231 255
212 231 255
212 231 255
212 231 255
212 231 255
212 231 255
212 231 255
212 231 255
212 231 255
212 231 255
212 230 255
212 230 255
212 230 255
212 230 255
212 230 255
212 230 255
212 230 255
212 230 255
211 230 255
211 230 255
211 230 255
211 230 255
211 230 255
211 230 255
211 230 255
211 230 255
211 230 255
211 230 255
211 230 255
211 230 255
211 230 255
211 230 255
211 230 255
211 230 255
211 230 255
211 230 255
211 230 255
210 230 255
210 230 255
210 230 255
210 230 255
210 230 255
210 230 255
210 230 255
210 230 255
210 230 255
210 230 255
210 229 255
210 229 255
210 229 255
210 229 255
210 229 255
210 229 255
210 229 255
210 229 255
210 229 255
209 229 255
209 229 255
209 229 255
209 229 255
209 229 255
209 229 255
209 229 255
209 229 255
209 229 255
209 229 255
209 229 255
209 229 255
209 229 255
209 229 255
209 229 255
209 229 255
209 229 255
208 229 255
208 229 255
208 229 255
208 229 255
208 229 255
208 229 255
208 229 255
208 228 255
208 228 255
208 228 255
208 228 255
208 228 255
208 228 255
208 228 255
208 228 255
208 228 255
208 228 255
207 228 255
207 228 255
207 228 255
207 228 255
207 228 255
207 228 255
207 228 255
207 228 255
207 228 255
207 228 255
207 228 255
207 228 255
207 228 255
207 228 255
207 228 255
207 228 255
207 228 255
207 228 255
207 228 255
206 228 255
206 228 255
206 228 255
206 228 255
206 227 255
206 227 255
206 227 255
206 227 255
206 227 255
206 227 255
206 227 255
206 227 255
206 227 255
206 227 255
206 227 255
206 227 255
206 227 255
206 227 255
206 227 255
206 227 255
205 227 255
205 227 255
205 227 255
205 227 255
205 227 255
205 227 255
205 227 255
205 227 255
205 227 255
205 227 255
205 227 255
205 227 255
205 227 255
205 227 255
205 227 255
205 227 255
205 227 255
205 227 255
205 227 255
205 227 255
205 227 255
205 227 255
205 227 255
205 227 255
205 227 255
205 227 255
205 227 255
205 227 255
205 227 255
205 227 255
205 227 255
205 227 255
205 227 255
205 227 255
205 227 255
205 227 255
205 227 255
205 227 255
205 227 255
205 227 255
205 227 255
205 227 255
205 227 255
205 227 255
205 227 255
205 227 255
205 227 255
205 227 255
205 227 255
205 227 255
205 227 255
205 227 255
205 227 255
205 227 255
205 227 255
205 227 255
205 227 255
205 227 255
205 227 255
205 227 255
205 227 255
205 227 255
205 227 255
205 227 255
205 227 255
205 227 255
205 227 255
205 227 255
205 227 255
205 227 255
205 227 255
205 227 255
205 227 255
205 227 255
205 227 255
205 227 255
205 227 255
205 227 255
205 227 255
205 227 255
205 227 255
205 227 255
205 227 255
206 227 255
206 227 255
206 227 255
206 227 255
206 227 255
206 227 255
206 227 255
206 227 255
206 227 255
206 227 255
206 227 255
206 227 255
206 227 255
206 227 255
206 227 255
206 227 255
206 227 255
206 228 255
206 228 255
206 228 255
206 228 255
207 228 255
207 228 255
207 228 255
207 228 255
207 228 255
207 228 255
207 228 255
207 228 255
207 228 255
207 228 255
207 228 255
207 228 255
207 228 255
207 228 255
207 228 255
207 228 255
207 228 255
207 228 255
208 228 255
208 228 255
208 228 255
208 228 255
208 228 255
208 228 255
208 228 255
208 228 255
208 228 255
208 228 255
208 228 255
208 229 255
208 229 255
208 229 255
208 229 255
208 229 255
208 229 255
208 229 255
209 229 255
209 229 255
209 229 255
209 229 255
209 229 255
209 229 255
209 229 255
209 229 255
209 229 255
209 229 255
209 229 255
209 229 255
209 229 255
209 229 255
209 229 255
209 229 255
209 229 255
210 229 255
210 229 255
210 229 255
210 229 255
210 229 255
210 229 255
210 229 255
210 229 255
210 229 255
210 230 255
210 230 255
210 230 255
210 230 255
210 230 255
210 230 255
210 230 255
210 230 255
210 230 255
210 230 255
211 230 255
211 230 255
211 230 255
211 230 255
211 230 255
211 230 255
211 230 255
211 230 255
211 230 255
211 230 255
211 230 255
211 230 255
211 230 255
211 230 255
211 230 255
211 230 255
211 230 255
211 230 255
211 230 255
212 230 255
212 230 255
212 230 255
212 230 255
212 230 255
212 230 255
212 230 255
212 230 255
212 231 255
212 231 255
212 231 255
212 231 255
212 231 255
212 231 255
212 231 255
212 231 255
212 231 255
212 231 255
212 231 255
212 231 255
212 231 255
212 231 255
213 231 255
213 231 255
213 231 255
213 231 255
213 231 255
213 231 255
213 231 255
213 231 255
213 231 255
213 231 255
213 231 255
213 231 255
213 231 255
213 231 255
213 231 255
213 231 255
213 231 255
213 231 255
213 231 255
213 231 255
213 231 255
213 231 255
213 231 255
213 231 255
213 231 255
214 231 255
214 231 255
214 231 255
214 231 255
213 231 255
213 231 255
213 231 255
213 231 255
213 231 255
213 231 255
213 231 255
213 231 255
213 231 255
213 231 255
213 231 255
213 231 255
213 231 255
213 231 255
213 231 255
213 231 255
213 231 255
213 231 255
213 231 255
213 231 255
213 231 255
213 231 255
213 231 255
213 231 255
212 231 255
212 231 255
212 231 255
212 231 255
212 231 255
212 231 255
212 231 255
212 231 255
212 231 255
212 231 255
212 231 255
212 231 255
212 231 255
212 231 255
212 231 255
212 230 255
212 230 255
212 230 255
212 230 255
212 230 255
212 230 255
212 230 255
211 230 255
211 230 255
211 230 255
211 230 255
211 230 255
211 230 255
211 230 255
211 230 255
211 230 255
211 230 255
211 230 255
211 230 255
211 230 255
211 230 255
211 230 255
211 230 255
211 230 255
211 230 255
211 230 255
211 230 255
210 230 255
210 230 255
210 230 255
210 230 255
210 230 255
210 230 255
210 230 255
210 230 255
210 230 255
210 229 255
210 229 255
210 229 255
210 229 255
210 229 255
210 229 255
210 229 255
210 229 255
210 229 255
209 229 255
209 229 255
209 229 255
209 229 255
209 229 255
209 229 255
209 229 255
209 229 255
209 229 255
209 229 255
209 229 255
209 229 255
209 229 255
209 229 255
209 229 255
209 229 255
209 229 255
208 229 255
208 229 255
208 229 255
208 229 255
208 229 255
208 229 255
208 229 255
208 228 255
208 228 255
208 228 255
208 228 255
208 228 255
208 228 255
208 228 255
208 228 255
208 228 255
208 228 255
208 228 255
207 228 255
207 228 255
207 228 255
207 228 255
207 228 255
207 228 255
207 228 255
207 228 255
207 228 255
207 228 255
207 228 255
207 228 255
207 228 255
207 228 255
207 228 255
207 228 255
207 228 255
207 228 255
207 228 255
206 228 255
206 228 255
206 228 255
206 228 255
206 227 255
206 227 255
206 227 255
206 227 255
206 227 255
206 227 255
206 227 255
206 227 255
206 227 255
206 227 255
206 227 255
206 227 255
206 227 255
206 227 255
206 227 255
206 227 255
206 227 255
206 227 255
205 227 255
205 227 255
205 227 255
205 227 255
205 227 255
205 227 255
205 227 255
205 227 255
205 227 255
205 227 255
205 227 255
205 227 255
205 227 255
205 227 255
205 227 255
205 227 255
205 227 255
205 227 255
205 227 255
205 227 255
205 227 255
205 227 255
205 227 255
205 227 255
205 227 255
205 227 255
205 227 255
205 227 255
205 227 255
205 227 255
205 227 255
205 227 255
205 227 255
205 227 255
205 227 255
205 227 255
205 227 255
205 227 255
205 227 255
205 227 255
205 227 255
205 227 255
205 227 255
205 227 255
205 227 255
205 227 255
205 227 255
205 227 255
205 227 255
205 227 255
205 227 255
205 227 255
205 227 255
205 227 255
205 227 255
205 227 255
205 227 255
205 227 255
205 227 255
205 227 255
205 227 255
205 227 255
205 227 255
205 227 255
205 227 255
205 227 255
205 227 255
205 227 255
205 227 255
205 227 255
205 227 255
205 227 255
206 227 255
206 227 255
206 227 255
206 227 255
206 227 255
206 227 255
206 227 255
206 227 255
206 227 255
206 227 255
206 227 255
206 227 255
206 227 255
206 227 255
206 227 255
206 227 255
206 227 255
206 227 255
206 228 255
206 228 255
206 228 255
206 228 255
206 228 255
207 228 255
207 228 255
207 228 255
207 228 255
207 228 255
207 228 255
207 228 255
207 228 255
207 228 255
207 228 255
207 228 255
207 228 255
207 228 255
207 228 255
207 228 255
207 228 255
207 228 255
207 228 255
208 228 255
208 228 255
208 228 255
208 228 255
208 228 255
208 228 255
208 228 255
208 228 255
208 228 255
208 228 255
208 228 255
208 229 255
208 229 255
208 229 255
208 229 255
208 229 255
208 229 255
208 229 255
209 229 255
209 229 255
209 229 255
209 229 255
209 229 255
209 229 255
209 229 255
209 229 255
209 229 255
209 229 255
209 229 255
209 229 255
209 229 255
209 229 255
209 229 255
209 229 255
209 229 255
210 229 255
210 229 255
210 229 255
210 229 255
210 229 255
210 229 255
210 229 255
210 229 255
210 229 255
210 230 255
210 230 255
210 230 255
210 230 255
210 230 255
210 230 255
210 230 255
210 230 255
210 230 255
211 230 255
211 230 255
211 230 255
211 230 255
211 230 255
211 230 255
211 230 255
211 230 255
211 230 255
211 230 255
211 230 255
211 230 255
211 230 255
211 230 255
211 230 255
211 230 255
211 230 255
211 230 255
211 230 255
211 230 255
212 230 255
212 230 255
212 230 255
212 230 255
212 230 255
212 230 255
212 230 255
212 231 255
212 231 255
212 231 255
212 231 255
212 231 255
212 231 255
212 231 255
212 231 255
212 231 255
212 231 255
212 231 255
212 231 255
212 231 255
212 231 255
212 231 255
213 231 255
213 231 255
213 231 255
213 231 255
213 231 255
213 231 255
213 231 255
213 231 255
213 231 255
213 231 255
213 231 255
213 231 255
213 231 255
213 231 255
213 231 255
213 231 255
213 231 255
213 231 255
213 231 255
213 231 255
213 231 255
213 231 255
213 231 255
213 231 255
214 231 255
214 231 255
214 231 255
214 231 255
214 232 255
214 232 255
214 231 255
214 231 255
214 231 255
214 231 255
214 231 255
213 231 255
213 231 255
213 231 255
213 231 255
213 231 255
213 231 255
213 231 255
213 231 255
213 231 255
213 231 255
213 231 255
213 231 255
213 231 255
213 231 255
213 231 255
213 231 255
213 231 255
213 231 255
213 231 255
213 231 255
213 231 255
213 231 255
213 231 255
213 231 255
213 231 255
212 231 255
212 231 255
212 231 255
212 231 255
212 231 255
212 231 255
212 231 255
212 231 255
212 231 255
212 231 255
212 231 255
212 231 255
212 231 255
212 231 255
212 230 255
212 230 255
212 230 255
212 230 255
212 230 255
212 230 255
212 230 255
211 230 255
211 230 255
211 230 255
211 230 255
211 230 255
211 230 255
211 230 255
211 230 255
211 230 255
211 230 255
211 230 255
211 230 255
211 230 255
211 230 255
211 230 255
211 230 255
211 230 255
211 230 255
211 230 255
211 230 255
210 230 255
210 230 255
210 230 255
210 230 255
210 230 255
210 230 255
210 230 255
210 230 255
210 230 255
210 229 255
210 229 255
210 229 255
210 229 255
210 229 255
210 229 255
210 229 255
210 229 255
210 229 255
209 229 255
209 229 255
209 229 255
209 229 255
209 229 255
209 229 255
209 229 255
209 229 255
209 229 255
209 229 255
209 229 255
209 229 255
209 229 255
209 229 255
209 229 255
209 229 255
209 229 255
209 229 255
208 229 255
208 229 255
208 229 255
208 229 255
208 229 255
208 229 255
208 228 255
208 228 255
208 228 255
208 228 255
208 228 255
208 228 255
208 228 255
208 228 255
208 228 255
208 228 255
208 228 255
207 228 255
207 228 255
207 228 255
207 228 255
207 228 255
207 228 255
207 228 255
207 228 255
207 228 255
207 228 255
207 228 255
207 228 255
207 228 255
207 228 255
207 228 255
207 228 255
207 228 255
207 228 255
207 228 255
206 228 255
206 228 255
206 228 255
206 228 255
206 228 255
206 227 255
206 227 255
206 227 255
206 227 255
206 227 255
206 227 255
206 227 255
206 227 255
206 227 255
206 227 255
206 227 255
206 227 255
206 227 255
206 227 255
206 227 255
206 227 255
206 227 255
206 227 255
206 227 255
205 227 255
205 227 255
205 227 255
205 227 255
205 227 255
205 227 255
205 227 255
205 227 255
205 227 255
205 227 255
205 227 255
205 227 255
205 227 255
205 227 255
205 227 255
205 227 255
205 227 255
205 227 255
205 227 255
205 227 255
205 227 255
205 227 255
205 227 255
205 227 255
205 227 255
205 227 255
205 227 255
205 227 255
205 227 255
205 227 255
205 227 255
205 227 255
205 227 255
205 227 255
205 227 255
205 227 255
205 227 255
205 227 255
205 227 255
205 227 255
205 227 255
205 227 255
205 227 255
205 227 255
205 227 255
205 227 255
205 227 255
205 227 255
205 227 255
205 227 255
205 227 255
205 227 255
205 227 255
205 227 255
205 227 255
205 227 255
205 227 255
205 227 255
205 227 255
205 227 255
205 227 255
205 227 255
206 227 255
206 227 255
206 227 255
206 227 255
206 227 255
206 227 255
206 227 255
206 227 255
206 227 255
206 227 255
206 227 255
206 227 255
206 227 255
206 227 255
206 227 255
206 227 255
206 227 255
206 227 255
206 227 255
206 228 255
206 228 255
206 228 255
206 228 255
206 228 255
207 228 255
207 228 255
207 228 255
207 228 255
207 228 255
207 228 255
207 228 255
207 228 255
207 228 255
207 228 255
207 228 255
207 228 255
207 228 255
207 228 255
207 228 255
207 228 255
207 228 255
207 228 255
207 228 255
208 228 255
208 228 255
208 228 255
208 228 255
208 228 255
208 228 255
208 228 255
208 228 255
208 228 255
208 228 255
208 228 255
208 229 255
208 229 255
208 229 255
208 229 255
208 229 255
208 229 255
209 229 255
209 229 255
209 229 255
209 229 255
209 229 255
209 229 255
209 229 255
209 229 255
209 229 255
209 229 255
209 229 255
209 229 255
209 229 255
209 229 255
209 229 255
209 229 255
209 229 255
209 229 255
210 229 255
210 229 255
210 229 255
210 229 255
210 229 255
210 229 255
210 229 255
210 229 255
210 229 255
210 230 255
210 230 255
210 230 255
210 230 255
210 230 255
210 230 255
210 230 255
210 230 255
210 230 255
211 230 255
211 230 255
211 230 255
211 230 255
211 230 255
211 230 255
211 230 255
211 230 255
211 230 255
211 230 255
211 230 255
211 230 255
211 230 255
211 230 255
211 230 255
211 230 255
211 230 255
211 230 255
211 230 255
211 230 255
212 230 255
212 230 255
212 230 255
212 230 255
212 230 255
212 230 255
212 230 255
212 231 255
212 231 255
212 231 255
212 231 255
212 231 255
212 231 255
212 231 255
212 231 255
212 231 255
212 231 255
212 231 255
212 231 255
212 231 255
212 231 255
213 231 255
213 231 255
213 231 255
213 231 255
213 231 255
213 231 255
213 231 255
213 231 255
213 231 255
213 231 255
213 231 255
213 231 255
213 231 255
213 231 255
213 231 255
213 231 255
213 231 255
213 231 255
213 231 255
213 231 255
213 231 255
213 231 255
213 231 255
213 231 255
214 231 255
214 231 255
214 231 255
214 231 255
214 231 255
214 231 255
214 232 255
214 232 255
214 232 255
214 232 255
214 232 255
214 232 255
214 232 255
214 232 255
214 231 255
214 231 255
214 231 255
214 231 255
214 231 255
213 231 255
213 231 255
213 231 255
213 231 255
213 231 255
213 231 255
213 231 255
213 231 255
213 231 255
213 231 255
213 231 255
213 231 255
213 231 255
213 231 255
213 231 255
213 231 255
213 231 255
213 231 255
213 231 255
213 231 255
213 231 255
213 231 255
213 231 255
213 231 255
212 231 255
212 231 255
212 231 255
212 231 255
212 231 255
212 231 255
212 231 255
212 231 255
212 231 255
212 231 255
212 231 255
212 231 255
212 231 255
212 231 255
212 230 255
212 230 255
212 230 255
212 230 255
212 230 255
212 230 255
212 230 255
211 230 255
211 230 255
211 230 255
211 230 255
211 230 255
211 230 255
211 230 255
211 230 255
211 230 255
211 230 255
211 230 255
211 230 255
211 230 255
211 230 255
211 230 255
211 230 255
211 230 255
211 230 255
211 230 255
211 230 255
210 230 255
210 230 255
210 230 255
210 230 255
210 230 255
210 230 255
210 230 255
210 230 255
210 230 255
210 229 255
210 229 255
210 229 255
210 229 255
210 229 255
210 229 255
210 229 255
210 229 255
210 229 255
209 229 255
209 229 255
209 229 255
209 229 255
209 229 255
209 229 255
209 229 255
209 229 255
209 229 255
209 229 255
209 229 255
209 229 255
209 229 255
209 229 255
209 229 255
209 229 255
209 229 255
209 229 255
208 229 255
208 229 255
208 229 255
208 229 255
208 229 255
208 229 255
208 228 255
208 228 255
208 228 255
208 228 255
208 228 255
208 228 255
208 228 255
208 228 255
208 228 255
208 228 255
208 228 255
208 228 255
207 228 255
207 228 255
207 228 255
207 228 255
207 228 255
207 228 255
207 228 255
207 228 255
207 228 255
207 228 255
207 228 255
207 228 255
207 228 255
207 228 255
207 228 255
207 228 255
207 228 255
207 228 255
207 228 255
207 228 255
206 228 255
206 228 255
206 228 255
206 228 255
206 228 255
206 227 255
206 227 255
206 227 255
206 227 255
206 227 255
206 227 255
206 227 255
206 227 255
206 227 255
206 227 255
206 227 255
206 227 255
206 227 255
206 227 255
206 227 255
206 227 255
206 227 255
206 227 255
206 227 255
206 227 255
206 227 255
206 227 255
205 227 255
205 227 255
205 227 255
205 227 255
205 227 255
205 227 255
205 227 255
205 227 255
205 227 255
205 227 255
205 227 255
205 227 255
205 227 255
205 227 255
205 227 255
205 227 255
205 227 255
205 227 255
205 227 255
205 227 255
205 227 255
205 227 255
205 227 255
205 227 255
205 227 255
205 227 255
205 227 255
205 227 255
205 227 255
205 227 255
205 227 255
205 227 255
205 227 255
205 227 255
205 227 255
205 227 255
205 227 255
205 227 255
205 227 255
205 227 255
205 227 255
205 227 255
205 227 255
205 227 255
205 227 255
205 227 255
205 227 255
206 227 255
206 227 255
206 227 255
206 227 255
206 227 255
206 227 255
206 227 255
206 227 255
206 227 255
206 227 255
206 227 255
206 227 255
206 227 255
206 227 255
206 227 255
206 227 255
206 227 255
206 227 255
206 227 255
206 227 255
206 227 255
206 227 255
206 228 255
206 228 255
206 228 255
206 228 255
206 228 255
207 228 255
207 228 255
207 228 255
207 228 255
207 228 255
207 228 255
207 228 255
207 228 255
207 228 255
207 228 255
207 228 255
207 228 255
207 228 255
207 228 255
207 228 255
207 228 255
207 228 255
207 228 255
207 228 255
208 228 255
208 228 255
208 228 255
208 228 255
208 228 255
208 228 255
208 228 255
208 228 255
208 228 255
208 228 255
208 228 255
208 228 255
208 229 255
208 229 255
208 229 255
208 229 255
208 229 255
208 229 255
209 229 255
209 229 255
209 229 255
209 229 255
209 229 255
209 229 255
209 229 255
209 229 255
209 229 255
209 229 255
209 229 255
209 229 255
209 229 255
209 229 255
209 229 255
209 229 255
209 229 255
209 229 255
210 229 255
210 229 255
210 229 255
210 229 255
210 229 255
210 229 255
210 229 255
210 229 255
210 229 255
210 230 255
210 230 255
210 230 255
210 230 255
210 230 255
210 230 255
210 230 255
210 230 255
210 230 255
211 230 255
211 230 255
211 230 255
211 230 255
211 230 255
211 230 255
211 230 255
211 230 255
211 230 255
211 230 255
211 230 255
211 230 255
211 230 255
211 230 255
211 230 255
211 230 255
211 230 255
211 230 255
211 230 255
212 230 255
212 230 255
212 230 255
212 230 255
212 230 255
212 230 255
212 230 255
212 230 255
212 231 255
212 231 255
212 231 255
212 231 255
212 231 255
212 231 255
212 231 255
212 231 255
212 231 255
212 231 255
212 231 255
212 231 255
212 231 255
212 231 255
213 231 255
213 231 255
213 231 255
213 231 255
213 231 255
213 231 255
213 231 255
213 231 255
213 231 255
213 231 255
213 231 255
213 231 255
213 231 255
213 231 255
213 231 255
213 231 255
213 231 255
213 231 255
213 231 255
213 231 255
213 231 255
213 231 255
213 231 255
213 231 255
214 231 255
214 231 255
214 231 255
214 231 255
214 231 255
214 232 255
214 232 255
214 232 255
214 232 255
214 232 255
214 232 255
214 232 255
214 232 255
214 232 255
214 232 255
214 232 255
214 232 255
214 232 255
214 232 255
214 232 255
214 232 255
214 231 255
214 231 255
214 231 255
214 231 255
214 231 255
213 231 255
213 231 255
213 231 255
213 231 255
213 231 255
213 231 255
213 231 255
213 231 255
213 231 255
213 231 255
213 231 255
213 231 255
213 231 255
213 231 255
213 231 255
213 231 255
213 231 255
213 231 255
213 231 255
213 231 255
213 231 255
213 231 255
213 231 255
213 231 255
212 231 255
212 231 255
212 231 255
212 231 255
212 231 255
212 231 255
212 231 255
212 231 255
212 231 255
212 231 255
212 231 255
212 231 255
212 231 255
212 231 255
212 230 255
212 230 255
212 230 255
212 230 255
212 230 255
212 230 255
212 230 255
211 230 255
211 230 255
211 230 255
211 230 255
211 230 255
211 230 255
211 230 255
211 230 255
211 230 255
211 230 255
211 230 255
211 230 255
211 230 255
211 230 255
211 230 255
211 230 255
211 230 255
211 230 255
211 230 255
210 230 255
210 230 255
210 230 255
210 230 255
210 230 255
210 230 255
210 230 255
210 230 255
210 230 255
210 230 255
210 229 255
210 229 255
210 229 255
210 229 255
210 229 255
210 229 255
210 229 255
210 229 255
209 229 255
209 229 255
209 229 255
209 229 255
209 229 255
209 229 255
209 229 255
209 229 255
209 229 255
209 229 255
209 229 255
209 229 255
209 229 255
209 229 255
209 229 255
209 229 255
209 229 255
209 229 255
209 229 255
208 229 255
208 229 255
208 229 255
208 229 255
208 229 255
208 229 255
208 228 255
208 228 255
208 228 255
208 228 255
208 228 255
208 228 255
208 228 255
208 228 255
208 228 255
208 228 255
208 228 255
207 228 255
207 228 255
207 228 255
207 228 255
207 228 255
207 228 255
207 228 255
207 228 255
207 228 255
207 228 255
207 228 255
207 228 255
207 228 255
207 228 255
207 228 255
207 228 255
207 228 255
207 228 255
207 228 255
207 228 255
207 228 255
206 228 255
206 228 255
206 228 255
206 228 255
206 228 255
206 227 255
206 227 255
206 227 255
206 227 255
206 227 255
206 227 255
206 227 255
206 227 255
206 227 255
206 227 255
206 227 255
206 227 255
206 227 255
206 227 255
206 227 255
206 227 255
206 227 255
206 227 255
206 227 255
206 227 255
206 227 255
206 227 255
206 227 255
206 227 255
206 227 255
206 227 255
206 227 255
206 227 255
205 227 255
205 227 255
205 227 255
205 227 255
205 227 255
205 227 255
205 227 255
205 227 255
205 227 255
205 227 255
205 227 255
205 227 255
205 227 255
205 227 255
205 227 255
205 227 255
205 227 255
205 227 255
205 227 255
205 227 255
205 227 255
205 227 255
205 227 255
205 227 255
205 227 255
205 227 255
205 227 255
206 227 255
206 227 255
206 227 255
206 227 255
206 227 255
206 227 255
206 227 255
206 227 255
206 227 255
206 227 255
206 227 255
206 227 255
206 227 255
206 227 255
206 227 255
206 227 255
206 227 255
206 227 255
206 227 255
206 227 255
206 227 255
206 227 255
206 227 255
206 227 255
206 227 255
206 227 255
206 227 255
206 228 255
206 228 255
206 228 255
206 228 255
206 228 255
207 228 255
207 228 255
207 228 255
207 228 255
207 228 255
207 228 255
207 228 255
207 228 255
207 228 255
207 228 255
207 228 255
207 228 255
207 228 255
207 228 255
207 228 255
207 228 255
207 228 255
207 228 255
207 228 255
207 228 255
208 228 255
208 228 255
208 228 255
208 228 255
208 228 255
208 228 255
208 228 255
208 228 255
208 228 255
208 228 255
208 228 255
208 228 255
208 229 255
208 229 255
208 229 255
208 229 255
208 229 255
208 229 255
208 229 255
209 229 255
209 229 255
209 229 255
209 229 255
209 229 255
209 229 255
209 229 255
209 229 255
209 229 255
209 229 255
209 229 255
209 229 255
209 229 255
209 229 255
209 229 255
209 229 255
209 229 255
210 229 255
210 229 255
210 229 255
210 229 255
210 229 255
210 229 255
210 229 255
210 229 255
210 229 255
210 229 255
210 230 255
210 230 255
210 230 255
210 230 255
210 230 255
210 230 255
210 230 255
210 230 255
210 230 255
211 230 255
211 230 255
211 230 255
211 230 255
211 230 255
211 230 255
211 230 255
211 230 255
211 230 255
211 230 255
211 230 255
211 230 255
211 230 255
211 230 255
211 230 255
211 230 255
211 230 255
211 230 255
211 230 255
212 230 255
212 230 255
212 230 255
212 230 255
212 230 255
212 230 255
212 230 255
212 231 255
212 231 255
212 231 255
212 231 255
212 231 255
212 231 255
212 231 255
212 231 255
212 231 255
212 231 255
212 231 255
212 231 255
212 231 255
212 231 255
213 231 255
213 231 255
213 231 255
213 231 255
213 231 255
213 231 255
213 231 255
213 231 255
213 231 255
213 231 255
213 231 255
213 231 255
213 231 255
213 231 255
213 231 255
213 231 255
213 231 255
213 231 255
213 231 255
213 231 255
213 231 255
213 231 255
213 231 255
213 231 255
214 231 255
214 231 255
214 231 255
214 231 255
214 231 255
214 232 255
214 232 255
214 232 255
214 232 255
214 232 255
214 232 255
214 232 255
214 232 255
214 232 255
214 232 255
214 232 255
214 232 255
214 232 255
214 232 255
214 232 255
214 232 255
214 232 255
214 232 255
214 232 255
214 232 255
214 232 255
214 232 255
214 232 255
214 232 255
214 231 255
214 231 255
214 231 255
214 231 255
213 231 255
213 231 255
213 231 255
213 231 255
213 231 255
213 231 255
213 231 255
213 231 255
213 231 255
213 231 255
213 231 255
213 231 255
213 231 255
213 231 255
213 231 255
213 231 255
213 231 255
213 231 255
213 231 255
213 231 255
213 231 255
213 231 255
213 231 255
213 231 255
212 231 255
212 231 255
212 231 255
212 231 255
212 231 255
212 231 255
212 231 255
212 231 255
212 231 255
212 231 255
212 231 255
212 231 255
212 231 255
212 231 255
212 230 255
212 230 255
212 230 255
212 230 255
212 230 255
212 230 255
212 230 255
211 230 255
211 230 255
211 230 255
211 230 255
211 230 255
211 230 255
211 230 255
211 230 255
211 230 255
211 230 255
211 230 255
211 230 255
211 230 255
211 230 255
211 230 255
211 230 255
211 230 255
211 230 255
211 230 255
211 230 255
210 230 255
210 230 255
210 230 255
210 230 255
210 230 255
210 230 255
210 230 255
210 230 255
210 230 255
210 229 255
210 229 255
210 229 255
210 229 255
210 229 255
210 229 255
210 229 255
210 229 255
210 229 255
209 229 255
209 229 255
209 229 255
209 229 255
209 229 255
209 229 255
209 229 255
209 229 255
209 229 255
209 229 255
209 229 255
209 229 255
209 229 255
209 229 255
209 229 255
209 229 255
209 229 255
209 229 255
208 229 255
208 229 255
208 229 255
208 229 255
208 229 255
208 229 255
208 228 255
208 228 255
208 228 255
208 228 255
208 228 255
208 228 255
208 228 255
208 228 255
208 228 255
208 228 255
208 228 255
208 228 255
207 228 255
207 228 255
207 228 255
207 228 255
207 228 255
207 228 255
207 228 255
207 228 255
207 228 255
207 228 255
207 228 255
207 228 255
207 228 255
207 228 255
207 228 255
207 228 255
207 228 255
207 228 255
207 228 255
207 228 255
207 228 255
207 228 255
206 228 255
206 228 255
206 228 255
206 228 255
206 228 255
206 228 255
206 227 255
206 227 255
206 227 255
206 227 255
206 227 255
206 227 255
206 227 255
206 227 255
206 227 255
206 227 255
206 227 255
206 227 255
206 227 255
206 227 255
206 227 255
206 227 255
206 227 255
206 227 255
206 227 255
206 227 255
206 227 255
206 227 255
206 227 255
206 227 255
206 227 255
206 227 255
206 227 255
206 227 255
206 227 255
206 227 255
206 227 255
206 227 255
206 227 255
206 227 255
206 227 255
206 227 255
206 227 255
206 227 255
206 227 255
206 227 255
206 227 255
206 227 255
206 227 255
206 227 255
206 227 255
206 227 255
206 227 255
206 227 255
206 227 255
206 227 255
206 227 255
206 227 255
206 227 255
206 227 255
206 227 255
206 227 255
206 227 255
206 227 255
206 227 255
206 227 255
206 227 255
206 227 255
206 227 255
206 227 255
206 227 255
206 227 255
206 227 255
206 227 255
206 227 255
206 227 255
206 228 255
206 228 255
206 228 255
206 228 255
206 228 255
206 228 255
207 228 255
207 228 255
207 228 255
207 228 255
207 228 255
207 228 255
207 228 255
207 228 255
207 228 255
207 228 255
207 228 255
207 228 255
207 228 255
207 228 255
207 228 255
207 228 255
207 228 255
207 228 255
207 228 255
207 228 255
207 228 255
207 228 255
208 228 255
208 228 255
208 228 255
208 228 255
208 228 255
208 228 255
208 228 255
208 228 255
208 228 255
208 228 255
208 228 255
208 228 255
208 229 255
208 229 255
208 229 255
208 229 255
208 229 255
208 229 255
209 229 255
209 229 255
209 229 255
209 229 255
209 229 255
209 229 255
209 229 255
209 229 255
209 229 255
209 229 255
209 229 255
209 229 255
209 229 255
209 229 255
209 229 255
209 229 255
209 229 255
209 229 255
210 229 255
210 229 255
210 229 255
210 229 255
210 229 255
210 229 255
210 229 255
210 229 255
210 229 255
210 230 255
210 230 255
210 230 255
210 230 255
210 230 255
210 230 255
210 230 255
210 230 255
210 230 255
211 230 255
211 230 255
211 230 255
211 230 255
211 230 255
211 230 255
211 230 255
211 230 255
211 230 255
211 230 255
211 230 255
211 230 255
211 230 255
211 230 255
211 230 255
211 230 255
211 230 255
211 230 255
211 230 255
211 230 255
212 230 255
212 230 255
212 230 255
212 230 255
212 230 255
212 230 255
212 230 255
212 231 255
212 231 255
212 231 255
212 231 255
212 231 255
212 231 255
212 231 255
212 231 255
212 231 255
212 231 255
212 231 255
212 231 255
212 231 255
212 231 255
213 231 255
213 231 255
213 231 255
213 231 255
213 231 255
213 231 255
213 231 255
213 231 255
213 231 255
213 231 255
213 231 255
213 231 255
213 231 255
213 231 255
213 231 255
213 231 255
213 231 255
213 231 255
213 231 255
213 231 255
213 231 255
213 231 255
213 231 255
213 231 255
214 231 255
214 231 255
214 231 255
214 231 255
214 232 255
214 232 255
214 232 255
214 232 255
214 232 255
214 232 255
214 232 255
214 232 255
214 232 255
214 232 255
214 232 255
214 232 255
214 232 255
214 232 255
214 232 255
214 232 255
214 232 255
214 232 255
214 232 255
214 232 255
214 232 255
214 232 255
214 232 255
214 232 255
214 232 255
214 232 255
214 232 255
214 232 255
214 232 255
214 232 255
214 232 255
214 231 255
214 231 255
214 231 255
214 231 255
214 231 255
213 231 255
213 231 255
213 231 255
213 231 255
213 231 255
213 231 255
213 231 255
213 231 255
213 231 255
213 231 255
213 231 255
213 231 255
213 231 255
213 231 255
213 231 255
213 231 255
213 231 255
213 231 255
213 231 255
213 231 255
213 231 255
213 231 255
213 231 255
212 231 255
212 231 255
212 231 255
212 231 255
212 231 255
212 231 255
212 231 255
212 231 255
212 231 255
212 231 255
212 231 255
212 231 255
212 231 255
212 231 255
212 230 255
212 230 255
212 230 255
212 230 255
212 230 255
212 230 255
212 230 255
212 230 255
211 230 255
211 230 255
211 230 255
211 230 255
211 230 255
211 230 255
211 230 255
211 230 255
211 230 255
211 230 255
211 230 255
211 230 255
211 230 255
211 230 255
211 230 255
211 230 255
211 230 255
211 230 255
211 230 255
210 230 255
210 230 255
210 230 255
210 230 255
210 230 255
210 230 255
210 230 255
210 230 255
210 230 255
210 229 255
210 229 255
210 229 255
210 229 255
210 229 255
210 229 255
210 229 255
210 229 255
210 229 255
209 229 255
209 229 255
209 229 255
209 229 255
209 229 255
209 229 255
209 229 255
209 229 255
209 229 255
209 229 255
209 229 255
209 229 255
209 229 255
209 229 255
209 229 255
209 229 255
209 229 255
209 229 255
208 229 255
208 229 255
208 229 255
208 229 255
208 229 255
208 229 255
208 229 255
208 228 255
208 228 255
208 228 255
208 228 255
208 228 255
208 228 255
208 228 255
208 228 255
208 228 255
208 228 255
208 228 255
208 228 255
207 228 255
207 228 255
207 228 255
207 228 255
207 228 255
207 228 255
207 228 255
207 228 255
207 228 255
207 228 255
207 228 255
207 228 255
207 228 255
207 228 255
207 228 255
207 228 255
207 228 255
207 228 255
207 228 255
207 228 255
207 228 255
207 228 255
207 228 255
206 228 255
206 228 255
206 228 255
206 228 255
206 228 255
206 228 255
206 228 255
206 227 255
206 227 255
206 227 255
206 227 255
206 227 255
206 227 255
206 227 255
206 227 255
206 227 255
206 227 255
206 227 255
206 227 255
206 227 255
206 227 255
206 227 255
206 227 255
206 227 255
206 227 255
206 227 255
206 227 255
206 227 255
206 227 255
206 227 255
206 227 255
206 227 255
206 227 255
206 227 255
206 227 255
206 227 255
206 227 255
206 227 255
206 227 255
206 227 255
206 227 255
206 227 255
206 227 255
206 227 255
206 227 255
206 227 255
206 227 255
206 227 255
206 227 255
206 227 255
206 227 255
206 227 255
206 227 255
206 227 255
206 227 255
206 227 255
206 227 255
206 227 255
206 227 255
206 227 255
206 227 255
206 227 255
206 227 255
206 227 255
206 227 255
206 228 255
206 228 255
206 228 255
206 228 255
206 228 255
206 228 255
206 228 255
207 228 255
207 228 255
207 228 255
207 228 255
207 228 255
207 228 255
207 228 255
207 228 255
207 228 255
207 228 255
207 228 255
207 228 255
207 228 255
207 228 255
207 228 255
207 228 255
207 228 255
207 228 255
207 228 255
207 228 255
207 228 255
207 228 255
207 228 255
208 228 255
208 228 255
208 228 255
208 228 255
208 228 255
208 228 255
208 228 255
208 228 255
208 228 255
208 228 255
208 228 255
208 228 255
208 229 255
208 229 255
208 229 255
208 229 255
208 229 255
208 229 255
208 229 255
209 229 255
209 229 255
209 229 255
209 229 255
209 229 255
209 229 255
209 229 255
209 229 255
209 229 255
209 229 255
209 229 255
209 229 255
209 229 255
209 229 255
209 229 255
209 229 255
209 229 255
209 229 255
210 229 255
210 229 255
210 229 255
210 229 255
210 229 255
210 229 255
210 229 255
210 229 255
210 229 255
210 230 255
210 230 255
210 230 255
210 230 255
210 230 255
210 230 255
210 230 255
210 230 255
210 230 255
211 230 255
211 230 255
211 230 255
211 230 255
211 230 255
211 230 255
211 230 255
211 230 255
211 230 255
211 230 255
211 230 255
211 230 255
211 230 255
211 230 255
211 230 255
211 230 255
211 230 255
211 230 255
211 230 255
212 230 255
212 230 255
212 230 255
212 230 255
212 230 255
212 230 255
212 230 255
212 231 255
212 231 255
212 231 255
212 231 255
212 231 255
212 231 255
212 231 255
212 231 255
212 231 255
212 231 255
212 231 255
212 231 255
212 231 255
212 231 255
213 231 255
213 231 255
213 231 255
213 231 255
213 231 255
213 231 255
213 231 255
213 231 255
213 231 255
213 231 255
213 231 255
213 231 255
213 231 255
213 231 255
213 231 255
213 231 255
213 231 255
213 231 255
213 231 255
213 231 255
213 231 255
213 231 255
213 231 255
213 231 255
214 231 255
214 231 255
214 231 255
214 231 255
214 232 255
214 232 255
214 232 255
214 232 255
214 232 255
214 232 255
214 232 255
214 232 255
214 232 255
214 232 255
214 232 255
214 232 255
214 232 255
214 232 255
214 232 255
214 232 255
214 232 255
214 232 255
214 232 255
214 232 255
214 232 255
214 232 255
214 232 255
214 232 255
214 232 255
214 232 255
214 232 255
214 232 255
214 232 255
214 232 255
214 232 255
214 232 255
214 232 255
214 232 255
214 232 255
214 232 255
214 232 255
214 232 255
214 232 255
214 231 255
214 231 255
214 231 255
214 231 255
214 231 255
213 231 255
213 231 255
213 231 255
213 231 255
213 231 255
213 231 255
213 231 255
213 231 255
213 231 255
213 231 255
213 231 255
213 231 255
213 231 255
213 231 255
213 231 255
213 231 255
213 231 255
213 231 255
213 231 255
213 231 255
213 231 255
213 231 255
213 231 255
212 231 255
212 231 255
212 231 255
212 231 255
212 231 255
212 231 255
212 231 255
212 231 255
212 231 255
212 231 255
212 231 255
212 231 255
212 231 255
212 231 255
212 230 255
212 230 255
212 230 255
212 230 255
212 230 255
212 230 255
212 230 255
211 230 255
211 230 255
211 230 255
211 230 255
211 230 255
211 230 255
211 230 255
211 230 255
211 230 255
211 230 255
211 230 255
211 230 255
211 230 255
211 230 255
211 230 255
211 230 255
211 230 255
211 230 255
211 230 255
210 230 255
210 230 255
210 230 255
210 230 255
210 230 255
210 230 255
210 230 255
210 230 255
210 230 255
210 230 255
210 229 255
210 229 255
210 229 255
210 229 255
210 229 255
210 229 255
210 229 255
210 229 255
210 229 255
209 229 255
209 229 255
209 229 255
209 229 255
209 229 255
209 229 255
209 229 255
209 229 255
209 229 255
209 229 255
209 229 255
209 229 255
209 229 255
209 229 255
209 229 255
209 229 255
209 229 255
209 229 255
208 229 255
208 229 255
208 229 255
208 229 255
208 229 255
208 229 255
208 229 255
208 228 255
208 228 255
208 228 255
208 228 255
208 228 255
208 228 255
208 228 255
208 228 255
208 228 255
208 228 255
208 228 255
208 228 255
207 228 255
207 228 255
207 228 255
207 228 255
207 228 255
207 228 255
207 228 255
207 228 255
207 228 255
207 228 255
207 228 255
207 228 255
207 228 255
207 228 255
207 228 255
207 228 255
207 228 255
207 228 255
207 228 255
207 228 255
207 228 255
207 228 255
207 228 255
207 228 255
207 228 255
207 228 255
206 228 255
206 228 255
206 228 255
206 228 255
206 228 255
206 228 255
206 228 255
206 228 255
206 227 255
206 227 255
206 227 255
206 227 255
206 227 255
206 227 255
206 227 255
206 227 255
206 227 255
206 227 255
206 227 255
206 227 255
206 227 255
206 227 255
206 227 255
206 227 255
206 227 255
206 227 255
206 227 255
206 227 255
206 227 255
206 227 255
206 227 255
206 227 255
206 227 255
206 227 255
206 227 255
206 227 255
206 227 255
206 227 255
206 227 255
206 227 255
206 227 255
206 227 255
206 227 255
206 227 255
206 227 255
206 227 255
206 227 255
206 227 255
206 227 255
206 227 255
206 228 255
206 228 255
206 228 255
206 228 255
206 228 255
206 228 255
206 228 255
206 228 255
206 228 255
207 228 255
207 228 255
207 228 255
207 228 255
207 228 255
207 228 255
207 228 255
207 228 255
207 228 255
207 228 255
207 228 255
207 228 255
207 228 255
207 228 255
207 228 255
207 228 255
207 228 255
207 228 255
207 228 255
207 228 255
207 228 255
207 228 255
207 228 255
207 228 255
207 228 255
208 228 255
208 228 255
208 228 255
208 228 255
208 228 255
208 228 255
208 228 255
208 228 255
208 228 255
208 228 255
208 228 255
208 228 255
208 229 255
208 229 255
208 229 255
208 229 255
208 229 255
208 229 255
208 229 255
209 229 255
209 229 255
209 229 255
209 229 255
209 229 255
209 229 255
209 229 255
209 229 255
209 229 255
209 229 255
209 229 255
209 229 255
209 229 255
209 229 255
209 229 255
209 229 255
209 229 255
209 229 255
210 229 255
210 229 255
210 229 255
210 229 255
210 229 255
210 229 255
210 229 255
210 229 255
210 229 255
210 230 255
210 230 255
210 230 255
210 230 255
210 230 255
210 230 255
210 230 255
210 230 255
210 230 255
210 230 255
211 230 255
211 230 255
211 230 255
211 230 255
211 230 255
211 230 255
211 230 255
211 230 255
211 230 255
211 230 255
211 230 255
211 230 255
211 230 255
211 230 255
211 230 255
211 230 255
211 230 255
211 230 255
211 230 255
212 230 255
212 230 255
212 230 255
212 230 255
212 230 255
212 230 255
212 230 255
212 231 255
212 231 255
212 231 255
212 231 255
212 231 255
212 231 255
212 231 255
212 231 255
212 231 255
212 231 255
212 231 255
212 231 255
212 231 255
212 231 255
213 231 255
213 231 255
213 231 255
213 231 255
213 231 255
213 231 255
213 231 255
213 231 255
213 231 255
213 231 255
213 231 255
213 231 255
213 231 255
213 231 255
213 231 255
213 231 255
213 231 255
213 231 255
213 231 255
213 231 255
213 231 255
213 231 255
213 231 255
214 231 255
214 231 255
214 231 255
214 231 255
214 231 255
214 232 255
214 232 255
214 232 255
214 232 255
214 232 255
214 232 255
214 232 255
214 232 255
214 232 255
214 232 255
214 232 255
214 232 255
214 232 255
214 232 255
214 232 255
214 232 255
214 232 255
214 232 255
214 232 255
214 232 255
214 232 255
215 232 255
215 232 255
215 232 255
214 232 255
214 232 255
214 232 255
214 232 255
214 232 255
214 232 255
214 232 255
214 232 255
214 232 255
214 232 255
214 232 255
214 232 255
214 232 255
214 232 255
214 232 255
214 232 255
214 232 255
214 232 255
214 232 255
214 232 255
214 232 255
214 232 255
214 231 255
214 231 255
214 231 255
214 231 255
213 231 255
213 231 255
213 231 255
213 231 255
213 231 255
213 231 255
213 231 255
213 231 255
213 231 255
213 231 255
213 231 255
213 231 254
213 231 255
213 231 255
213 231 255
212 231 254
213 231 255
213 231 254
213 231 255
213 231 254
213 231 255
212 231 255
214 231 254
213 231 255
213 231 254
212 230 254
212 231 255
212 231 255
212 231 255
212 231 255
213 231 255
212 231 255
212 231 255
212 231 255
212 231 255
212 231 255
212 231 255
212 231 255
212 230 255
212 230 255
212 230 255
212 230 255
212 230 255
212 230 255
211 230 255
211 230 255
211 230 255
211 230 255
211 230 255
211 230 255
211 230 255
211 230 255
211 230 255
211 230 255
211 230 255
211 230 255
211 230 255
211 230 255
211 230 255
211 230 255
211 230 255
211 230 255
211 230 255
211 230 255
210 230 255
210 230 255
210 230 255
210 230 255
210 230 255
210 230 255
210 230 255
210 230 255
210 230 255
210 229 255
210 229 255
210 229 255
210 229 255
210 229 255
210 229 255
210 229 255
210 229 255
210 229 255
209 229 255
209 229 255
209 229 255
209 229 255
209 229 255
209 229 255
209 229 255
209 229 255
209 229 255
209 229 255
209 229 255
209 229 255
209 229 255
209 229 255
209 229 255
209 229 255
209 229 255
209 229 255
209 229 255
208 229 255
208 229 255
208 229 255
208 229 255
208 229 255
208 229 255
208 229 255
208 228 255
208 228 255
208 228 255
208 228 255
208 228 255
208 228 255
208 228 255
208 228 255
208 228 255
208 228 255
208 228 255
208 228 255
208 228 255
207 228 255
207 228 255
207 228 255
207 228 255
207 228 255
207 228 255
207 228 255
207 228 255
207 228 255
207 228 255
207 228 255
207 228 255
207 228 255
207 228 255
207 228 255
207 228 255
207 228 255
207 228 255
207 228 255
207 228 255
207 228 255
207 228 255
207 228 255
207 228 255
207 228 255
207 228 255
207 228 255
207 228 255
206 228 255
206 228 255
206 228 255
206 228 255
206 228 255
206 228 255
206 228 255
206 228 255
206 228 255
206 228 255
206 228 255
206 228 255
206 228 255
206 228 255
206 228 255
206 227 255
206 227 255
206 227 255
206 227 255
206 227 255
206 227 255
206 227 255
206 227 255
206 227 255
206 227 255
206 227 255
206 227 255
206 228 255
206 228 255
206 227 255
206 228 255
206 228 255
206 228 255
206 228 255
206 228 255
206 228 255
206 228 255
206 228 255
206 228 255
206 228 255
206 228 255
206 228 255
206 228 255
207 228 255
207 228 255
207 228 255
207 228 255
207 228 255
207 228 255
207 228 255
207 228 255
207 228 255
207 228 255
207 228 255
207 228 255
207 228 255
207 228 255
207 228 255
207 228 255
207 228 255
207 228 255
207 228 255
207 228 255
207 228 255
207 228 255
207 228 255
207 228 255
207 228 255
207 228 255
207 228 255
207 228 255
207 228 255
208 228 255
208 228 255
208 228 255
208 228 255
208 228 255
208 228 255
208 228 255
208 228 255
208 228 255
208 228 255
208 228 255
208 228 255
208 228 255
208 229 255
208 229 255
208 229 255
208 229 255
208 229 255
208 229 255
208 229 255
209 229 255
209 229 255
209 229 255
209 229 255
209 229 255
209 229 255
209 229 255
209 229 255
209 229 255
209 229 255
209 229 255
209 229 255
209 229 255
209 229 255
209 229 255
209 229 255
209 229 255
209 229 255
209 229 255
210 229 255
210 229 255
210 229 255
210 229 255
210 229 255
210 229 255
210 229 255
210 229 255
210 229 255
210 230 255
210 230 255
210 230 255
210 230 255
210 230 255
210 230 255
210 230 255
210 230 255
210 230 255
211 230 255
211 230 255
211 230 255
211 230 255
211 230 255
211 230 255
211 230 255
211 230 255
211 230 255
211 230 255
211 230 255
211 230 255
211 230 255
211 230 255
211 230 255
211 230 255
211 230 255
211 230 255
211 230 255
211 230 255
212 230 255
212 230 255
212 230 255
212 230 255
212 230 255
212 230 255
212 230 255
212 231 255
212 231 255
212 231 255
212 231 255
212 231 255
206 223 246
202 218 238
203 218 237
197 211 228
198 213 228
198 212 225
184 197 207
186 198 208
183 196 206
186 198 205
192 205 217
179 189 194
184 195 203
182 194 203
187 199 206
185 198 210
190 203 212
200 214 229
206 221 237
202 218 237
197 212 228
207 224 246
211 229 252
213 231 255
213 231 255
213 231 255
213 231 255
213 231 255
213 231 255
213 231 255
213 231 255
213 231 255
214 231 255
214 231 255
214 231 255
214 231 255
214 232 255
214 232 255
214 232 255
214 232 255
214 232 255
214 232 255
214 232 255
214 232 255
214 232 255
214 232 255
214 232 255
214 232 255
214 232 255
214 232 255
214 232 255
214 232 255
214 232 255
214 232 255
214 232 255
214 232 255
214 232 255
214 232 255
215 232 255
215 232 255
215 232 255
215 232 255
215 232 255
215 232 255
215 232 255
215 232 255
215 232 255
215 232 255
214 232 255
214 232 255
214 232 255
214 232 255
214 232 255
214 232 255
214 232 255
214 232 255
214 232 255
214 232 255
214 232 255
214 232 255
214 232 255
214 232 255
214 232 255
214 232 255
214 232 255
214 232 255
214 232 255
214 232 255
214 232 255
214 232 255
214 232 255
213 231 254
214 232 255
213 231 254
213 231 254
214 231 255
213 231 254
213 231 255
214 231 254
213 231 253
212 230 252
212 231 255
212 230 250
212 230 252
212 230 255
210 229 252
212 230 254
210 229 253
210 229 250
212 230 255
212 231 255
211 230 253
211 230 252
210 229 254
211 230 254
211 230 255
210 229 253
213 231 254
211 230 254
212 230 253
207 227 248
211 230 251
211 230 255
211 230 252
211 230 255
211 230 254
212 231 255
212 231 255
212 230 254
212 231 255
212 231 255
212 230 255
212 230 255
212 230 255
212 230 255
212 230 255
212 230 255
212 230 255
211 230 255
211 230 255
211 230 255
211 230 255
211 230 255
211 230 255
211 230 255
211 230 255
211 230 255
211 230 255
211 230 255
211 230 255
211 230 255
211 230 255
211 230 255
211 230 255
211 230 255
211 230 255
211 230 255
210 230 255
210 230 255
210 230 255
210 230 255
210 230 255
210 230 255
210 230 255
210 230 255
210 230 255
210 230 255
210 229 255
210 229 255
210 229 255
210 229 255
210 229 255
210 229 255
210 229 255
210 229 255
210 229 255
209 229 255
209 229 255
209 229 255
209 229 255
209 229 255
209 229 255
209 229 255
209 229 255
209 229 255
209 229 255
209 229 255
209 229 255
209 229 255
209 229 255
209 229 255
209 229 255
209 229 255
209 229 255
209 229 255
208 229 255
208 229 255
208 229 255
208 229 255
208 229 255
208 229 255
208 229 255
208 228 255
208 228 255
208 228 255
208 228 255
208 228 255
208 228 255
208 228 255
208 228 255
208 228 255
208 228 255
208 228 255
208 228 255
208 228 255
208 228 255
207 228 255
207 228 255
207 228 255
207 228 255
207 228 255
207 228 255
207 228 255
207 228 255
207 228 255
207 228 255
207 228 255
207 228 255
207 228 255
207 228 255
207 228 255
207 228 255
207 228 255
207 228 255
207 228 255
207 228 255
207 228 255
207 228 255
207 228 255
207 228 255
207 228 255
207 228 255
207 228 255
207 228 255
207 228 255
207 228 255
207 228 255
207 228 255
207 228 255
207 228 255
207 228 255
207 228 255
207 228 255
206 228 255
206 228 255
206 228 255
206 228 255
206 228 255
206 228 255
206 228 255
206 228 255
206 228 255
206 228 255
206 228 255
206 228 255
206 228 255
206 228 255
206 228 255
206 228 255
207 228 255
207 228 255
207 228 255
207 228 255
207 228 255
207 228 255
207 228 255
207 228 255
207 228 255
207 228 255
207 228 255
207 228 255
207 228 255
207 228 255
207 228 255
207 228 255
207 228 255
207 228 255
207 228 255
207 228 255
207 228 255
207 228 255
207 228 255
207 228 255
207 228 255
207 228 255
207 228 255
207 228 255
207 228 255
207 228 255
207 228 255
207 228 255
207 228 255
207 228 255
207 228 255
207 228 255
207 228 255
208 228 255
208 228 255
208 228 255
208 228 255
208 228 255
208 228 255
208 228 255
208 228 255
208 228 255
208 228 255
208 228 255
208 228 255
208 228 255
208 228 255
208 229 255
208 229 255
208 229 255
208 229 255
208 229 255
208 229 255
208 229 255
208 229 255
209 229 255
209 229 255
209 229 255
209 229 255
209 229 255
209 229 255
209 229 255
209 229 255
209 229 255
209 229 255
209 229 255
209 229 255
209 229 255
209 229 255
209 229 255
209 229 255
209 229 255
209 229 255
210 229 255
210 229 255
210 229 255
210 229 255
210 229 255
210 229 255
210 229 255
210 229 255
210 229 255
210 230 255
210 230 255
210 230 255
210 230 255
210 230 255
210 230 255
210 230 255
210 230 255
210 230 255
210 230 255
211 230 255
211 230 255
211 230 255
211 230 255
211 230 255
211 230 255
211 230 255
211 230 255
211 230 255
211 230 255
211 230 255
211 230 255
211 230 255
211 230 255
211 230 255
211 230 255
211 230 255
211 230 255
211 230 255
212 230 255
212 230 255
212 230 255
212 230 255
212 230 255
212 230 255
208 226 250
200 215 232
188 202 214
186 199 210
179 189 193
164 170 162
153 157 142
148 151 131
143 142 105
135 132 91
142 140 96
145 142 98
133 131 90
136 134 92
137 134 92
148 146 101
134 132 91
137 135 93
143 140 96
143 140 96
139 137 95
150 148 102
147 144 99
147 144 99
135 133 91
138 135 93
138 135 92
145 143 98
134 131 89
138 135 91
138 135 92
136 132 90
131 129 88
149 150 120
147 152 142
164 169 162
170 178 176
179 188 190
180 191 198
194 207 221
199 213 230
213 230 253
214 232 255
214 232 255
214 232 255
214 232 255
214 232 255
214 232 255
214 232 255
214 232 255
214 232 255
214 232 255
214 232 255
214 232 255
214 232 255
214 232 255
214 232 255
214 232 255
214 232 255
214 232 255
214 232 255
214 232 255
214 232 255
214 232 255
215 232 255
215 232 255
215 232 255
215 232 255
215 232 255
215 232 255
215 232 255
215 232 255
215 232 255
215 232 255
215 232 255
215 232 255
215 232 255
215 232 255
215 232 255
215 232 255
215 232 255
215 232 255
214 232 255
214 232 255
214 232 255
214 232 255
214 232 255
214 232 255
214 232 255
214 232 255
214 232 255
214 232 255
214 232 255
214 232 255
214 232 255
214 232 255
214 232 255
214 232 254
214 231 254
213 231 254
213 231 253
213 231 253
213 231 253
212 231 255
214 232 254
213 231 255
211 230 251
210 229 250
212 230 253
210 229 254
210 229 251
211 229 252
211 230 253
209 229 252
211 230 253
210 229 247
210 230 255
211 230 252
211 230 254
209 229 254
209 229 253
209 229 254
209 229 254
209 229 254
209 228 251
210 230 254
210 229 255
210 229 253
208 228 253
210 229 252
208 228 251
209 229 251
210 230 254
211 230 254
210 229 253
210 229 253
211 230 254
211 230 253
211 229 252
210 229 251
212 231 254
210 229 253
211 230 255
212 230 255
211 230 254
212 230 254
211 230 255
212 230 255
212 230 255
212 230 255
212 230 255
212 230 255
211 230 255
211 230 255
211 230 255
211 230 255
211 230 255
211 230 255
211 230 255
211 230 255
211 230 255
211 230 255
211 230 255
211 230 255
211 230 255
211 230 255
211 230 255
211 230 255
211 230 255
211 230 255
211 230 255
210 230 255
210 230 255
210 230 255
210 230 255
210 230 255
210 230 255
210 230 255
210 230 255
210 230 255
210 229 255
210 229 255
210 229 255
210 229 255
210 229 255
210 229 255
210 229 255
210 229 255
210 229 255
209 229 255
209 229 255
209 229 255
209 229 255
209 229 255
209 229 255
209 229 255
209 229 255
209 229 255
209 229 255
209 229 255
209 229 255
209 229 255
209 229 255
209 229 255
209 229 255
209 229 255
209 229 255
209 229 255
209 229 255
208 229 255
208 229 255
208 229 255
208 229 255
208 229 255
208 229 255
208 229 255
208 228 255
208 228 255
208 228 255
208 228 255
208 228 255
208 228 255
208 228 255
208 228 255
208 228 255
208 228 255
208 228 255
208 228 255
208 228 255
208 228 255
208 228 255
207 228 255
207 228 255
207 228 255
207 228 255
207 228 255
207 228 255
207 228 255
207 228 255
207 228 255
207 228 255
207 228 255
207 228 255
207 228 255
207 228 255
207 228 255
207 228 255
207 228 255
207 228 255
207 228 255
207 228 255
207 228 255
207 228 255
207 228 255
207 228 255
207 228 255
207 228 255
207 228 255
207 228 255
207 228 255
207 228 255
207 228 255
207 228 255
207 228 255
207 228 255
207 228 255
207 228 255
207 228 255
207 228 255
207 228 255
207 228 255
207 228 255
207 228 255
207 228 255
207 228 255
207 228 255
207 228 255
207 228 255
207 228 255
207 228 255
207 228 255
207 228 255
207 228 255
207 228 255
207 228 255
207 228 255
207 228 255
207 228 255
207 228 255
207 228 255
207 228 255
207 228 255
207 228 255
207 228 255
207 228 255
207 228 255
207 228 255
207 228 255
207 228 255
207 228 255
207 228 255
207 228 255
207 228 255
207 228 255
207 228 255
207 228 255
207 228 255
207 228 255
207 228 255
207 228 255
208 228 255
208 228 255
208 228 255
208 228 255
208 228 255
208 228 255
208 228 255
208 228 255
208 228 255
208 228 255
208 228 255
208 228 255
208 228 255
208 228 255
208 228 255
208 228 255
208 229 255
208 229 255
208 229 255
208 229 255
208 229 255
208 229 255
208 229 255
209 229 255
209 229 255
209 229 255
209 229 255
209 229 255
209 229 255
209 229 255
209 229 255
209 229 255
209 229 255
209 229 255
209 229 255
209 229 255
209 229 255
209 229 255
209 229 255
209 229 255
209 229 255
209 229 255
209 229 255
210 229 255
210 229 255
210 229 255
210 229 255
210 229 255
210 229 255
210 229 255
210 229 255
210 229 255
210 230 255
210 230 255
210 230 255
210 230 255
210 230 255
210 230 255
210 230 255
210 230 255
210 230 255
211 230 255
211 230 255
211 230 255
211 230 255
211 230 255
211 230 255
211 230 255
211 230 255
211 230 255
211 230 255
211 230 255
211 230 255
211 230 255
211 230 255
211 230 255
211 230 255
211 230 255
211 230 255
211 230 255
212 230 255
212 230 255
212 230 255
212 230 255
207 225 248
196 211 228
180 191 197
175 183 180
163 170 161
153 154 125
135 133 92
143 142 99
127 126 87
145 143 99
144 142 98
138 137 96
138 136 94
136 134 93
140 139 96
145 143 99
140 138 96
146 144 99
142 140 97
152 150 104
138 135 93
135 133 93
146 144 99
137 135 93
143 141 98
144 142 98
135 133 93
143 141 97
137 134 93
153 150 104
149 146 101
153 150 104
138 137 95
141 139 95
147 145 99
147 144 99
142 139 95
151 148 101
142 139 96
147 144 99
137 135 93
150 147 101
139 136 93
138 136 93
127 125 85
143 140 95
133 130 89
143 140 96
158 159 133
160 165 151
171 178 176
181 192 202
196 210 225
209 226 246
214 232 255
214 232 255
214 232 255
214 232 255
214 232 255
214 232 255
214 232 255
214 232 255
214 232 255
214 232 255
214 232 255
214 232 255
215 232 255
215 232 255
215 232 255
215 232 255
215 232 255
215 232 255
215 232 255
215 232 255
215 232 255
215 232 255
215 232 255
215 232 255
215 232 255
215 232 255
215 232 255
215 232 255
215 232 255
215 232 255
215 232 255
215 232 255
215 232 255
215 232 255
215 232 255
215 232 255
215 232 255
215 232 255
214 232 255
214 232 255
214 232 255
215 232 255
214 232 255
215 232 255
214 232 254
214 231 254
213 231 254
213 231 254
212 230 251
211 229 250
213 231 251
212 230 251
212 231 254
212 230 254
211 230 253
212 230 252
211 229 252
211 230 255
210 229 253
211 230 253
211 230 255
211 230 254
210 229 253
210 229 252
211 230 254
210 230 255
209 229 255
210 229 255
211 230 254
209 229 255
209 229 255
209 229 255
209 229 255
208 229 255
209 229 254
209 229 255
207 228 255
208 229 255
207 228 255
210 229 255
208 228 254
208 229 255
208 229 255
210 229 255
209 229 255
207 228 255
208 228 255
208 228 254
208 228 254
207 228 252
207 227 252
209 229 254
208 227 247
208 228 251
208 228 250
208 228 252
211 230 252
211 230 252
211 229 248
211 230 253
210 229 252
211 230 252
211 230 255
211 230 255
212 230 255
212 230 255
212 230 255
211 230 255
211 230 255
211 230 255
211 230 255
211 230 255
211 230 255
211 230 255
211 230 255
211 230 255
211 230 255
211 230 255
211 230 255
211 230 255
211 230 255
211 230 255
211 230 255
211 230 255
211 230 255
211 230 255
210 230 255
210 230 255
210 230 255
210 230 255
210 230 255
210 230 255
210 230 255
210 230 255
210 230 255
210 230 255
210 229 255
210 229 255
210 229 255
210 229 255
210 229 255
210 229 255
210 229 255
210 229 255
210 229 255
209 229 255
209 229 255
209 229 255
209 229 255
209 229 255
209 229 255
209 229 255
209 229 255
209 229 255
209 229 255
209 229 255
209 229 255
209 229 255
209 229 255
209 229 255
209 229 255
209 229 255
209 229 255
209 229 255
209 229 255
208 229 255
208 229 255
208 229 255
208 229 255
208 229 255
208 229 255
208 229 255
208 229 255
208 228 255
208 228 255
208 228 255
208 228 255
208 228 255
208 228 255
208 228 255
208 228 255
208 228 255
208 228 255
208 228 255
208 228 255
208 228 255
208 228 255
208 228 255
208 228 255
207 228 255
207 228 255
207 228 255
207 228 255
207 228 255
207 228 255
207 228 255
207 228 255
207 228 255
207 228 255
207 228 255
207 228 255
207 228 255
207 228 255
207 228 255
207 228 255
207 228 255
207 228 255
207 228 255
207 228 255
207 228 255
207 228 255
207 228 255
207 228 255
207 228 255
207 228 255
207 228 255
207 228 255
207 228 255
207 228 255
207 228 255
207 228 255
207 228 255
207 228 255
207 228 255
207 228 255
207 228 255
207 228 255
207 228 255
207 228 255
207 228 255
207 228 255
207 228 255
207 228 255
207 228 255
207 228 255
207 228 255
207 228 255
207 228 255
207 228 255
207 228 255
207 228 255
207 228 255
207 228 255
207 228 255
207 228 255
207 228 255
207 228 255
207 228 255
207 228 255
207 228 255
207 228 255
207 228 255
207 228 255
207 228 255
207 228 255
207 228 255
207 228 255
208 228 255
208 228 255
208 228 255
208 228 255
208 228 255
208 228 255
208 228 255
208 228 255
208 228 255
208 228 255
208 228 255
208 228 255
208 228 255
208 228 255
208 228 255
208 228 255
208 229 255
208 229 255
208 229 255
208 229 255
208 229 255
208 229 255
208 229 255
208 229 255
209 229 255
209 229 255
209 229 255
209 229 255
209 229 255
209 229 255
209 229 255
209 229 255
209 229 255
209 229 255
209 229 255
209 229 255
209 229 255
209 229 255
209 229 255
209 229 255
209 229 255
209 229 255
209 229 255
209 229 255
210 229 255
210 229 255
210 229 255
210 229 255
210 229 255
210 229 255
210 229 255
210 229 255
210 229 255
210 230 255
210 230 255
210 230 255
210 230 255
210 230 255
210 230 255
210 230 255
210 230 255
210 230 255
210 230 255
211 230 255
211 230 255
211 230 255
211 230 255
211 230 255
211 230 255
211 230 255
211 230 255
211 230 255
211 230 255
211 230 255
211 230 255
211 230 255
211 230 255
211 230 255
211 230 255
211 230 255
211 230 255
211 230 255
212 230 255
212 230 255
206 224 248
190 204 218
182 193 199
170 177 168
144 146 127
134 132 91
139 137 95
129 128 89
143 141 98
128 127 88
141 138 95
135 134 93
147 146 101
140 138 96
147 145 101
140 138 96
147 145 101
144 142 99
148 146 101
141 140 97
153 150 103
144 142 99
147 145 101
145 144 100
151 150 105
137 136 95
134 132 92
147 145 100
150 147 101
146 144 99
149 146 100
140 139 96
148 146 101
151 148 101
138 136 94
150 147 101
149 148 103
147 144 99
137 136 93
151 149 102
142 140 96
142 140 96
144 141 96
145 143 99
141 139 95
133 131 88
141 138 94
140 138 94
140 137 93
141 138 93
146 144 97
138 135 92
145 141 96
148 144 97
141 139 93
139 136 92
141 138 93
143 140 96
136 133 89
130 129 103
158 164 156
170 179 181
201 215 229
206 222 242
214 232 255
214 232 255
214 232 255
215 232 255
215 232 255
215 232 255
215 232 255
215 232 255
215 232 255
215 232 255
215 232 255
215 232 255
215 232 255
215 232 255
215 232 255
215 232 255
215 232 255
215 232 255
215 232 255
215 232 255
215 232 255
215 232 255
215 232 255
215 232 255
215 232 255
215 232 255
215 232 255
215 232 255
215 232 255
215 232 255
215 232 255
215 232 255
215 232 255
214 232 255
215 232 254
213 231 254
214 232 253
214 232 255
214 232 255
213 231 253
214 231 253
211 230 251
212 231 254
212 230 252
211 229 248
211 230 253
210 229 253
211 230 254
212 230 255
211 230 255
211 230 255
210 230 255
210 229 255
209 229 255
209 229 255
209 229 255
209 229 255
208 228 254
209 229 255
208 228 254
207 228 255
208 228 255
208 229 255
208 228 255
208 228 255
206 227 255
207 228 255
207 228 255
206 228 255
206 227 255
207 228 255
206 227 255
207 228 255
207 228 255
205 227 255
206 228 255
206 227 254
206 227 255
206 228 255
206 227 254
207 228 255
207 228 255
208 228 255
207 228 254
207 228 254
207 228 255
207 228 255
207 228 255
207 228 255
208 228 254
208 229 254
207 228 254
208 228 253
209 229 250
209 229 254
209 229 255
210 229 254
209 229 252
210 229 251
211 230 254
211 230 252
213 231 254
212 230 254
212 230 255
212 230 255
212 230 255
211 230 255
211 230 255
211 230 255
211 230 255
211 230 255
211 230 255
211 230 255
211 230 255
211 230 255
211 230 255
211 230 255
211 230 255
211 230 255
211 230 255
211 230 255
211 230 255
211 230 255
211 230 255
211 230 255
210 230 255
210 230 255
210 230 255
210 230 255
210 230 255
210 230 255
210 230 255
210 230 255
210 230 255
210 230 255
210 229 255
210 229 255
210 229 255
210 229 255
210 229 255
210 229 255
210 229 255
210 229 255
210 229 255
209 229 255
209 229 255
209 229 255
209 229 255
209 229 255
209 229 255
209 229 255
209 229 255
209 229 255
209 229 255
209 229 255
209 229 255
209 229 255
209 229 255
209 229 255
209 229 255
209 229 255
209 229 255
209 229 255
209 229 255
209 229 255
208 229 255
208 229 255
208 229 255
208 229 255
208 229 255
208 229 255
208 229 255
208 229 255
208 228 255
208 228 255
208 228 255
208 228 255
208 228 255
208 228 255
208 228 255
208 228 255
208 228 255
208 228 255
208 228 255
208 228 255
208 228 255
208 228 255
208 228 255
208 228 255
208 228 255
208 228 255
207 228 255
207 228 255
207 228 255
207 228 255
207 228 255
207 228 255
207 228 255
207 228 255
207 228 255
207 228 255
207 228 255
207 228 255
207 228 255
207 228 255
207 228 255
207 228 255
207 228 255
207 228 255
207 228 255
207 228 255
207 228 255
207 228 255
207 228 255
207 228 255
207 228 255
207 228 255
207 228 255
207 228 255
207 228 255
207 228 255
207 228 255
207 228 255
207 228 255
207 228 255
207 228 255
207 228 255
207 228 255
207 228 255
207 228 255
207 228 255
207 228 255
207 228 255
207 228 255
207 228 255
207 228 255
207 228 255
207 228 255
207 228 255
207 228 255
207 228 255
207 228 255
207 228 255
207 228 255
207 228 255
208 228 255
208 228 255
208 228 255
208 228 255
208 228 255
208 228 255
208 228 255
208 228 255
208 228 255
208 228 255
208 228 255
208 228 255
208 228 255
208 228 255
208 228 255
208 228 255
208 228 255
208 228 255
208 229 255
208 229 255
208 229 255
208 229 255
208 229 255
208 229 255
208 229 255
208 229 255
209 229 255
209 229 255
209 229 255
209 229 255
209 229 255
209 229 255
209 229 255
209 229 255
209 229 255
209 229 255
209 229 255
209 229 255
209 229 255
209 229 255
209 229 255
209 229 255
209 229 255
209 229 255
209 229 255
209 229 255
209 229 255
210 229 255
210 229 255
210 229 255
210 229 255
210 229 255
210 229 255
210 229 255
210 229 255
210 229 255
210 230 255
210 230 255
210 230 255
210 230 255
210 230 255
210 230 255
210 230 255
210 230 255
210 230 255
210 230 255
211 230 255
211 230 255
211 230 255
211 230 255
211 230 255
211 230 255
211 230 255
211 230 255
211 230 255
211 230 255
211 230 255
211 230 255
211 230 255
211 230 255
211 230 255
211 230 255
211 230 255
211 230 255
211 230 255
212 230 255
212 230 255
202 218 237
190 204 217
177 186 185
142 143 116
132 130 90
142 140 97
145 143 99
139 138 96
149 147 102
144 142 99
138 137 95
146 144 100
143 142 99
148 146 101
144 142 99
150 149 104
140 138 96
138 137 95
148 146 101
137 136 94
154 152 105
153 151 105
144 142 99
158 155 108
147 145 101
148 146 101
159 157 109
145 143 99
137 136 94
151 149 103
144 142 99
146 144 100
147 144 99
148 146 101
153 151 105
142 140 96
147 145 101
141 140 97
148 146 101
147 145 101
150 148 101
145 143 99
150 147 101
145 141 96
148 146 99
152 149 103
151 148 102
156 153 105
148 146 101
142 140 96
142 139 94
139 137 93
132 130 90
144 142 96
154 151 102
139 137 94
151 148 101
144 140 96
135 132 90
143 140 94
149 146 99
138 135 93
140 136 92
144 141 96
141 137 92
132 129 84
138 135 90
133 131 89
146 146 115
180 187 185
186 198 207
200 214 230
215 232 255
215 232 255
215 232 255
215 232 255
215 232 255
215 232 255
215 232 255
215 232 255
215 232 255
215 232 255
215 232 255
215 232 255
215 232 255
215 232 255
215 232 255
215 232 255
215 232 255
215 232 255
215 232 255
215 232 255
215 232 255
215 232 255
215 232 255
215 232 255
215 232 255
215 232 255
215 232 254
215 232 255
215 232 253
213 231 253
214 231 252
212 230 248
212 230 252
213 231 253
212 231 255
213 231 254
212 230 254
212 230 255
212 231 254
211 230 254
211 230 255
210 230 255
211 230 255
210 230 255
210 229 255
210 229 254
208 229 254
209 229 255
209 229 255
209 229 254
208 229 255
208 228 255
208 229 255
208 229 255
207 228 254
208 229 255
207 228 255
207 228 255
206 227 255
205 227 254
206 227 255
205 227 255
205 227 255
205 227 255
205 227 255
205 227 255
205 227 255
205 227 254
204 226 255
203 226 254
204 226 255
204 226 255
204 226 255
203 226 255
205 227 255
204 226 255
204 226 255
203 226 255
204 226 255
205 227 255
204 226 255
206 227 255
206 227 254
204 226 255
206 227 255
205 227 255
205 227 255
206 227 255
207 228 254
207 228 255
207 228 255
207 228 255
207 228 255
208 228 254
206 227 248
208 228 254
209 229 252
209 228 250
210 229 252
212 230 253
212 230 253
212 231 255
211 230 255
212 231 255
212 230 255
211 230 255
211 230 255
211 230 255
211 230 255
211 230 255
211 230 255
211 230 255
211 230 255
211 230 255
211 230 255
211 230 255
211 230 255
211 230 255
211 230 255
211 230 255
211 230 255
211 230 255
211 230 255
211 230 255
211 230 255
210 230 255
210 230 255
210 230 255
210 230 255
210 230 255
210 230 255
210 230 255
210 230 255
210 230 255
210 230 255
210 229 255
210 229 255
210 229 255
210 229 255
210 229 255
210 229 255
210 229 255
210 229 255
210 229 255
209 229 255
209 229 255
209 229 255
209 229 255
209 229 255
209 229 255
209 229 255
209 229 255
209 229 255
209 229 255
209 229 255
209 229 255
209 229 255
209 229 255
209 229 255
209 229 255
209 229 255
209 229 255
209 229 255
209 229 255
209 229 255
209 229 255
208 229 255
208 229 255
208 229 255
208 229 255
208 229 255
208 229 255
208 229 255
208 229 255
208 229 255
208 228 255
208 228 255
208 228 255
208 228 255
208 228 255
208 228 255
208 228 255
208 228 255
208 228 255
208 228 255
208 228 255
208 228 255
208 228 255
208 228 255
208 228 255
208 228 255
208 228 255
208 228 255
208 228 255
208 228 255
208 228 255
208 228 255
208 228 255
207 228 255
207 228 255
207 228 255
207 228 255
207 228 255
207 228 255
207 228 255
207 228 255
207 228 255
207 228 255
207 228 255
207 228 255
207 228 255
207 228 255
207 228 255
207 228 255
207 228 255
207 228 255
207 228 255
207 228 255
207 228 255
207 228 255
207 228 255
207 228 255
207 228 255
207 228 255
207 228 255
207 228 255
207 228 255
207 228 255
207 228 255
207 228 255
207 228 255
208 228 255
208 228 255
208 228 255
208 228 255
208 228 255
208 228 255
208 228 255
208 228 255
208 228 255
208 228 255
208 228 255
208 228 255
208 228 255
208 228 255
208 228 255
208 228 255
208 228 255
208 228 255
208 228 255
208 228 255
208 228 255
208 228 255
208 228 255
208 229 255
208 229 255
208 229 255
208 229 255
208 229 255
208 229 255
208 229 255
208 229 255
209 229 255
209 229 255
209 229 255
209 229 255
209 229 255
209 229 255
209 229 255
209 229 255
209 229 255
209 229 255
209 229 255
209 229 255
209 229 255
209 229 255
209 229 255
209 229 255
209 229 255
209 229 255
209 229 255
209 229 255
209 229 255
209 229 255
210 229 255
210 229 255
210 229 255
210 229 255
210 229 255
210 229 255
210 229 255
210 229 255
210 229 255
210 230 255
210 230 255
210 230 255
210 230 255
210 230 255
210 230 255
210 230 255
210 230 255
210 230 255
210 230 255
211 230 255
211 230 255
211 230 255
211 230 255
211 230 255
211 230 255
211 230 255
211 230 255
211 230 255
211 230 255
211 230 255
211 230 255
211 230 255
211 230 255
211 230 255
211 230 255
211 230 255
211 230 255
211 230 255
211 230 255
212 230 255
207 225 248
190 205 222
177 186 185
149 149 121
139 138 96
141 140 97
143 141 98
149 147 102
143 141 98
145 145 101
141 140 97
142 140 97
144 143 99
146 145 101
147 145 101
143 141 98
148 146 101
156 155 108
136 134 93
139 138 96
147 145 101
152 151 105
157 155 108
148 146 101
145 143 99
158 157 109
143 142 99
150 148 103
134 132 92
145 143 99
147 146 101
142 141 97
145 143 99
148 146 101
153 151 105
151 150 104
146 144 99
146 143 99
155 153 106
147 146 101
149 146 101
156 155 108
147 145 101
158 156 108
155 152 104
146 144 99
145 144 100
145 143 98
150 148 103
154 152 106
142 140 96
146 145 99
155 153 105
145 142 98
144 142 97
148 146 100
148 145 99
158 155 106
152 149 102
151 148 100
139 137 94
152 149 101
159 155 105
143 140 96
154 151 101
152 150 102
140 138 93
147 144 99
141 137 93
142 138 94
135 131 89
150 146 97
138 135 91
148 144 96
142 139 95
145 141 94
151 154 139
165 170 163
189 201 211
209 224 245
215 232 255
215 232 255
215 232 255
215 232 255
215 232 255
215 232 255
215 232 255
215 232 255
215 232 255
215 232 255
215 232 255
215 232 255
215 232 255
215 232 255
215 232 255
215 232 255
215 232 255
215 232 255
215 232 254
213 231 251
215 232 255
214 231 251
214 231 252
213 231 253
213 230 250
214 232 254
213 231 252
211 230 253
213 231 254
213 231 253
212 231 254
212 231 255
212 230 255
211 230 253
211 230 255
210 229 255
211 230 255
209 229 255
209 229 255
209 229 255
208 229 255
209 229 255
208 229 255
208 229 255
208 228 255
207 228 255
207 228 255
207 228 255
206 227 255
207 228 255
206 227 255
206 227 255
205 227 255
205 227 255
206 227 255
204 226 255
203 226 255
204 226 254
204 226 255
204 226 255
203 226 255
203 226 255
203 226 255
203 226 254
202 225 255
203 226 255
202 225 254
203 226 255
202 225 255
202 225 255
202 225 255
203 225 254
201 224 253
203 226 255
203 226 255
202 225 255
203 226 255
203 226 255
203 226 255
203 226 255
203 226 255
203 226 255
204 226 255
203 226 255
204 226 255
203 226 255
205 227 255
205 227 255
206 227 255
205 227 255
207 228 255
208 228 255
209 229 254
207 228 253
209 229 254
208 228 251
209 228 252
210 229 254
211 230 253
210 229 250
213 231 255
213 231 255
212 230 255
212 230 255
212 230 255
211 230 255
211 230 255
211 230 255
211 230 255
211 230 255
211 230 255
211 230 255
211 230 255
211 230 255
211 230 255
211 230 255
211 230 255
211 230 255
211 230 255
211 230 255
211 230 255
211 230 255
211 230 255
211 230 255
211 230 255
210 230 255
210 230 255
210 230 255
210 230 255
210 230 255
210 230 255
210 230 255
210 230 255
210 230 255
210 230 255
210 229 255
210 229 255
210 229 255
210 229 255
210 229 255
210 229 255
210 229 255
210 229 255
210 229 255
210 229 255
209 229 255
209 229 255
209 229 255
209 229 255
209 229 255
209 229 255
209 229 255
209 229 255
209 229 255
209 229 255
209 229 255
209 229 255
209 229 255
209 229 255
209 229 255
209 229 255
209 229 255
209 229 255
209 229 255
209 229 255
209 229 255
209 229 255
208 229 255
208 229 255
208 229 255
208 229 255
208 229 255
208 229 255
208 229 255
208 229 255
208 229 255
208 229 255
208 228 255
208 228 255
208 228 255
208 228 255
208 228 255
208 228 255
208 228 255
208 228 255
208 228 255
208 228 255
208 228 255
208 228 255
208 228 255
208 228 255
208 228 255
208 228 255
208 228 255
208 228 255
208 228 255
208 228 255
208 228 255
208 228 255
208 228 255
208 228 255
208 228 255
208 228 255
208 228 255
208 228 255
208 228 255
208 228 255
208 228 255
208 228 255
208 228 255
208 228 255
208 228 255
208 228 255
208 228 255
208 228 255
208 228 255
208 228 255
208 228 255
208 228 255
208 228 255
208 228 255
208 228 255
208 228 255
208 228 255
208 228 255
208 228 255
208 228 255
208 228 255
208 228 255
208 228 255
208 228 255
208 228 255
208 228 255
208 228 255
208 228 255
208 228 255
208 228 255
208 228 255
208 228 255
208 228 255
208 228 255
208 228 255
208 229 255
208 229 255
208 229 255
208 229 255
208 229 255
208 229 255
208 229 255
208 229 255
208 229 255
208 229 255
208 229 255
209 229 255
209 229 255
209 229 255
209 229 255
209 229 255
209 229 255
209 229 255
209 229 255
209 229 255
209 229 255
209 229 255
209 229 255
209 229 255
209 229 255
209 229 255
209 229 255
209 229 255
209 229 255
209 229 255
209 229 255
209 229 255
209 229 255
210 229 255
210 229 255
210 229 255
210 229 255
210 229 255
210 229 255
210 229 255
210 229 255
210 229 255
210 229 255
210 230 255
210 230 255
210 230 255
210 230 255
210 230 255
210 230 255
210 230 255
210 230 255
210 230 255
210 230 255
211 230 255
211 230 255
211 230 255
211 230 255
211 230 255
211 230 255
211 230 255
211 230 255
211 230 255
211 230 255
211 230 255
211 230 255
211 230 255
211 230 255
211 230 255
211 230 255
211 230 255
211 230 255
211 230 255
211 230 255
212 230 255
212 230 255
200 216 236
178 189 196
149 152 135
148 146 101
137 134 93
147 146 101
149 148 103
146 144 100
142 140 97
142 141 98
144 143 99
136 135 94
137 135 93
144 142 99
148 147 103
153 151 105
152 151 105
144 143 99
149 147 102
149 148 103
151 149 104
152 151 105
150 149 104
151 149 104
140 139 97
155 153 106
153 151 104
151 149 104
151 150 104
148 146 101
141 139 96
154 153 106
151 149 103
156 154 107
145 143 99
152 151 105
146 144 100
153 152 105
155 153 106
155 152 104
154 153 106
153 151 105
162 159 109
143 142 99
156 154 106
156 153 105
153 150 103
149 146 100
151 149 102
153 151 104
147 145 100
160 157 109
146 144 99
150 147 100
139 138 95
152 150 104
146 144 99
126 123 84
152 149 102
151 149 101
153 151 104
151 148 101
149 146 99
151 148 101
142 139 96
153 150 103
150 147 99
151 147 99
157 154 105
139 137 93
144 142 93
143 140 94
150 147 100
142 139 95
136 134 89
139 136 93
146 143 97
142 139 93
143 140 95
144 140 94
133 130 88
129 126 83
146 142 94
151 156 146
186 196 202
204 218 234
215 232 255
215 232 255
215 232 255
215 232 255
215 232 255
215 232 255
215 232 255
216 233 255
216 233 255
216 232 255
215 232 255
215 232 255
215 232 255
214 232 252
214 232 253
214 231 253
215 232 255
214 232 253
213 231 251
213 231 253
213 231 252
212 230 252
213 231 255
211 230 254
213 231 255
212 230 255
211 230 255
211 230 255
211 230 255
211 230 255
210 230 255
209 229 255
209 229 255
209 229 255
208 228 255
209 229 255
207 228 254
208 228 255
207 228 255
207 228 255
206 227 255
206 227 255
206 227 255
205 227 254
205 227 254
205 227 255
204 226 255
204 226 255
204 226 255
204 226 255
204 226 255
202 225 255
203 226 255
203 226 255
203 226 255
202 225 255
202 225 255
202 225 255
202 225 255
201 225 255
201 225 255
201 225 255
201 225 255
201 225 255
201 225 255
201 225 255
201 224 255
201 225 255
200 224 255
201 225 255
201 225 255
201 225 255
201 224 255
200 224 255
201 225 255
200 224 255
200 224 255
200 224 255
201 225 255
201 225 254
202 225 255
202 225 255
202 225 255
202 225 255
203 226 255
203 226 255
203 226 255
203 226 255
204 227 255
205 227 255
205 227 255
207 228 255
207 228 255
208 229 255
206 227 254
208 228 255
210 230 254
210 229 252
210 230 254
211 229 252
211 230 251
212 230 255
212 231 255
212 230 255
212 230 255
212 230 255
211 230 255
211 230 255
211 230 255
211 230 255
211 230 255
211 230 255
211 230 255
211 230 255
211 230 255
211 230 255
211 230 255
211 230 255
211 230 255
211 230 255
211 230 255
211 230 255
211 230 255
211 230 255
211 230 255
211 230 255
210 230 255
210 230 255
210 230 255
210 230 255
210 230 255
210 230 255
210 230 255
210 230 255
210 230 255
210 230 255
210 229 255
210 229 255
210 229 255
210 229 255
210 229 255
210 229 255
210 229 255
210 229 255
210 229 255
210 229 255
209 229 255
209 229 255
209 229 255
209 229 255
209 229 255
209 229 255
209 229 255
209 229 255
209 229 255
209 229 255
209 229 255
209 229 255
209 229 255
209 229 255
209 229 255
209 229 255
209 229 255
209 229 255
209 229 255
209 229 255
209 229 255
209 229 255
209 229 255
209 229 255
208 229 255
208 229 255
208 229 255
208 229 255
208 229 255
208 229 255
208 229 255
208 229 255
208 229 255
208 229 255
208 229 255
208 229 255
208 228 255
208 228 255
208 228 255
208 228 255
208 228 255
208 228 255
208 228 255
208 228 255
208 228 255
208 228 255
208 228 255
208 228 255
208 228 255
208 228 255
208 228 255
208 228 255
208 228 255
208 228 255
208 228 255
208 228 255
208 228 255
208 228 255
208 228 255
208 228 255
208 228 255
208 228 255
208 228 255
208 228 255
208 228 255
208 228 255
208 228 255
208 228 255
208 228 255
208 228 255
208 228 255
208 228 255
208 228 255
208 228 255
208 228 255
208 228 255
208 228 255
208 228 255
208 228 255
208 228 255
208 228 255
208 228 255
208 228 255
208 228 255
208 228 255
208 228 255
208 229 255
208 229 255
208 229 255
208 229 255
208 229 255
208 229 255
208 229 255
208 229 255
208 229 255
208 229 255
208 229 255
208 229 255
209 229 255
209 229 255
209 229 255
209 229 255
209 229 255
209 229 255
209 229 255
209 229 255
209 229 255
209 229 255
209 229 255
209 229 255
209 229 255
209 229 255
209 229 255
209 229 255
209 229 255
209 229 255
209 229 255
209 229 255
209 229 255
209 229 255
209 229 255
209 229 255
210 229 255
210 229 255
210 229 255
210 229 255
210 229 255
210 229 255
210 229 255
210 229 255
210 229 255
210 229 255
210 230 255
210 230 255
210 230 255
210 230 255
210 230 255
210 230 255
210 230 255
210 230 255
210 230 255
210 230 255
211 230 255
211 230 255
211 230 255
211 230 255
211 230 255
211 230 255
211 230 255
211 230 255
211 230 255
211 230 255
211 230 255
211 230 255
211 230 255
211 230 255
211 230 255
211 230 255
211 230 255
211 230 255
211 230 255
211 230 255
212 230 255
212 230 255
211 230 255
190 205 222
175 185 187
155 157 131
137 136 94
139 138 96
138 137 95
137 135 93
146 145 101
147 145 101
134 133 93
144 143 99
149 148 103
145 144 100
137 136 94
152 150 104
151 150 104
153 152 106
141 140 97
154 153 106
144 143 99
144 143 100
145 145 101
150 148 103
147 146 102
146 145 101
155 154 107
148 146 101
153 151 105
139 138 96
159 157 110
153 152 106
155 154 107
153 151 105
152 150 104
158 155 107
150 149 104
155 153 106
150 149 104
153 151 104
151 149 104
144 141 98
153 151 104
155 153 105
139 138 96
154 153 106
158 155 105
151 149 101
155 152 104
143 141 97
147 145 99
154 152 105
154 152 105
151 149 102
149 146 100
149 147 101
152 150 104
141 139 95
148 146 101
149 146 100
150 148 102
154 151 103
152 149 101
153 151 102
157 153 104
148 146 101
141 139 94
156 153 105
154 151 104
153 150 100
159 156 106
159 155 105
150 147 101
141 137 93
146 143 98
150 148 102
150 145 96
154 151 101
148 144 96
155 151 101
145 141 94
146 143 96
141 138 91
143 141 93
142 139 93
147 143 93
144 140 93
138 135 91
149 146 93
146 142 94
159 158 127
181 189 187
200 214 230
215 232 255
216 232 255
216 233 255
216 233 255
216 233 255
216 233 255
216 233 255
217 233 254
215 232 253
215 232 253
214 232 253
213 231 253
213 231 254
214 232 255
212 231 254
213 231 254
212 230 254
213 231 255
212 231 255
212 230 255
211 230 255
211 230 255
211 230 255
211 230 255
211 230 255
210 229 255
209 229 255
208 228 254
209 229 255
208 229 255
208 228 255
207 228 255
207 228 255
206 228 255
206 228 255
206 227 255
205 227 255
206 227 255
204 226 255
205 227 255
204 226 255
204 226 255
204 226 255
203 226 255
203 226 255
202 225 255
202 225 255
202 225 255
202 225 255
201 225 255
201 225 255
201 225 255
201 225 255
201 225 255
201 225 255
201 225 255
201 224 255
200 224 255
200 224 255
200 224 255
200 224 255
200 224 255
199 224 255
199 224 255
199 224 255
199 224 255
199 224 255
199 224 255
199 224 255
199 223 255
199 224 255
199 224 255
199 224 255
199 224 255
200 224 255
199 224 255
199 224 255
200 224 255
200 224 255
200 224 255
200 224 255
201 225 255
200 224 255
202 225 255
202 225 255
202 225 255
202 225 255
204 226 255
203 226 255
204 226 255
205 227 255
205 227 255
205 227 254
205 227 255
207 228 255
207 228 255
209 229 253
208 228 250
212 230 255
210 229 252
213 231 254
212 231 255
211 230 255
212 230 255
212 230 255
212 230 255
212 230 255
211 230 255
211 230 255
211 230 255
211 230 255
211 230 255
211 230 255
211 230 255
211 230 255
211 230 255
211 230 255
211 230 255
211 230 255
211 230 255
211 230 255
211 230 255
211 230 255
211 230 255
211 230 255
211 230 255
211 230 255
210 230 255
210 230 255
210 230 255
210 230 255
210 230 255
210 230 255
210 230 255
210 230 255
210 230 255
210 230 255
210 229 255
210 229 255
210 229 255
210 229 255
210 229 255
210 229 255
210 229 255
210 229 255
210 229 255
210 229 255
210 229 255
209 229 255
209 229 255
209 229 255
209 229 255
209 229 255
209 229 255
209 229 255
209 229 255
209 229 255
209 229 255
209 229 255
209 229 255
209 229 255
209 229 255
209 229 255
209 229 255
209 229 255
209 229 255
209 229 255
209 229 255
209 229 255
209 229 255
209 229 255
209 229 255
209 229 255
209 229 255
208 229 255
208 229 255
208 229 255
208 229 255
208 229 255
208 229 255
208 229 255
208 229 255
208 229 255
208 229 255
208 229 255
208 229 255
208 229 255
208 229 255
208 229 255
208 229 255
208 229 255
208 228 255
208 228 255
208 228 255
208 228 255
208 228 255
208 228 255
208 228 255
208 228 255
208 228 255
208 228 255
208 228 255
208 228 255
208 228 255
208 228 255
208 228 255
208 228 255
208 228 255
208 228 255
208 228 255
208 228 255
208 228 255
208 228 255
208 228 255
208 228 255
208 228 255
208 228 255
208 229 255
208 229 255
208 229 255
208 229 255
208 229 255
208 229 255
208 229 255
208 229 255
208 229 255
208 229 255
208 229 255
208 229 255
208 229 255
208 229 255
208 229 255
208 229 255
208 229 255
209 229 255
209 229 255
209 229 255
209 229 255
209 229 255
209 229 255
209 229 255
209 229 255
209 229 255
209 229 255
209 229 255
209 229 255
209 229 255
209 229 255
209 229 255
209 229 255
209 229 255
209 229 255
209 229 255
209 229 255
209 229 255
209 229 255
209 229 255
209 229 255
209 229 255
209 229 255
210 229 255
210 229 255
210 229 255
210 229 255
210 229 255
210 229 255
210 229 255
210 229 255
210 229 255
210 229 255
210 229 255
210 230 255
210 230 255
210 230 255
210 230 255
210 230 255
210 230 255
210 230 255
210 230 255
210 230 255
210 230 255
211 230 255
211 230 255
211 230 255
211 230 255
211 230 255
211 230 255
211 230 255
211 230 255
211 230 255
211 230 255
211 230 255
211 230 255
211 230 255
211 230 255
211 230 255
211 230 255
211 230 255
211 230 255
211 230 255
211 230 255
212 230 255
212 230 255
212 230 255
212 230 255
201 217 235
184 196 205
149 150 122
137 135 94
143 141 97
144 143 99
133 132 92
147 146 101
143 142 99
151 149 103
143 142 99
153 152 106
137 136 94
145 144 100
157 155 108
145 144 100
153 152 106
146 145 101
150 149 104
151 149 104
147 147 102
157 156 109
151 150 104
151 150 104
143 142 99
161 159 111
152 150 104
147 145 101
146 145 101
147 147 102
160 158 110
153 151 105
155 154 107
159 157 109
161 160 111
152 151 105
154 152 106
155 153 106
157 155 108
156 154 107
149 147 102
152 150 104
156 155 108
159 157 109
143 141 98
151 149 103
159 158 110
154 153 105
152 150 104
160 158 109
155 153 106
148 146 101
157 155 106
153 151 103
159 156 108
156 153 106
155 152 104
153 150 103
161 158 109
154 151 104
158 155 107
157 155 107
161 159 110
158 155 106
153 150 103
149 146 101
143 141 96
153 151 104
142 139 94
156 154 105
153 150 102
145 142 97
147 144 99
151 148 101
146 143 98
144 141 94
153 150 101
147 144 96
159 155 104
152 147 100
151 148 100
145 141 95
147 144 96
157 154 105
147 144 96
147 142 94
145 142 96
134 132 86
131 127 83
143 139 91
152 148 99
147 143 93
142 138 93
141 136 89
142 138 92
151 151 127
176 185 186
204 218 234
216 233 255
216 233 255
215 232 254
215 232 253
215 232 251
214 231 253
214 231 252
213 231 253
214 231 253
213 231 254
214 232 255
213 231 255
213 231 255
212 231 254
211 230 255
211 230 255
212 231 255
210 230 255
210 229 255
209 229 255
209 229 255
209 229 254
208 229 255
209 229 254
207 228 255
208 228 255
207 228 255
206 228 255
207 228 255
205 227 255
205 227 255
205 227 255
205 227 255
205 227 255
205 227 255
204 226 255
204 226 255
203 226 255
203 226 255
203 226 255
202 225 255
202 225 255
202 225 255
201 225 255
200 224 255
200 224 255
201 225 255
200 224 255
200 224 255
200 224 255
199 224 255
199 224 255
199 224 255
199 224 255
199 224 255
199 224 255
199 224 255
198 223 255
198 223 255
198 223 255
198 223 255
198 223 255
198 223 255
197 223 255
197 223 255
198 223 255
197 223 255
197 223 254
197 223 255
198 223 255
197 223 255
197 223 255
197 223 255
197 223 255
198 223 255
198 223 255
197 223 255
198 223 255
199 224 255
199 224 255
198 223 255
199 224 255
199 224 255
199 224 255
200 224 255
200 224 255
202 225 255
201 225 254
203 226 255
204 226 255
204 226 255
204 226 255
206 227 255
207 228 255
207 228 254
207 228 253
209 229 255
208 228 253
211 230 253
210 229 253
213 231 255
213 231 255
212 230 255
212 230 255
212 230 255
212 230 255
212 230 255
212 230 255
211 230 255
211 230 255
211 230 255
211 230 255
211 230 255
211 230 255
211 230 255
211 230 255
211 230 255
211 230 255
211 230 255
211 230 255
211 230 255
211 230 255
211 230 255
211 230 255
211 230 255
211 230 255
211 230 255
211 230 255
210 230 255
210 230 255
210 230 255
210 230 255
210 230 255
210 230 255
210 230 255
210 230 255
210 230 255
210 230 255
210 230 255
210 229 255
210 229 255
210 229 255
210 229 255
210 229 255
210 229 255
210 229 255
210 229 255
210 229 255
210 229 255
210 229 255
209 229 255
209 229 255
209 229 255
209 229 255
209 229 255
209 229 255
209 229 255
209 229 255
209 229 255
209 229 255
209 229 255
209 229 255
209 229 255
209 229 255
209 229 255
209 229 255
209 229 255
209 229 255
209 229 255
209 229 255
209 229 255
209 229 255
209 229 255
209 229 255
209 229 255
209 229 255
209 229 255
209 229 255
209 229 255
209 229 255
209 229 255
208 229 255
208 229 255
208 229 255
208 229 255
208 229 255
208 229 255
208 229 255
208 229 255
208 229 255
208 229 255
208 229 255
208 229 255
208 229 255
208 229 255
208 229 255
208 229 255
208 229 255
208 229 255
208 229 255
208 229 255
208 229 255
208 229 255
208 229 255
208 229 255
208 229 255
208 229 255
208 229 255
208 229 255
208 229 255
208 229 255
208 229 255
208 229 255
208 229 255
208 229 255
208 229 255
208 229 255
208 229 255
208 229 255
208 229 255
208 229 255
209 229 255
209 229 255
209 229 255
209 229 255
209 229 255
209 229 255
209 229 255
209 229 255
209 229 255
209 229 255
209 229 255
209 229 255
209 229 255
209 229 255
209 229 255
209 229 255
209 229 255
209 229 255
209 229 255
209 229 255
209 229 255
209 229 255
209 229 255
209 229 255
209 229 255
209 229 255
209 229 255
209 229 255
209 229 255
209 229 255
209 229 255
210 229 255
210 229 255
210 229 255
210 229 255
210 229 255
210 229 255
210 229 255
210 229 255
210 229 255
210 229 255
210 229 255
210 230 255
210 230 255
210 230 255
210 230 255
210 230 255
210 230 255
210 230 255
210 230 255
210 230 255
210 230 255
210 230 255
211 230 255
211 230 255
211 230 255
211 230 255
211 230 255
211 230 255
211 230 255
211 230 255
211 230 255
211 230 255
211 230 255
211 230 255
211 230 255
211 230 255
211 230 255
211 230 255
211 230 255
211 230 255
211 230 255
211 230 255
212 230 255
212 230 255
212 230 255
212 230 255
212 230 255
210 228 252
186 197 205
158 163 151
136 133 92
140 138 96
143 141 97
134 132 92
141 140 97
153 152 106
131 130 90
141 140 97
154 153 106
147 146 101
154 153 106
149 149 104
150 150 104
155 153 106
149 149 104
157 156 108
149 148 103
159 158 110
145 144 100
152 150 104
147 146 101
158 157 110
160 158 110
152 150 104
158 157 109
155 154 107
159 157 110
150 149 104
160 159 111
158 157 109
153 152 106
146 144 100
150 148 102
159 157 109
150 148 102
155 153 105
156 154 107
148 146 101
159 157 110
150 148 103
157 154 107
157 156 108
157 155 108
149 147 101
146 144 99
157 155 107
162 160 111
163 161 111
149 147 101
155 152 105
154 152 104
154 152 105
148 145 100
156 153 106
160 158 108
151 149 104
156 154 105
163 160 111
161 159 110
158 155 107
149 147 101
151 148 101
149 145 100
152 150 103
159 156 108
164 160 108
155 152 105
151 149 101
149 145 99
150 147 99
146 144 99
154 151 102
151 149 101
153 150 103
152 149 101
156 152 102
146 143 96
151 148 101
145 143 96
152 149 100
149 145 98
147 144 99
146 142 96
151 148 99
153 151 103
151 147 100
147 142 93
136 134 90
143 141 95
154 150 99
152 149 101
144 140 96
147 144 98
137 135 93
137 135 91
139 134 89
146 143 96
143 139 91
161 164 151
215 232 252
215 232 254
214 232 253
213 231 255
214 232 255
214 231 253
214 231 255
213 231 255
213 231 255
213 231 255
212 231 255
211 230 255
211 230 255
210 230 255
209 229 255
210 230 255
209 229 255
209 229 255
209 229 255
208 228 255
208 228 254
208 228 255
208 228 255
207 228 254
207 228 255
206 227 255
206 227 255
205 227 255
205 227 255
205 227 255
204 226 255
204 226 255
204 226 255
203 226 255
203 226 255
202 225 255
202 225 255
202 225 255
202 225 255
202 225 255
201 225 255
200 224 255
200 224 255
200 224 255
200 224 255
199 224 255
199 223 255
199 224 255
198 223 255
198 223 255
198 223 255
198 223 255
197 223 255
197 223 255
198 223 255
197 222 255
196 222 255
197 223 255
197 223 255
197 222 255
196 222 255
196 222 255
196 222 255
197 222 255
196 222 255
196 222 255
196 222 255
196 222 255
196 222 255
196 222 255
196 222 255
196 222 255
196 222 255
196 222 255
196 222 255
196 222 255
196 222 255
197 223 255
197 222 255
197 223 255
198 223 255
198 223 255
198 223 255
198 223 255
199 224 255
199 224 255
200 224 255
200 224 255
201 225 255
201 225 255
202 225 255
203 226 255
204 226 255
204 227 255
206 227 255
206 227 255
208 228 255
208 228 255
209 229 254
209 229 252
209 229 252
212 231 255
211 230 254
212 231 255
212 230 255
212 230 255
212 230 255
212 230 255
212 230 255
212 230 255
212 230 255
211 230 255
211 230 255
211 230 255
211 230 255
211 230 255
211 230 255
211 230 255
211 230 255
211 230 255
211 230 255
211 230 255
211 230 255
211 230 255
211 230 255
211 230 255
211 230 255
211 230 255
211 230 255
211 230 255
211 230 255
211 230 255
210 230 255
210 230 255
210 230 255
210 230 255
210 230 255
210 230 255
210 230 255
210 230 255
210 230 255
210 230 255
210 230 255
210 229 255
210 229 255
210 229 255
210 229 255
210 229 255
210 229 255
210 229 255
210 229 255
210 229 255
210 229 255
210 229 255
210 229 255
209 229 255
209 229 255
209 229 255
209 229 255
209 229 255
209 229 255
209 229 255
209 229 255
209 229 255
209 229 255
209 229 255
209 229 255
209 229 255
209 229 255
209 229 255
209 229 255
209 229 255
209 229 255
209 229 255
209 229 255
209 229 255
209 229 255
209 229 255
209 229 255
209 229 255
209 229 255
209 229 255
209 229 255
209 229 255
209 229 255
209 229 255
209 229 255
209 229 255
209 229 255
209 229 255
209 229 255
209 229 255
209 229 255
209 229 255
209 229 255
209 229 255
209 229 255
209 229 255
209 229 255
209 229 255
209 229 255
209 229 255
209 229 255
209 229 255
209 229 255
209 229 255
209 229 255
209 229 255
209 229 255
209 229 255
209 229 255
209 229 255
209 229 255
209 229 255
209 229 255
209 229 255
209 229 255
209 229 255
209 229 255
209 229 255
209 229 255
209 229 255
209 229 255
209 229 255
209 229 255
209 229 255
209 229 255
209 229 255
209 229 255
209 229 255
209 229 255
209 229 255
209 229 255
209 229 255
209 229 255
209 229 255
209 229 255
209 229 255
209 229 255
209 229 255
209 229 255
209 229 255
209 229 255
209 229 255
209 229 255
210 229 255
210 229 255
210 229 255
210 229 255
210 229 255
210 229 255
210 229 255
210 229 255
210 229 255
210 229 255
210 229 255
210 229 255
210 230 255
210 230 255
210 230 255
210 230 255
210 230 255
210 230 255
210 230 255
210 230 255
210 230 255
210 230 255
210 230 255
211 230 255
211 230 255
211 230 255
211 230 255
211 230 255
211 230 255
211 230 255
211 230 255
211 230 255
211 230 255
211 230 255
211 230 255
211 230 255
211 230 255
211 230 255
211 230 255
211 230 255
211 230 255
211 230 255
211 230 255
211 230 255
212 230 255
212 230 255
212 230 255
212 230 255
212 230 255
212 230 255
212 230 255
200 215 232
169 176 171
141 141 106
149 147 102
140 138 96
136 135 93
145 144 101
149 147 102
143 142 99
150 150 104
141 140 97
147 146 101
151 150 105
144 142 99
150 148 103
148 147 102
150 148 103
156 156 109
149 147 102
152 151 105
155 154 107
147 146 102
147 146 102
154 153 106
157 156 108
155 154 107
148 147 102
147 146 101
157 156 109
150 149 104
156 154 107
155 154 107
160 159 110
157 156 108
164 162 113
157 156 108
156 155 108
154 152 105
157 155 107
158 156 108
156 154 107
156 154 106
161 159 110
156 155 108
153 151 104
157 155 108
156 153 105
152 149 103
151 148 102
161 159 110
151 149 103
152 149 103
157 155 107
154 152 105
155 153 106
151 149 104
152 150 103
153 151 104
155 153 106
152 149 103
154 152 104
144 140 96
160 158 110
153 151 104
154 152 104
159 156 108
152 149 101
154 151 101
155 152 104
151 148 101
156 153 104
155 151 103
159 156 106
150 148 101
156 152 103
159 156 106
150 147 99
158 155 107
156 153 105
153 150 101
138 135 93
154 151 100
154 151 102
147 144 96
152 148 99
145 142 97
151 147 96
149 145 99
150 146 99
148 145 95
150 146 96
145 143 96
140 137 91
152 149 100
145 142 96
146 143 96
149 146 96
148 143 95
146 142 95
140 136 90
143 140 93
134 131 86
132 129 87
133 130 86
214 231 252
213 231 254
214 231 254
214 232 255
214 232 255
214 232 255
212 231 255
212 231 255
212 231 255
211 230 255
211 230 255
210 230 255
210 229 255
210 229 255
210 229 255
209 229 255
209 229 255
208 228 255
208 228 255
208 228 255
207 228 255
207 228 255
206 228 255
206 227 254
206 227 255
205 227 255
205 227 255
205 227 255
204 226 255
204 226 255
203 226 255
204 226 255
203 226 255
202 225 255
202 225 255
202 225 255
201 225 255
201 224 255
201 224 255
200 224 255
200 224 255
200 224 255
199 224 255
199 224 255
199 224 255
199 223 255
198 223 255
198 223 255
198 223 255
197 223 255
198 223 255
197 223 255
197 223 255
197 222 255
197 223 255
196 222 255
196 222 255
196 222 255
195 222 255
195 222 255
196 222 255
195 222 255
195 221 255
195 221 255
195 222 255
195 222 255
195 221 255
195 221 255
195 221 255
194 221 255
195 221 255
194 221 255
195 221 255
195 221 255
195 222 255
195 222 255
195 222 255
195 222 255
196 222 255
195 222 255
196 222 255
197 222 255
197 223 255
197 223 255
196 222 255
198 223 255
197 223 255
199 223 255
199 223 255
200 224 255
200 224 255
201 225 255
201 225 255
203 226 255
203 225 254
204 227 255
205 227 254
205 227 255
207 228 255
207 228 255
209 229 255
208 228 254
210 229 252
212 231 255
212 230 254
211 230 255
212 231 255
212 231 255
212 230 255
212 230 255
212 230 255
212 230 255
212 230 255
212 230 255
212 230 255
212 230 255
211 230 255
211 230 255
211 230 255
211 230 255
211 230 255
211 230 255
211 230 255
211 230 255
211 230 255
211 230 255
211 230 255
211 230 255
211 230 255
211 230 255
211 230 255
211 230 255
211 230 255
211 230 255
211 230 255
211 230 255
211 230 255
210 230 255
210 230 255
210 230 255
210 230 255
210 230 255
210 230 255
210 230 255
210 230 255
210 230 255
210 230 255
210 230 255
210 229 255
210 229 255
210 229 255
210 229 255
210 229 255
210 229 255
210 229 255
210 229 255
210 229 255
210 229 255
210 229 255
210 229 255
210 229 255
209 229 255
209 229 255
209 229 255
209 229 255
209 229 255
209 229 255
209 229 255
209 229 255
209 229 255
209 229 255
209 229 255
209 229 255
209 229 255
209 229 255
209 229 255
209 229 255
209 229 255
209 229 255
209 229 255
209 229 255
209 229 255
209 229 255
209 229 255
209 229 255
209 229 255
209 229 255
209 229 255
209 229 255
209 229 255
209 229 255
209 229 255
209 229 255
209 229 255
209 229 255
209 229 255
209 229 255
209 229 255
209 229 255
209 229 255
209 229 255
209 229 255
209 229 255
209 229 255
209 229 255
209 229 255
209 229 255
209 229 255
209 229 255
209 229 255
209 229 255
209 229 255
209 229 255
209 229 255
209 229 255
209 229 255
209 229 255
209 229 255
209 229 255
209 229 255
209 229 255
209 229 255
209 229 255
209 229 255
209 229 255
209 229 255
209 229 255
209 229 255
209 229 255
209 229 255
209 229 255
209 229 255
209 229 255
209 229 255
209 229 255
209 229 255
209 229 255
209 229 255
209 229 255
210 229 255
210 229 255
210 229 255
210 229 255
210 229 255
210 229 255
210 229 255
210 229 255
210 229 255
210 229 255
210 229 255
210 229 255
210 229 255
210 230 255
210 230 255
210 230 255
210 230 255
210 230 255
210 230 255
210 230 255
210 230 255
210 230 255
210 230 255
210 230 255
210 230 255
211 230 255
211 230 255
211 230 255
211 230 255
211 230 255
211 230 255
211 230 255
211 230 255
211 230 255
211 230 255
211 230 255
211 230 255
211 230 255
211 230 255
211 230 255
211 230 255
211 230 255
211 230 255
211 230 255
211 230 255
211 230 255
212 230 255
212 230 255
212 230 255
212 230 255
212 230 255
212 230 255
212 230 255
212 231 255
212 230 255
191 204 216
157 160 142
143 141 97
141 139 96
143 141 98
147 146 101
150 149 104
148 147 102
148 147 102
145 143 99
149 148 103
144 143 100
150 148 103
143 143 99
161 159 111
150 149 104
153 151 105
143 142 99
148 147 102
149 148 103
158 157 110
150 150 104
157 156 108
154 153 106
155 153 106
154 153 106
151 150 104
147 146 101
153 152 106
156 155 108
156 155 108
159 157 109
145 143 99
153 152 106
161 159 111
162 160 111
157 155 108
162 160 111
154 152 105
158 157 109
160 160 111
161 161 112
155 153 106
159 157 108
158 155 107
154 152 106
153 151 104
154 152 106
155 153 106
160 158 110
164 161 110
161 159 110
151 149 103
150 149 103
162 160 110
161 159 110
161 159 110
163 160 110
155 153 104
152 150 104
163 161 110
158 156 108
158 156 108
157 155 106
157 154 105
161 157 107
149 147 101
155 153 105
158 155 106
156 154 106
154 151 104
153 151 104
154 151 104
152 150 101
154 151 103
156 154 104
152 150 102
154 151 100
153 151 103
152 151 103
158 154 103
153 151 101
148 145 99
153 149 101
150 146 96
153 150 103
154 150 100
156 153 104
152 149 101
151 147 99
155 152 100
156 152 101
151 146 97
146 142 95
163 159 110
143 140 93
141 138 93
143 141 96
151 147 98
158 153 99
142 139 94
146 141 93
145 140 93
149 145 96
141 138 92
144 140 93
214 232 253
214 232 255
214 232 255
214 232 255
213 231 255
213 231 255
212 231 255
212 230 255
211 230 255
211 230 255
210 229 254
210 230 255
209 229 255
209 229 255
209 229 255
208 229 255
208 228 255
207 228 255
207 228 255
206 228 255
206 228 255
206 228 255
205 227 255
205 227 255
205 227 255
204 227 255
204 226 255
204 226 255
203 226 255
203 226 255
203 226 255
202 225 255
202 225 255
202 225 255
201 225 255
201 225 255
200 224 255
200 224 255
199 224 255
199 224 255
199 224 255
199 223 255
199 224 255
198 223 255
198 223 255
198 223 255
197 223 255
197 223 255
197 223 255
197 222 255
196 222 255
196 222 255
196 222 255
196 222 255
195 222 255
195 222 255
195 221 255
195 222 255
194 221 255
194 221 255
194 221 255
194 221 255
194 221 255
194 221 255
194 221 255
194 221 255
193 221 255
194 221 255
193 221 255
193 221 255
193 221 255
193 221 255
193 221 255
193 221 255
193 221 255
193 221 255
194 221 255
194 221 255
194 221 255
194 221 255
194 221 255
195 222 255
195 221 255
195 221 255
195 222 255
195 222 255
195 222 255
196 222 255
197 223 255
197 223 255
198 223 255
199 224 255
199 224 254
199 224 255
200 224 255
202 225 255
202 225 255
202 225 254
204 226 255
204 226 255
206 228 255
206 227 255
207 228 255
209 229 255
209 229 253
209 229 253
212 230 255
212 230 255
212 231 255
212 231 255
212 231 255
212 231 255
212 231 255
212 230 255
212 230 255
212 230 255
212 230 255
212 230 255
212 230 255
212 230 255
211 230 255
211 230 255
211 230 255
211 230 255
211 230 255
211 230 255
211 230 255
211 230 255
211 230 255
211 230 255
211 230 255
211 230 255
211 230 255
211 230 255
211 230 255
211 230 255
211 230 255
211 230 255
211 230 255
211 230 255
211 230 255
211 230 255
210 230 255
210 230 255
210 230 255
210 230 255
210 230 255
210 230 255
210 230 255
210 230 255
210 230 255
210 230 255
210 230 255
210 230 255
210 229 255
210 229 255
210 229 255
210 229 255
210 229 255
210 229 255
210 229 255
210 229 255
210 229 255
210 229 255
210 229 255
210 229 255
210 229 255
210 229 255
209 229 255
209 229 255
209 229 255
209 229 255
209 229 255
209 229 255
209 229 255
209 229 255
209 229 255
209 229 255
209 229 255
209 229 255
209 229 255
209 229 255
209 229 255
209 229 255
209 229 255
209 229 255
209 229 255
209 229 255
209 229 255
209 229 255
209 229 255
209 229 255
209 229 255
209 229 255
209 229 255
209 229 255
209 229 255
209 229 255
209 229 255
209 229 255
209 229 255
209 229 255
209 229 255
209 229 255
209 229 255
209 229 255
209 229 255
209 229 255
209 229 255
209 229 255
209 229 255
209 229 255
209 229 255
209 229 255
209 229 255
209 229 255
209 229 255
209 229 255
209 229 255
209 229 255
209 229 255
209 229 255
209 229 255
209 229 255
209 229 255
209 229 255
209 229 255
209 229 255
209 229 255
209 229 255
209 229 255
209 229 255
210 229 255
210 229 255
210 229 255
210 229 255
210 229 255
210 229 255
210 229 255
210 229 255
210 229 255
210 229 255
210 229 255
210 229 255
210 229 255
210 229 255
210 230 255
210 230 255
210 230 255
210 230 255
210 230 255
210 230 255
210 230 255
210 230 255
210 230 255
210 230 255
210 230 255
210 230 255
210 230 255
211 230 255
211 230 255
211 230 255
211 230 255
211 230 255
211 230 255
211 230 255
211 230 255
211 230 255
211 230 255
211 230 255
211 230 255
211 230 255
211 230 255
211 230 255
211 230 255
211 230 255
211 230 255
211 230 255
211 230 255
211 230 255
212 230 255
212 230 255
212 230 255
212 230 255
212 230 255
212 230 255
212 230 255
212 231 255
212 231 255
212 231 255
212 231 255
210 229 253
186 198 205
146 147 122
141 138 96
142 141 98
142 140 97
149 148 103
145 144 100
147 146 102
143 142 99
148 147 102
149 148 103
150 149 104
144 143 100
154 153 107
156 155 108
149 148 103
159 157 110
147 146 101
152 151 105
158 157 109
148 146 101
156 156 109
160 159 111
145 144 100
156 154 107
153 152 106
158 157 109
150 149 104
143 142 99
164 162 113
160 159 110
157 155 108
156 154 107
158 157 110
159 157 109
157 155 107
157 156 109
156 155 107
155 154 107
162 160 111
153 152 106
159 157 108
157 156 108
161 159 110
167 164 114
162 160 111
162 160 111
158 156 108
156 154 106
159 156 108
165 163 113
157 155 108
165 163 111
159 157 109
159 156 107
163 161 111
160 158 108
155 153 106
154 152 105
166 164 113
158 156 108
161 158 109
161 159 110
153 151 104
163 160 109
159 156 107
159 157 108
152 148 101
161 159 109
152 150 104
157 155 104
156 153 104
164 161 110
154 150 101
153 149 101
159 156 106
160 157 108
148 145 99
155 152 104
161 158 107
151 149 101
159 157 107
161 157 106
146 144 97
155 152 102
153 149 101
164 160 108
150 147 99
148 146 99
149 147 98
151 147 99
149 147 99
150 147 99
144 142 96
156 152 102
147 144 97
158 153 102
160 156 105
143 140 95
145 142 96
150 146 98
152 148 96
152 148 96
149 145 98
145 141 93
151 147 98
143 140 93
149 145 97
213 231 255
214 232 254
212 231 254
213 231 254
212 231 255
211 230 255
211 230 255
210 230 254
210 230 255
210 229 255
210 229 255
209 229 255
209 229 255
209 229 255
208 229 255
208 228 255
207 228 255
207 228 255
207 228 255
206 227 255
206 227 255
205 227 255
205 227 255
204 227 255
204 226 255
203 226 255
203 226 255
203 226 255
203 226 255
203 226 255
202 225 255
202 225 255
201 225 255
201 224 255
200 224 255
201 225 255
200 224 255
199 224 255
199 224 255
199 223 255
199 224 255
198 223 255
198 223 255
197 223 255
198 223 255
197 223 255
197 223 255
196 222 255
197 222 255
196 222 255
196 222 255
195 222 255
195 222 255
195 221 255
194 221 255
194 221 255
194 221 255
194 221 255
194 221 255
194 221 255
193 221 255
193 221 255
193 221 255
193 221 255
193 221 255
193 220 255
193 220 255
193 220 255
193 220 255
192 220 255
192 220 255
192 220 255
192 220 255
192 220 255
192 220 255
192 220 255
193 220 255
192 220 255
192 220 255
193 220 255
193 220 255
193 221 255
193 221 255
193 221 255
193 220 255
194 221 255
194 221 255
195 221 255
195 221 255
195 222 255
196 222 255
196 222 255
197 223 255
198 223 255
198 223 255
199 224 255
199 224 255
200 224 255
202 225 255
202 225 255
203 226 255
204 226 255
205 227 255
208 229 255
207 228 255
208 229 254
209 229 252
210 229 253
210 229 251
212 231 255
212 231 255
212 231 255
212 231 255
212 231 255
212 231 255
212 231 255
212 231 255
212 230 255
212 230 255
212 230 255
212 230 255
212 230 255
212 230 255
212 230 255
211 230 255
211 230 255
211 230 255
211 230 255
211 230 255
211 230 255
211 230 255
211 230 255
211 230 255
211 230 255
211 230 255
211 230 255
211 230 255
211 230 255
211 230 255
211 230 255
211 230 255
211 230 255
211 230 255
211 230 255
211 230 255
211 230 255
211 230 255
210 230 255
210 230 255
210 230 255
210 230 255
210 230 255
210 230 255
210 230 255
210 230 255
210 230 255
210 230 255
210 230 255
210 230 255
210 230 255
210 229 255
210 229 255
210 229 255
210 229 255
210 229 255
210 229 255
210 229 255
210 229 255
210 229 255
210 229 255
210 229 255
210 229 255
210 229 255
210 229 255
210 229 255
210 229 255
210 229 255
210 229 255
209 229 255
209 229 255
209 229 255
209 229 255
209 229 255
209 229 255
209 229 255
209 229 255
209 229 255
209 229 255
209 229 255
209 229 255
209 229 255
209 229 255
209 229 255
209 229 255
209 229 255
209 229 255
209 229 255
208 228 255
207 227 254
203 223 251
207 227 254
205 225 253
209 229 255
209 229 255
209 229 255
209 229 255
209 229 255
209 229 255
209 229 255
209 229 255
209 229 255
209 229 255
209 229 255
209 229 255
209 229 255
209 229 255
209 229 255
209 229 255
209 229 255
209 229 255
209 229 255
209 229 255
210 229 255
210 229 255
210 229 255
210 229 255
210 229 255
210 229 255
210 229 255
210 229 255
210 229 255
210 229 255
210 229 255
210 229 255
210 229 255
210 229 255
210 229 255
210 229 255
210 229 255
210 229 255
210 230 255
210 230 255
210 230 255
210 230 255
210 230 255
210 230 255
210 230 255
210 230 255
210 230 255
210 230 255
210 230 255
210 230 255
210 230 255
211 230 255
211 230 255
211 230 255
211 230 255
211 230 255
211 230 255
211 230 255
211 230 255
211 230 255
211 230 255
211 230 255
211 230 255
211 230 255
211 230 255
211 230 255
211 230 255
211 230 255
211 230 255
211 230 255
211 230 255
211 230 255
211 230 255
212 230 255
212 230 255
212 230 255
212 230 255
212 230 255
212 230 255
212 230 255
212 230 255
212 231 255
212 231 255
212 231 255
212 231 255
212 231 255
212 231 255
209 226 249
183 194 201
136 135 103
142 140 96
139 138 96
141 140 98
145 144 100
139 138 96
144 144 100
152 151 105
146 145 101
148 147 102
156 155 108
144 142 99
153 151 105
145 144 100
150 149 104
153 152 107
151 150 105
156 155 108
155 154 108
157 155 108
155 154 107
152 151 105
156 156 109
154 153 106
155 154 107
157 156 108
152 151 105
163 161 111
151 150 104
156 155 108
159 157 110
160 158 110
154 153 107
162 161 112
154 153 107
161 159 111
162 160 111
156 155 108
156 155 108
161 159 111
159 158 110
151 150 104
155 153 106
161 160 111
155 153 106
164 163 113
162 159 110
158 157 109
164 161 111
161 159 110
158 155 107
164 161 111
156 154 107
157 154 106
155 153 104
157 155 106
159 156 107
165 162 111
163 160 110
153 151 103
158 155 106
151 149 102
160 157 107
160 158 108
165 162 110
155 151 103
158 156 106
165 161 110
153 151 102
158 155 105
152 149 102
157 154 106
155 153 105
155 152 104
156 153 105
162 158 106
149 146 99
154 151 104
154 152 104
153 150 103
155 152 103
157 154 102
155 152 103
153 149 100
168 163 109
164 159 106
158 155 105
151 148 100
152 149 99
157 153 102
159 157 103
157 154 104
157 154 103
158 154 104
156 152 102
151 146 97
154 149 99
153 150 100
157 154 102
144 142 95
159 155 101
145 141 91
145 142 95
147 144 94
149 146 96
161 156 106
150 146 95
140 136 91
148 144 97
213 231 255
213 231 255
213 231 255
213 231 255
211 230 255
211 230 255
211 230 254
210 230 255
210 229 255
209 229 254
209 229 254
209 229 255
208 229 255
207 228 255
207 228 255
207 228 255
207 228 255
206 227 255
206 227 255
205 227 255
205 227 255
204 227 255
204 226 255
205 227 255
204 226 255
203 226 255
203 226 255
203 226 255
202 225 255
202 225 255
202 225 255
201 225 255
201 224 255
200 224 255
200 224 255
199 224 255
200 224 255
199 224 255
198 223 255
198 223 255
198 223 255
197 223 255
197 223 255
197 223 255
196 222 255
196 222 255
196 222 255
196 222 255
195 222 255
195 222 255
195 222 255
195 221 255
194 221 255
194 221 255
194 221 255
194 221 255
194 221 255
193 221 255
194 221 255
193 220 255
193 220 255
192 220 255
192 220 255
192 220 255
192 220 255
192 220 255
192 220 255
192 220 255
192 220 255
191 220 255
191 220 255
192 220 255
191 220 255
192 220 255
191 220 255
192 220 255
191 220 255
191 220 255
191 220 255
192 220 255
191 220 255
192 220 255
192 220 255
192 220 255
192 220 255
192 220 255
193 220 255
193 221 255
193 221 255
194 221 255
195 221 255
195 221 255
196 222 255
196 222 255
197 222 255
197 223 255
198 223 255
199 224 255
199 224 255
199 224 255
201 225 255
202 225 255
203 226 255
203 226 255
203 226 254
207 228 255
207 228 255
208 228 255
210 229 252
211 230 254
213 231 254
212 231 255
212 231 255
212 231 255
212 231 255
212 231 255
212 231 255
212 231 255
212 231 255
212 231 255
212 231 255
212 231 255
212 230 255
212 230 255
212 230 255
212 230 255
212 230 255
212 230 255
212 230 255
211 230 255
211 230 255
211 230 255
211 230 255
211 230 255
211 230 255
211 230 255
211 230 255
211 230 255
211 230 255
211 230 255
211 230 255
211 230 255
211 230 255
211 230 255
211 230 255
211 230 255
211 230 255
211 230 255
211 230 255
211 230 255
211 230 255
211 230 255
211 230 255
210 230 255
210 230 255
210 230 255
210 230 255
210 230 255
210 230 255
210 230 255
210 230 255
210 230 255
210 230 255
210 230 255
210 230 255
210 230 255
210 230 255
210 230 255
210 229 255
210 229 255
210 229 255
210 229 255
210 229 255
210 229 255
210 229 255
210 229 255
210 229 255
210 229 255
210 229 255
210 229 255
210 229 255
210 229 255
210 229 255
210 229 255
210 229 255
210 229 255
210 229 255
210 229 255
210 229 255
208 228 254
191 212 244
179 200 235
154 177 221
145 168 216
123 149 204
111 138 195
94 124 188
73 109 185
71 108 185
70 108 183
70 108 184
71 108 184
73 109 181
74 110 181
101 130 195
124 150 206
129 154 206
152 174 219
184 205 239
188 209 241
209 228 255
210 229 255
210 229 255
210 229 255
210 229 255
210 229 255
210 229 255
210 229 255
210 229 255
210 229 255
210 229 255
210 229 255
210 229 255
210 229 255
210 229 255
210 229 255
210 229 255
210 229 255
210 229 255
210 229 255
210 229 255
210 229 255
210 230 255
210 230 255
210 230 255
210 230 255
210 230 255
210 230 255
210 230 255
210 230 255
210 230 255
210 230 255
210 230 255
210 230 255
210 230 255
210 230 255
210 230 255
211 230 255
211 230 255
211 230 255
211 230 255
211 230 255
211 230 255
211 230 255
211 230 255
211 230 255
211 230 255
211 230 255
211 230 255
211 230 255
211 230 255
211 230 255
211 230 255
211 230 255
211 230 255
211 230 255
211 230 255
211 230 255
211 230 255
211 230 255
211 230 255
212 230 255
212 230 255
212 230 255
212 230 255
212 230 255
212 230 255
212 230 255
212 231 255
212 231 255
212 231 255
212 231 255
212 231 255
212 231 255
212 231 255
212 231 255
212 231 255
210 228 252
183 195 204
135 135 103
138 136 94
139 137 95
141 138 95
144 143 100
154 152 106
147 147 102
146 146 101
140 139 96
155 154 107
142 141 98
145 145 101
155 154 108
147 146 101
152 151 105
150 149 104
153 152 106
161 160 111
155 154 107
158 156 109
154 153 106
146 145 101
156 154 108
153 152 106
156 155 108
161 159 111
160 158 110
166 165 115
158 156 108
157 156 108
153 152 106
162 160 111
164 162 113
162 159 110
160 158 110
159 156 108
152 150 104
164 162 112
164 162 113
152 150 104
163 161 111
163 161 111
165 163 113
163 160 111
160 158 110
161 159 110
170 167 115
158 157 109
160 157 109
161 158 108
152 150 104
161 159 109
167 165 115
161 159 110
158 156 107
150 147 101
161 158 110
166 163 111
158 155 106
159 156 107
166 164 113
168 164 113
158 156 107
157 154 104
157 155 106
167 164 113
155 153 105
159 156 106
156 154 106
158 155 105
159 156 105
159 155 105
162 159 110
163 160 108
158 156 107
163 161 110
157 154 105
158 153 104
154 150 103
155 153 105
155 152 104
148 145 98
155 152 104
154 150 101
153 150 104
158 155 104
152 149 100
160 156 105
152 150 101
156 152 101
164 161 109
154 151 99
153 149 99
155 150 99
146 142 96
151 147 99
158 154 102
157 153 102
160 156 105
159 155 106
148 144 97
148 144 97
144 142 95
159 154 102
147 143 96
151 148 98
146 142 93
141 138 89
152 148 99
156 152 100
141 138 93
213 231 255
212 230 255
212 231 255
211 230 255
211 230 255
210 230 255
210 230 255
210 229 255
209 229 255
209 229 255
209 229 255
208 229 255
208 228 255
207 228 255
207 228 255
206 228 255
206 227 255
206 227 255
205 227 255
205 227 255
204 227 255
204 226 255
204 226 255
203 226 255
203 226 255
202 225 255
202 225 255
202 225 255
201 225 255
201 225 255
201 225 255
200 224 255
200 224 255
199 224 255
199 224 255
199 224 255
199 223 255
198 223 255
198 223 255
198 223 255
197 223 255
197 223 255
197 223 255
197 222 255
196 222 255
196 222 255
195 222 255
195 222 255
195 221 255
195 222 255
194 221 255
194 221 255
194 221 255
194 221 255
193 221 255
193 221 255
193 221 255
193 221 255
192 220 255
192 220 255
192 220 255
192 220 255
191 220 255
191 220 255
191 220 255
191 219 255
191 220 255
191 220 255
191 219 255
190 219 255
191 219 255
191 219 255
190 219 255
190 219 255
190 219 255
190 219 255
190 219 255
190 219 255
190 219 255
190 219 255
191 219 255
191 219 255
191 219 255
191 219 255
191 219 255
191 220 255
192 220 255
192 220 255
192 220 255
193 220 255
193 220 255
193 220 255
194 221 255
194 221 255
194 221 255
195 222 255
195 222 255
197 222 255
198 223 255
198 223 255
199 224 255
200 224 255
200 224 254
201 225 255
202 225 254
203 226 254
205 227 255
207 228 255
208 228 254
208 229 255
209 229 253
210 230 254
211 230 254
212 230 254
212 231 255
212 231 255
212 231 255
212 231 255
212 231 255
212 231 255
212 231 255
212 231 255
212 231 255
212 231 255
212 231 255
212 231 255
212 231 255
212 230 255
212 230 255
212 230 255
212 230 255
212 230 255
212 230 255
212 230 255
211 230 255
211 230 255
211 230 255
211 230 255
211 230 255
211 230 255
211 230 255
211 230 255
211 230 255
211 230 255
211 230 255
211 230 255
211 230 255
211 230 255
211 230 255
211 230 255
211 230 255
211 230 255
211 230 255
211 230 255
211 230 255
211 230 255
211 230 255
211 230 255
211 230 255
210 230 255
210 230 255
210 230 255
210 230 255
210 230 255
210 230 255
210 230 255
210 230 255
210 230 255
210 230 255
210 230 255
210 230 255
210 230 255
210 230 255
210 230 255
210 230 255
210 230 255
210 230 255
210 229 255
210 229 255
210 229 255
210 229 255
210 229 255
210 229 255
210 229 255
210 229 255
208 228 254
180 201 236
157 179 222
131 156 206
90 121 186
71 108 185
71 108 178
71 108 183
71 108 183
71 108 184
71 108 184
71 108 178
70 107 178
70 108 184
70 107 181
70 108 184
71 108 180
70 107 179
71 108 179
70 107 179
70 108 179
71 108 183
71 108 185
71 108 184
70 107 180
82 116 188
129 154 206
159 181 223
185 205 238
208 228 254
210 229 255
210 229 255
210 229 255
210 229 255
210 229 255
210 229 255
210 229 255
210 229 255
210 230 255
210 230 255
210 230 255
210 230 255
210 230 255
210 230 255
210 230 255
210 230 255
210 230 255
210 230 255
210 230 255
210 230 255
210 230 255
210 230 255
210 230 255
210 230 255
210 230 255
211 230 255
211 230 255
211 230 255
211 230 255
211 230 255
211 230 255
211 230 255
211 230 255
211 230 255
211 230 255
211 230 255
211 230 255
211 230 255
211 230 255
211 230 255
211 230 255
211 230 255
211 230 255
211 230 255
211 230 255
211 230 255
211 230 255
211 230 255
211 230 255
211 230 255
211 230 255
212 230 255
212 230 255
212 230 255
212 230 255
212 230 255
212 230 255
212 230 255
212 231 255
212 231 255
212 231 255
212 231 255
212 231 255
212 231 255
212 231 255
212 231 255
212 231 255
212 231 255
212 231 255
212 231 255
211 229 252
184 197 208
151 152 124
138 136 95
142 139 96
135 134 93
149 147 102
149 148 103
145 145 101
152 150 104
157 157 110
147 146 101
143 143 100
149 148 103
153 152 106
151 150 104
154 154 108
157 156 108
152 152 106
149 147 103
160 158 110
166 164 114
151 149 104
162 160 111
152 151 105
155 154 107
157 156 109
157 156 109
155 153 106
155 154 107
162 160 111
162 160 111
160 158 110
160 158 110
149 148 103
158 156 108
154 153 106
163 162 113
159 157 110
161 159 110
165 162 112
164 162 113
163 161 111
169 165 114
163 162 113
167 164 113
163 160 110
162 161 111
162 160 111
162 159 110
163 161 111
157 154 107
162 160 110
156 154 107
161 159 110
165 163 113
161 160 111
160 157 108
158 156 107
165 163 112
167 165 113
160 157 109
161 159 109
158 156 106
159 157 107
158 155 105
160 157 108
160 157 107
154 152 105
163 160 109
162 159 109
159 156 106
160 158 109
161 158 107
166 163 112
163 160 110
157 154 106
161 159 109
157 154 103
156 152 103
153 150 100
158 155 106
158 155 106
156 153 105
162 158 107
152 149 101
159 156 105
160 156 106
155 152 101
163 159 108
152 149 100
155 153 104
165 162 108
157 154 104
159 154 102
152 148 99
157 153 104
152 148 99
153 150 102
148 144 96
151 148 99
155 153 104
159 154 101
144 141 97
155 151 99
154 150 100
155 151 100
156 151 101
155 152 100
157 153 98
152 149 101
157 153 101
146 142 95
148 144 95
157 152 100
212 230 255
212 230 255
211 230 255
211 230 253
210 230 255
210 229 255
210 229 255
209 229 255
208 229 255
208 228 255
208 228 255
208 228 255
207 228 255
207 228 255
207 228 255
206 227 255
205 227 255
205 227 255
205 227 255
205 227 255
204 226 255
204 226 255
203 226 255
203 226 255
203 226 255
202 225 255
202 225 255
201 225 255
201 225 255
201 225 255
200 224 255
200 224 255
200 224 255
199 224 255
199 224 255
199 223 255
198 223 255
198 223 255
197 223 255
197 223 255
197 223 255
197 223 255
196 222 255
196 222 255
196 222 255
195 222 255
195 221 255
195 222 255
194 221 255
194 221 255
194 221 255
194 221 255
194 221 255
193 221 255
193 220 255
193 221 255
194 221 255
194 221 253
194 221 253
196 222 254
196 222 253
195 221 252
195 222 254
197 222 254
194 221 251
195 221 253
194 221 250
194 221 252
196 221 250
195 222 253
196 222 252
193 221 253
193 221 255
193 220 253
191 219 253
192 220 255
190 219 255
190 219 255
189 219 255
189 219 255
189 219 255
190 219 255
190 219 255
190 219 255
190 219 255
190 219 255
191 219 255
191 219 255
191 220 255
191 220 255
192 220 255
192 220 255
192 220 255
193 221 255
193 221 255
193 221 255
194 221 255
194 221 255
195 222 255
196 222 255
198 223 255
197 223 255
198 223 255
199 224 255
200 224 255
201 225 255
203 225 254
203 226 255
204 226 255
206 227 255
207 228 255
208 228 253
209 229 254
212 230 253
212 231 254
213 231 255
213 231 255
212 231 255
212 231 255
212 231 255
212 231 255
212 231 255
212 231 255
212 231 255
212 231 255
212 231 255
212 231 255
212 231 255
212 231 255
212 231 255
212 231 255
212 231 255
212 230 255
212 230 255
212 230 255
212 230 255
212 230 255
212 230 255
212 230 255
212 230 255
211 230 255
211 230 255
211 230 255
211 230 255
211 230 255
211 230 255
211 230 255
211 230 255
211 230 255
211 230 255
211 230 255
211 230 255
211 230 255
211 230 255
211 230 255
211 230 255
211 230 255
211 230 255
211 230 255
211 230 255
211 230 255
211 230 255
211 230 255
211 230 255
211 230 255
211 230 255
211 230 255
211 230 255
210 230 255
210 230 255
210 230 255
210 230 255
210 230 255
210 230 255
210 230 255
210 230 255
210 230 255
210 230 255
210 230 255
210 230 255
210 230 255
210 230 255
207 226 253
177 198 233
135 159 208
85 117 185
70 107 182
70 107 179
70 108 183
70 108 180
70 108 185
70 107 178
71 108 181
71 108 183
71 108 181
70 108 180
70 107 176
71 108 184
70 107 176
71 108 184
70 108 179
71 108 181
71 108 178
70 107 179
70 107 178
71 108 176
70 107 180
70 107 180
71 108 183
71 107 178
70 107 179
70 108 182
71 108 183
70 107 182
82 116 185
126 151 204
180 200 236
205 224 252
210 230 255
210 230 255
210 230 255
210 230 255
210 230 255
210 230 255
210 230 255
210 230 255
210 230 255
210 230 255
210 230 255
210 230 255
210 230 255
210 230 255
210 230 255
211 230 255
211 230 255
211 230 255
211 230 255
211 230 255
211 230 255
211 230 255
211 230 255
211 230 255
211 230 255
211 230 255
211 230 255
211 230 255
211 230 255
211 230 255
211 230 255
211 230 255
211 230 255
211 230 255
211 230 255
211 230 255
211 230 255
211 230 255
211 230 255
211 230 255
211 230 255
211 230 255
212 230 255
212 230 255
212 230 255
212 230 255
212 230 255
212 230 255
212 230 255
212 230 255
212 231 255
212 231 255
212 231 255
212 231 255
212 231 255
212 231 255
212 231 255
212 231 255
212 231 255
212 231 255
212 231 255
212 231 255
212 231 255
212 231 255
212 231 255
213 231 255
201 217 233
151 155 139
149 147 101
140 138 96
141 140 97
146 143 99
152 151 105
146 145 101
142 141 98
141 140 97
145 143 99
151 150 105
145 144 100
153 152 106
153 152 106
160 158 110
143 142 99
156 155 108
153 152 106
156 154 108
155 153 106
160 159 110
155 154 108
150 148 103
155 154 107
157 156 109
153 152 106
159 158 110
168 166 115
161 159 111
159 159 111
160 159 110
160 159 111
168 166 115
160 158 110
164 162 113
164 162 113
160 158 110
161 159 110
159 157 109
157 155 108
157 156 108
156 154 108
164 162 112
156 153 106
163 160 111
164 162 112
159 157 110
163 161 112
167 164 113
159 157 108
163 160 111
163 161 111
164 161 110
164 161 111
164 161 111
167 164 113
157 155 108
156 153 106
157 155 106
161 159 110
156 154 107
157 154 106
163 159 109
160 157 108
165 161 110
156 153 105
166 163 112
158 155 106
166 163 111
164 160 108
166 163 110
161 158 108
169 166 113
167 165 112
159 155 104
165 162 110
160 157 108
154 151 104
158 155 105
161 157 107
158 154 104
160 156 106
170 166 112
165 162 110
160 156 105
159 156 106
168 164 113
157 153 102
160 157 106
152 149 101
161 157 105
163 160 106
164 159 106
148 144 96
155 152 101
162 158 105
157 153 104
160 156 105
150 146 99
158 153 100
153 149 99
160 156 106
156 153 102
163 158 107
150 147 100
148 144 95
153 148 99
155 150 98
166 162 106
148 143 94
153 149 99
150 147 97
154 150 96
158 154 103
153 150 101
211 230 255
211 230 255
211 230 255
211 230 255
210 230 255
209 229 255
210 229 255
209 229 255
208 229 255
208 228 255
207 228 255
207 228 255
207 228 255
207 228 255
206 227 255
205 227 255
205 227 255
205 227 255
205 227 255
204 227 255
204 226 255
203 226 255
203 226 255
202 225 255
202 225 255
202 225 255
201 225 255
201 225 255
201 225 255
201 225 255
200 224 255
200 224 255
199 224 255
199 224 255
198 223 255
198 223 255
198 223 255
198 223 255
197 223 255
197 222 255
196 222 255
196 222 255
196 222 255
196 222 255
195 222 255
195 222 255
195 221 255
194 221 255
195 221 254
196 222 252
197 222 251
198 223 253
198 223 250
198 223 250
201 225 253
200 224 251
200 224 248
201 224 252
200 223 247
200 224 251
199 223 246
200 224 252
200 224 250
200 223 247
201 224 251
200 224 250
198 222 248
200 223 246
201 224 250
198 222 244
201 224 252
200 224 251
199 224 253
197 222 250
198 222 245
198 223 251
196 221 245
196 222 248
196 221 244
195 221 250
195 222 255
192 220 253
192 220 255
190 219 254
189 219 255
189 219 255
189 219 255
190 219 255
190 219 255
190 219 255
191 219 255
190 219 255
191 220 255
191 220 255
191 220 255
192 220 255
192 220 255
193 221 255
194 221 255
194 221 255
195 222 255
196 222 255
196 222 255
197 223 255
197 223 255
200 224 255
200 224 255
201 225 255
203 226 255
203 226 255
204 227 255
205 227 255
208 229 255
208 229 255
210 230 255
210 229 247
211 230 252
212 231 254
213 231 255
213 231 255
213 231 255
213 231 255
212 231 255
212 231 255
212 231 255
212 231 255
212 231 255
212 231 255
212 231 255
212 231 255
212 231 255
212 231 255
212 231 255
212 231 255
212 231 255
212 231 255
212 231 255
212 230 255
212 230 255
212 230 255
212 230 255
212 230 255
212 230 255
212 230 255
212 230 255
212 230 255
211 230 255
211 230 255
211 230 255
211 230 255
211 230 255
211 230 255
211 230 255
211 230 255
211 230 255
211 230 255
211 230 255
211 230 255
211 230 255
211 230 255
211 230 255
211 230 255
211 230 255
211 230 255
211 230 255
211 230 255
211 230 255
211 230 255
211 230 255
211 230 255
211 230 255
211 230 255
211 230 255
211 230 255
211 230 255
211 230 255
211 230 255
210 230 255
210 230 255
210 230 255
183 203 236
140 164 213
82 115 184
70 108 182
70 107 176
71 108 181
70 107 178
71 108 178
71 108 182
71 108 178
70 107 178
71 108 176
70 107 178
70 108 180
71 108 184
71 108 177
71 107 175
71 108 182
70 107 175
71 108 178
70 107 178
70 107 173
70 107 178
71 108 179
71 108 178
70 107 174
70 107 179
70 108 183
70 107 176
71 108 180
71 108 178
71 108 180
69 106 180
70 108 183
70 107 176
70 107 181
70 107 179
80 114 183
147 169 212
183 203 237
210 230 255
210 230 255
210 230 255
211 230 255
211 230 255
211 230 255
211 230 255
211 230 255
211 230 255
211 230 255
211 230 255
211 230 255
211 230 255
211 230 255
211 230 255
211 230 255
211 230 255
211 230 255
211 230 255
211 230 255
211 230 255
211 230 255
211 230 255
211 230 255
211 230 255
211 230 255
211 230 255
211 230 255
211 230 255
211 230 255
211 230 255
211 230 255
211 230 255
211 230 255
212 230 255
212 230 255
212 230 255
212 230 255
212 230 255
212 230 255
212 230 255
212 230 255
212 230 255
212 231 255
212 231 255
212 231 255
212 231 255
212 231 255
212 231 255
212 231 255
212 231 255
212 231 255
212 231 255
212 231 255
212 231 255
212 231 255
212 231 255
212 231 255
213 231 255
213 231 255
213 231 255
213 231 255
203 219 238
164 172 166
145 143 99
142 140 97
147 145 101
141 139 96
151 150 104
147 145 101
151 149 104
146 145 101
154 153 107
150 149 104
154 153 106
155 154 108
141 140 98
157 155 108
156 155 109
158 156 109
155 153 106
155 153 106
151 150 104
162 160 111
164 163 114
159 158 110
170 169 118
157 156 109
155 153 107
165 163 114
161 159 111
160 158 110
166 164 114
158 157 109
153 152 106
157 154 107
156 154 107
162 160 111
168 166 115
157 155 108
164 162 112
167 165 115
162 160 110
169 167 116
162 160 111
165 163 113
151 150 104
156 154 107
169 166 115
163 160 111
159 157 108
166 164 113
165 162 112
165 163 113
155 153 106
169 167 115
163 160 110
168 165 114
164 162 111
158 156 108
164 161 111
161 160 111
166 164 112
167 165 114
166 162 111
159 156 108
161 157 108
167 163 111
168 165 112
162 159 109
161 158 108
156 153 104
167 163 110
158 155 106
155 152 104
164 161 109
160 157 105
165 161 109
162 160 108
161 158 107
163 160 108
163 159 106
160 158 108
167 163 111
162 159 108
159 156 106
160 157 106
160 157 105
166 162 110
159 155 104
164 162 110
166 162 108
159 155 105
160 156 107
159 156 104
152 149 101
158 153 102
157 154 102
158 156 104
166 161 106
160 156 105
163 160 106
154 149 99
159 155 103
160 156 102
157 153 101
166 162 108
155 150 100
158 155 104
152 147 99
157 154 101
155 150 96
155 150 99
156 151 98
152 149 100
154 150 99
153 149 98
149 145 95
157 153 101
148 145 94
211 230 255
211 230 254
210 230 255
210 229 255
209 229 255
209 229 254
209 229 255
208 229 255
208 228 255
208 228 255
207 228 255
207 228 254
207 228 255
206 227 255
206 227 255
206 227 255
205 227 255
205 227 255
204 226 255
204 226 255
203 226 255
203 226 255
203 226 255
202 225 255
202 225 255
201 225 255
201 225 255
200 224 255
200 224 255
200 224 255
200 224 255
199 224 255
199 224 255
199 223 255
198 223 255
198 223 255
198 223 255
197 223 255
197 223 255
197 222 255
196 222 255
196 222 255
196 222 255
196 222 254
197 222 253
200 224 251
200 224 250
202 225 252
201 224 246
203 225 250
203 225 251
202 225 250
200 223 250
201 225 253
201 223 247
201 224 251
202 225 250
202 225 248
201 224 246
202 225 247
201 224 248
204 225 247
202 225 248
203 225 251
203 225 253
201 224 246
203 225 250
200 223 245
200 223 245
202 224 248
199 223 248
201 224 246
202 225 250
201 224 247
200 224 252
198 222 245
199 223 245
201 225 252
198 222 245
199 223 247
199 223 247
199 223 248
199 223 248
200 224 250
197 222 247
194 220 247
193 220 252
193 220 255
191 219 254
190 219 255
189 219 255
190 219 255
190 219 255
190 219 255
191 220 255
191 220 255
192 220 255
192 220 255
192 220 255
193 220 255
194 221 255
194 221 255
195 222 255
196 222 255
196 222 255
197 223 255
198 223 255
200 224 255
200 224 254
201 225 255
202 225 255
204 226 255
205 227 255
206 227 254
208 228 255
209 229 255
210 230 255
211 230 253
213 231 254
213 231 255
213 231 255
213 231 255
213 231 255
213 231 255
213 231 255
213 231 255
213 231 255
212 231 255
212 231 255
212 231 255
212 231 255
212 231 255
212 231 255
212 231 255
212 231 255
212 231 255
212 231 255
212 231 255
212 231 255
212 231 255
212 231 255
212 231 255
212 231 255
212 230 255
212 230 255
212 230 255
212 230 255
212 230 255
212 230 255
212 230 255
212 230 255
212 230 255
211 230 255
211 230 255
211 230 255
211 230 255
211 230 255
211 230 255
211 230 255
211 230 255
211 230 255
211 230 255
211 230 255
211 230 255
211 230 255
211 230 255
211 230 255
211 230 255
211 230 255
211 230 255
211 230 255
211 230 255
211 230 255
211 230 255
211 230 255
211 230 255
211 230 255
208 227 254
178 198 233
123 149 202
70 107 179
71 108 184
72 109 182
70 107 178
71 108 177
71 108 180
71 108 178
70 108 181
71 108 182
71 108 177
70 107 176
70 107 178
70 108 180
70 107 178
71 108 178
71 108 179
71 108 182
71 108 178
72 108 178
70 107 176
70 107 176
70 107 175
71 108 180
70 107 178
70 107 175
71 107 179
71 108 179
70 107 173
71 108 180
71 108 184
71 108 178
71 107 178
70 107 178
71 108 181
70 107 179
70 107 177
70 107 176
71 108 182
71 107 182
70 107 177
116 142 198
177 198 233
208 227 254
211 230 255
211 230 255
211 230 255
211 230 255
211 230 255
211 230 255
211 230 255
211 230 255
211 230 255
211 230 255
211 230 255
211 230 255
211 230 255
211 230 255
211 230 255
211 230 255
211 230 255
211 230 255
211 230 255
211 230 255
211 230 255
211 230 255
211 230 255
211 230 255
211 230 255
212 230 255
212 230 255
212 230 255
212 230 255
212 230 255
212 230 255
212 230 255
212 230 255
212 230 255
212 231 255
212 231 255
212 231 255
212 231 255
212 231 255
212 231 255
212 231 255
212 231 255
212 231 255
212 231 255
212 231 255
212 231 255
212 231 255
212 231 255
212 231 255
212 231 255
213 231 255
213 231 255
213 231 255
213 231 255
213 231 255
213 231 255
213 231 255
211 229 252
182 193 197
154 154 120
144 141 98
146 144 100
147 146 101
143 140 97
147 146 102
149 148 103
150 148 103
146 144 100
148 146 101
156 155 108
145 144 100
149 148 104
153 152 106
160 159 111
146 146 102
157 156 109
156 154 107
157 155 108
155 154 107
159 157 109
159 157 109
151 150 105
152 151 105
161 160 112
156 155 108
163 161 112
159 157 110
161 159 111
160 159 110
159 158 110
163 161 111
162 161 112
160 158 110
158 156 108
160 158 110
164 162 112
158 156 108
163 160 111
166 164 114
165 163 113
164 162 113
165 163 113
160 158 108
167 165 114
166 164 113
168 165 115
168 165 115
167 164 113
172 169 116
168 166 113
166 163 112
166 163 113
162 160 111
161 158 109
171 167 113
166 163 112
167 163 111
165 162 111
165 160 110
167 164 111
164 160 110
162 159 109
162 159 109
165 162 110
164 161 110
168 165 112
165 161 111
163 160 109
165 162 111
165 162 111
157 155 105
161 159 108
155 152 102
155 153 104
159 156 106
161 158 108
164 161 108
161 158 108
169 165 113
160 157 106
160 156 104
164 161 108
170 166 111
165 161 109
166 161 108
163 160 108
169 164 109
164 161 109
156 153 103
160 156 105
163 159 106
160 157 105
161 157 106
158 155 103
152 149 101
163 160 108
157 152 101
158 154 105
152 149 101
157 153 100
165 161 110
158 153 102
163 159 104
160 156 105
155 151 100
162 158 106
156 152 99
158 154 99
166 161 106
159 155 101
152 148 98
148 145 96
164 158 106
145 141 95
154 149 99
148 145 91
156 152 98
211 230 255
210 230 255
211 230 255
210 229 255
209 229 255
209 229 255
208 229 255
208 229 255
207 228 255
207 228 255
207 228 255
206 228 255
206 227 255
206 227 255
205 227 255
205 227 255
204 226 255
204 226 255
204 226 255
203 226 255
203 226 255
203 226 255
202 225 255
202 225 255
202 225 255
201 225 255
201 225 255
201 225 255
200 224 255
200 224 255
200 224 255
199 224 255
199 224 255
199 223 255
198 223 255
198 223 255
197 223 255
197 223 255
197 223 255
198 223 254
199 224 254
201 224 252
201 224 251
202 225 248
204 226 253
204 226 252
201 224 250
202 225 251
203 226 251
202 224 246
203 225 250
203 225 251
201 224 248
204 225 247
201 224 245
203 225 246
202 224 247
202 225 246
200 223 244
203 225 246
200 223 245
199 223 246
203 225 248
202 225 250
200 223 244
202 225 250
201 224 248
202 225 251
202 224 246
202 225 248
202 225 250
201 224 247
202 224 247
201 224 248
201 224 247
201 224 250
202 225 252
199 222 242
201 224 245
199 223 246
201 224 253
200 223 250
201 224 248
198 222 244
200 224 248
199 223 246
199 223 246
200 224 252
200 223 248
196 221 246
196 222 252
193 220 251
192 220 255
189 219 254
190 219 255
190 219 255
191 219 255
191 219 255
192 220 255
192 220 255
192 220 255
193 221 255
194 221 255
194 221 255
195 222 255
195 222 255
196 222 255
198 223 255
198 223 255
200 224 255
200 224 255
202 225 255
203 226 255
204 226 254
206 227 255
208 228 255
209 229 255
210 229 253
211 230 252
212 231 253
213 231 254
213 231 255
213 231 255
213 231 255
213 231 255
213 231 255
213 231 255
213 231 255
213 231 255
213 231 255
213 231 255
213 231 255
213 231 255
212 231 255
212 231 255
212 231 255
212 231 255
212 231 255
212 231 255
212 231 255
212 231 255
212 231 255
212 231 255
212 231 255
212 231 255
212 231 255
212 231 255
212 231 255
212 231 255
212 230 255
212 230 255
212 230 255
212 230 255
212 230 255
212 230 255
212 230 255
212 230 255
212 230 255
211 230 255
211 230 255
211 230 255
211 230 255
211 230 255
211 230 255
211 230 255
211 230 255
211 230 255
211 230 255
211 230 255
211 230 255
211 230 255
211 230 255
211 230 255
211 230 255
211 230 255
207 227 253
172 192 229
95 125 190
71 108 184
70 107 178
71 108 182
71 108 181
71 108 178
71 108 180
71 108 178
70 108 181
70 107 176
70 107 176
71 108 182
71 108 178
71 108 177
70 106 173
70 107 175
71 108 177
71 108 177
71 108 178
70 107 175
70 107 176
70 107 173
71 108 183
70 107 175
70 107 178
70 107 175
71 108 179
71 108 178
70 107 178
71 108 180
71 108 176
70 107 177
70 107 176
70 107 173
71 108 178
71 108 178
70 107 178
70 107 181
70 107 173
70 107 183
71 107 179
70 106 175
70 107 180
70 107 174
70 106 175
99 128 188
172 192 228
208 227 254
211 230 255
211 230 255
211 230 255
211 230 255
211 230 255
211 230 255
211 230 255
211 230 255
211 230 255
211 230 255
211 230 255
211 230 255
211 230 255
211 230 255
211 230 255
211 230 255
212 230 255
212 230 255
212 230 255
212 230 255
212 230 255
212 230 255
212 230 255
212 230 255
212 230 255
212 230 255
212 231 255
212 231 255
212 231 255
212 231 255
212 231 255
212 231 255
212 231 255
212 231 255
212 231 255
212 231 255
212 231 255
212 231 255
212 231 255
212 231 255
212 231 255
212 231 255
212 231 255
213 231 255
213 231 255
213 231 255
213 231 255
213 231 255
213 231 255
213 231 255
213 231 255
213 231 255
213 231 255
213 231 255
200 215 233
163 167 151
149 146 100
147 144 99
143 141 98
149 147 101
147 146 102
147 146 101
154 152 105
151 149 104
163 162 112
147 146 102
156 154 107
151 149 104
154 152 106
155 154 107
156 155 108
159 157 109
153 153 107
155 154 107
155 153 107
157 155 109
158 157 109
160 158 110
146 145 100
161 159 110
150 148 103
156 154 108
158 156 109
156 155 108
159 158 110
166 164 114
169 167 115
158 156 108
163 160 111
167 164 114
163 161 112
163 161 112
164 161 111
159 157 109
170 168 117
159 157 109
161 159 110
163 163 114
167 164 113
168 166 115
165 163 113
171 169 117
170 169 117
167 164 113
173 171 118
159 156 108
169 166 115
156 154 106
169 166 115
165 161 111
165 162 112
165 162 111
168 165 114
164 161 110
172 169 116
170 167 115
157 153 105
171 167 115
170 167 115
167 163 111
161 158 108
171 167 114
161 158 107
165 161 111
168 165 113
163 159 109
167 164 111
167 164 111
165 162 111
165 162 109
155 153 104
165 161 107
164 161 110
166 162 110
168 164 110
167 163 111
162 159 108
167 164 111
170 166 112
159 156 105
162 159 108
164 160 109
159 156 104
161 158 108
156 152 102
164 161 110
161 157 106
163 160 109
156 153 101
165 161 107
162 158 106
157 154 101
156 152 101
161 157 106
160 157 101
158 153 101
166 162 108
153 148 98
167 162 109
153 149 99
161 157 106
161 157 101
157 153 101
161 157 103
150 147 96
145 141 92
156 152 101
162 158 101
159 155 101
146 142 95
154 150 97
154 149 96
148 144 94
152 148 99
156 152 101
210 230 255
210 229 255
210 229 255
210 229 255
209 229 255
208 229 255
208 229 255
208 228 255
208 228 255
207 228 255
207 228 255
206 227 255
206 227 255
205 227 255
205 227 255
205 227 255
205 227 255
204 226 255
204 226 255
203 226 255
203 226 255
203 226 255
202 225 255
202 225 255
201 225 255
201 225 255
201 225 255
200 224 255
200 224 255
200 224 255
199 224 255
199 224 255
199 223 255
198 223 255
198 223 255
198 223 255
198 223 253
201 225 253
204 226 252
204 226 254
202 225 250
203 225 248
205 226 251
203 225 251
203 225 248
203 225 241
204 226 251
203 225 247
203 225 248
206 227 251
202 224 247
202 224 244
205 226 250
203 225 248
204 226 251
205 226 248
204 226 251
206 227 253
203 225 245
204 226 247
205 226 248
203 225 252
204 226 248
203 225 251
204 226 253
204 226 251
202 225 252
202 225 251
203 225 252
203 225 248
201 224 241
202 224 247
204 225 248
201 224 248
203 225 248
201 224 253
204 226 253
202 225 252
201 223 244
201 224 251
201 224 248
202 224 250
202 225 251
200 223 246
199 223 246
198 222 242
201 224 246
199 223 245
197 222 244
199 223 247
197 222 246
199 223 245
197 222 246
196 222 254
194 221 251
192 219 252
190 219 255
190 219 255
190 219 255
190 219 255
191 220 255
192 220 255
192 220 255
193 221 255
193 221 255
194 221 255
195 221 255
197 222 255
197 223 255
198 223 255
199 224 255
200 224 255
201 225 255
203 226 255
204 226 255
205 227 255
206 227 255
209 229 255
209 229 252
212 230 253
212 231 255
213 231 254
213 231 255
213 231 255
213 231 255
213 231 255
213 231 255
213 231 255
213 231 255
213 231 255
213 231 255
213 231 255
213 231 255
213 231 255
213 231 255
213 231 255
213 231 255
213 231 255
212 231 255
212 231 255
212 231 255
212 231 255
212 231 255
212 231 255
212 231 255
212 231 255
212 231 255
212 231 255
212 231 255
212 231 255
212 231 255
212 231 255
212 231 255
212 231 255
212 231 255
212 230 255
212 230 255
212 230 255
212 230 255
212 230 255
212 230 255
212 230 255
212 230 255
212 230 255
212 230 255
212 230 255
212 230 255
211 230 255
211 230 255
211 230 255
211 230 255
211 230 255
211 230 255
211 230 255
177 198 232
122 148 201
72 109 183
71 108 180
69 107 178
70 107 176
70 107 177
71 108 184
70 107 176
70 107 176
71 108 179
71 108 175
71 108 178
70 107 177
70 107 175
71 108 180
72 108 176
71 108 178
71 108 180
71 108 177
70 107 174
70 107 176
70 107 175
72 109 183
70 107 175
70 107 174
70 107 175
70 107 170
71 108 176
71 108 176
71 107 176
71 107 176
71 108 176
70 107 172
71 108 178
71 107 178
71 108 178
71 108 176
70 107 176
71 107 176
72 108 179
71 107 177
70 107 175
71 108 177
71 107 180
70 107 178
70 107 172
69 106 178
70 106 176
70 107 177
109 135 191
175 196 232
210 229 255
211 230 255
211 230 255
211 230 255
211 230 255
211 230 255
211 230 255
212 230 255
212 230 255
212 230 255
212 230 255
212 230 255
212 230 255
212 230 255
212 230 255
212 230 255
212 230 255
212 230 255
212 231 255
212 231 255
212 231 255
212 231 255
212 231 255
212 231 255
212 231 255
212 231 255
212 231 255
212 231 255
212 231 255
212 231 255
212 231 255
212 231 255
212 231 255
212 231 255
212 231 255
212 231 255
213 231 255
213 231 255
213 231 255
213 231 255
213 231 255
213 231 255
213 231 255
213 231 255
213 231 255
213 231 255
213 231 255
213 231 255
213 231 255
213 231 255
213 231 255
212 230 254
180 188 189
148 145 99
138 136 93
142 140 98
138 137 95
145 144 100
152 150 104
143 141 99
133 132 92
154 152 106
156 154 107
155 154 107
139 138 96
156 155 108
157 156 109
162 161 112
146 145 101
156 154 107
162 160 111
163 161 112
155 154 107
161 160 111
166 164 114
156 154 107
161 159 110
161 159 111
154 153 106
165 163 114
160 159 110
163 161 112
158 157 109
157 156 109
159 158 110
164 162 112
158 156 108
152 150 104
154 151 104
164 161 111
168 165 114
158 155 108
169 167 116
168 165 115
165 162 112
164 162 112
165 163 113
160 157 109
170 168 116
167 164 114
167 164 112
169 166 115
172 169 116
170 166 114
163 160 110
162 159 110
168 166 115
170 167 115
161 159 111
170 167 116
163 160 110
168 166 115
160 157 108
169 165 113
172 169 115
164 161 110
171 168 115
165 161 109
163 159 109
170 167 115
172 168 115
155 153 104
166 162 111
162 158 108
160 157 107
162 160 108
163 159 106
168 164 110
169 165 111
165 160 108
169 165 112
163 160 108
160 156 105
166 162 110
160 156 107
160 155 104
169 165 111
167 162 107
165 161 111
163 160 108
166 162 111
162 158 106
149 146 97
164 160 105
165 161 108
158 155 104
163 159 109
158 154 101
156 153 104
165 160 106
159 156 104
157 153 101
159 155 99
160 157 106
158 154 98
158 154 101
162 157 106
167 162 106
164 159 104
166 162 107
154 151 98
161 156 101
165 160 106
146 142 93
165 160 105
160 156 103
159 155 103
155 150 100
155 151 99
160 156 104
157 153 102
154 150 98
156 151 100
157 152 99
210 230 255
210 230 255
209 229 255
209 229 255
209 229 255
208 228 255
208 228 255
208 228 255
207 228 255
206 228 255
206 227 255
206 227 255
206 227 255
205 227 255
205 227 255
205 227 255
204 226 255
204 226 255
203 226 255
203 226 255
203 226 255
202 225 255
202 225 255
202 225 255
201 225 255
201 225 255
200 224 255
200 224 255
200 224 255
200 224 255
199 224 255
199 224 255
199 224 255
200 224 254
202 225 250
203 225 248
204 226 250
204 226 250
205 226 251
204 225 246
205 226 247
205 226 250
206 227 253
203 225 247
201 223 239
203 225 245
204 226 248
205 227 253
205 226 253
204 226 247
203 225 251
203 225 247
205 227 252
204 226 248
206 227 248
203 226 251
203 224 245
203 226 251
204 225 247
203 225 246
201 224 240
199 222 244
199 222 235
200 222 239
200 223 240
199 222 235
199 222 235
199 221 236
199 222 239
200 222 239
198 221 237
200 223 240
197 220 228
199 222 237
199 222 240
200 223 245
197 220 233
198 221 233
202 224 248
201 224 245
200 223 246
202 224 242
202 225 254
198 222 237
202 224 244
201 224 246
200 224 246
202 225 248
203 225 253
200 223 250
201 224 250
199 223 247
201 223 244
199 223 247
199 224 254
198 222 248
197 222 248
195 221 250
192 220 254
191 220 255
190 219 255
191 219 255
191 220 255
192 220 255
192 220 255
193 221 255
193 221 255
195 221 255
195 222 255
196 222 255
197 223 255
198 223 255
199 224 255
200 224 255
201 225 255
203 225 254
204 226 254
205 227 254
207 228 255
208 229 255
210 230 255
211 230 252
213 231 252
213 231 254
213 231 255
213 231 255
213 231 255
213 231 255
213 231 255
213 231 255
213 231 255
213 231 255
213 231 255
213 231 255
213 231 255
213 231 255
213 231 255
213 231 255
213 231 255
213 231 255
213 231 255
213 231 255
213 231 255
213 231 255
213 231 255
212 231 255
212 231 255
212 231 255
212 231 255
212 231 255
212 231 255
212 231 255
212 231 255
212 231 255
212 231 255
212 231 255
212 231 255
212 231 255
212 231 255
212 231 255
212 231 255
212 231 255
212 231 255
212 231 255
212 230 255
212 230 255
212 230 255
212 230 255
212 230 255
212 230 255
212 230 255
212 230 255
197 216 245
127 152 203
71 108 182
71 108 180
70 107 178
71 108 178
71 108 178
71 108 181
71 108 176
71 108 181
71 108 179
71 108 178
70 107 174
70 107 173
70 107 177
71 108 176
70 107 174
71 108 180
71 108 182
71 108 178
71 108 176
71 108 178
70 107 175
70 107 173
71 108 175
70 107 177
72 108 177
71 107 170
70 107 174
71 108 180
71 108 178
70 106 176
71 108 178
71 108 175
71 108 179
71 107 173
71 107 175
70 107 175
71 107 174
72 109 179
71 108 180
70 107 172
70 106 174
70 107 173
71 108 178
70 107 173
70 106 177
70 106 175
70 107 176
70 107 178
70 106 172
70 106 176
70 107 182
70 106 179
127 151 200
197 216 245
212 230 255
212 230 255
212 230 255
212 230 255
212 230 255
212 230 255
212 230 255
212 230 255
212 231 255
212 231 255
212 231 255
212 231 255
212 231 255
212 231 255
212 231 255
212 231 255
212 231 255
212 231 255
212 231 255
212 231 255
212 231 255
212 231 255
212 231 255
212 231 255
212 231 255
212 231 255
212 231 255
212 231 255
213 231 255
213 231 255
213 231 255
213 231 255
213 231 255
213 231 255
213 231 255
213 231 255
213 231 255
213 231 255
213 231 255
213 231 255
213 231 255
213 231 255
213 231 255
213 231 255
213 231 255
213 231 255
213 231 255
213 231 255
202 217 236
160 163 144
147 144 99
147 145 100
137 135 94
149 148 103
141 139 96
152 149 104
158 156 108
153 152 107
149 148 103
151 150 105
149 148 103
150 149 104
154 153 106
158 158 110
155 154 107
158 156 109
155 154 107
161 160 112
155 154 108
158 157 109
156 155 108
160 158 111
166 164 115
157 155 108
156 154 107
164 162 113
156 154 107
163 160 111
164 162 113
156 154 107
161 159 111
157 155 108
163 162 112
165 162 112
165 163 113
167 165 114
166 164 113
163 160 111
162 160 111
162 159 110
165 163 113
169 167 115
167 163 112
165 162 112
166 163 112
166 163 112
168 165 114
171 168 116
167 164 113
162 160 111
165 163 113
171 169 116
164 161 111
169 167 115
165 163 112
162 160 111
169 166 115
171 167 114
168 164 113
173 168 115
168 164 113
167 164 112
164 160 108
174 170 113
165 161 110
166 163 111
166 164 113
166 163 110
169 166 113
164 161 111
171 167 111
170 165 111
163 159 108
162 159 109
165 160 110
163 161 107
164 161 108
168 165 112
164 160 108
159 156 106
166 163 111
164 161 108
162 159 107
166 162 110
164 160 109
166 162 108
166 162 109
156 153 102
169 165 110
162 159 105
166 162 109
165 162 106
167 162 108
169 164 111
169 164 109
159 155 103
168 164 108
170 164 109
164 160 104
169 164 110
153 150 98
167 163 108
158 154 102
164 161 107
162 158 104
168 164 108
159 155 104
159 156 104
157 154 101
160 156 102
154 150 97
155 151 99
156 152 98
165 160 104
150 146 91
160 156 104
162 157 103
157 153 103
154 150 96
157 153 101
147 143 91
151 147 97
210 229 255
210 229 255
209 229 255
209 229 255
208 229 255
208 229 255
208 228 255
208 228 255
207 228 255
206 228 255
206 228 255
206 227 255
205 227 255
205 227 255
205 227 255
205 227 255
204 226 255
204 226 255
204 226 255
203 226 255
202 225 255
203 226 255
202 225 255
201 225 255
201 225 255
201 225 255
200 224 255
200 224 255
200 224 255
199 224 255
202 225 255
202 225 250
205 227 253
205 226 251
204 225 247
204 226 250
204 225 247
205 226 251
205 226 251
205 226 246
206 227 251
203 224 244
205 226 251
205 226 248
204 226 247
204 226 251
205 226 248
206 227 250
205 226 247
207 227 252
205 226 248
204 225 242
204 225 247
201 223 239
203 225 246
202 225 248
201 223 237
202 224 246
201 223 236
201 223 239
202 225 247
200 222 235
202 224 245
202 224 245
202 224 245
200 223 237
201 223 244
201 223 239
201 223 240
201 223 241
200 222 235
201 223 239
200 223 241
200 222 236
201 223 241
199 221 236
200 222 237
200 222 239
201 224 244
200 223 241
200 223 240
201 224 246
200 223 240
199 222 235
200 223 242
199 223 244
201 224 246
201 225 252
201 224 246
201 224 242
201 224 245
202 224 246
198 222 242
201 224 251
200 223 247
199 223 248
201 224 251
199 223 250
199 223 246
199 223 246
197 222 247
193 221 255
191 219 254
191 219 255
192 220 255
192 220 255
193 220 255
193 221 255
194 221 255
195 222 255
196 222 255
196 222 255
197 223 255
199 224 255
199 224 255
201 225 255
203 226 255
203 226 255
205 227 255
207 228 255
208 228 255
210 229 255
212 230 255
212 230 253
214 231 255
213 231 255
213 231 255
213 231 255
213 231 255
213 231 255
213 231 255
213 231 255
213 231 255
213 231 255
213 231 255
213 231 255
213 231 255
213 231 255
213 231 255
213 231 255
213 231 255
213 231 255
213 231 255
213 231 255
213 231 255
213 231 255
213 231 255
213 231 255
213 231 255
213 231 255
213 231 255
213 231 255
212 231 255
212 231 255
212 231 255
212 231 255
212 231 255
212 231 255
212 231 255
212 231 255
212 231 255
212 231 255
212 231 255
212 231 255
212 231 255
212 231 255
212 231 255
212 231 255
212 231 255
212 231 255
207 226 251
163 184 222
85 118 181
71 108 176
71 108 183
71 108 177
70 107 176
71 108 177
71 108 181
71 107 174
70 107 177
70 107 178
71 108 177
71 107 173
71 108 178
70 107 174
71 108 181
71 108 179
71 109 182
72 108 178
71 108 177
70 107 170
71 108 177
71 108 177
70 107 179
70 107 172
71 108 175
71 107 175
71 108 180
70 107 175
71 107 170
71 107 173
71 108 172
70 107 175
71 108 180
71 108 178
70 106 174
71 107 173
71 108 177
70 107 172
72 108 179
70 107 172
69 106 172
71 108 176
70 107 172
70 107 171
71 108 176
71 107 175
71 107 174
70 107 176
71 107 171
70 107 174
70 107 176
70 106 177
70 107 177
70 106 177
71 107 180
76 110 176
170 190 226
210 229 254
212 231 255
212 231 255
212 231 255
212 231 255
212 231 255
212 231 255
212 231 255
212 231 255
212 231 255
212 231 255
212 231 255
212 231 255
212 231 255
212 231 255
212 231 255
212 231 255
212 231 255
212 231 255
213 231 255
213 231 255
213 231 255
213 231 255
213 231 255
213 231 255
213 231 255
213 231 255
213 231 255
213 231 255
213 231 255
213 231 255
213 231 255
213 231 255
213 231 255
213 231 255
213 231 255
213 231 255
213 231 255
213 231 255
213 231 255
213 231 255
213 231 255
213 231 255
213 231 255
213 231 255
213 231 255
187 197 203
140 138 100
142 139 96
141 140 97
140 137 95
145 143 99
155 152 106
145 144 101
144 143 100
150 149 104
157 156 109
146 145 101
153 151 105
158 156 109
159 157 110
149 148 103
150 150 105
151 150 105
150 148 103
158 157 110
153 152 106
148 147 103
158 157 110
163 161 112
159 158 110
154 152 105
162 160 111
165 163 113
165 163 114
164 162 113
165 162 112
166 164 114
156 154 107
165 162 112
169 167 115
165 163 114
162 159 110
165 163 113
166 163 112
166 164 114
166 164 113
162 160 111
172 168 116
170 167 115
167 164 113
169 167 115
171 168 116
171 169 116
172 168 115
165 162 110
170 166 115
170 167 115
165 162 111
165 163 113
167 164 113
168 164 113
170 168 115
162 159 108
166 162 110
170 166 114
165 161 110
166 163 112
169 166 114
167 163 111
171 167 113
176 172 116
169 165 114
168 164 111
165 162 110
173 170 117
175 172 118
162 157 106
169 166 113
167 163 111
173 170 116
167 164 111
171 167 111
170 166 111
163 160 108
170 166 113
161 157 105
164 160 108
166 163 111
165 161 108
167 163 110
160 156 106
163 160 108
165 161 108
172 167 111
163 160 110
171 167 112
157 153 101
166 162 109
170 164 108
162 158 106
167 162 110
170 165 111
163 159 104
165 161 107
163 159 105
154 151 101
162 158 104
159 155 102
161 158 101
162 159 105
165 161 106
157 153 104
159 155 99
164 159 106
163 159 106
161 156 102
165 161 108
162 158 105
155 151 97
164 159 104
158 154 103
156 151 99
157 154 101
153 149 99
154 150 96
150 147 96
152 148 96
150 147 97
155 151 98
155 151 96
210 229 255
209 229 255
209 229 255
209 229 255
208 229 255
208 228 255
207 228 255
207 228 255
207 228 255
206 228 255
206 227 255
206 227 255
205 227 255
205 227 255
205 227 255
205 227 255
204 226 255
204 226 255
203 226 255
203 226 255
202 225 255
202 225 255
202 225 255
201 225 255
201 225 255
201 225 255
200 224 255
201 224 254
202 225 255
205 226 247
205 226 248
206 227 251
205 226 248
205 226 250
206 227 254
205 226 246
205 226 250
207 227 253
206 227 248
206 227 251
206 227 251
203 225 242
206 227 248
204 226 248
207 227 245
207 227 252
205 227 252
204 226 246
205 226 251
203 224 239
202 224 241
201 223 239
203 224 242
203 225 245
202 224 242
204 226 247
203 224 241
202 223 237
203 225 245
203 225 246
204 226 250
203 225 247
204 225 247
203 225 245
202 224 237
202 224 239
202 224 239
203 225 248
202 224 241
202 224 241
201 223 239
203 224 242
203 225 247
203 225 246
202 225 247
201 223 237
203 225 250
201 224 240
202 224 247
203 225 248
202 224 245
199 222 239
199 222 232
202 225 250
201 224 242
200 222 239
200 223 246
201 223 240
198 221 232
198 222 240
200 223 246
201 223 239
200 223 244
202 224 246
202 225 251
201 224 247
203 225 247
199 223 245
202 225 253
201 224 252
199 222 242
198 222 252
197 222 250
194 221 253
193 221 255
191 220 255
192 220 255
192 220 255
193 221 255
194 221 255
195 221 255
195 222 255
197 222 255
197 223 255
198 223 255
200 224 255
201 224 255
202 225 255
203 226 255
203 226 255
207 228 255
208 228 255
209 229 255
212 230 254
212 230 254
214 231 253
214 232 255
214 231 255
214 231 255
214 231 255
214 231 255
213 231 255
213 231 255
213 231 255
213 231 255
213 231 255
213 231 255
213 231 255
213 231 255
213 231 255
213 231 255
213 231 255
213 231 255
213 231 255
213 231 255
213 231 255
213 231 255
213 231 255
213 231 255
213 231 255
213 231 255
213 231 255
213 231 255
213 231 255
213 231 255
213 231 255
213 231 255
213 231 255
213 231 255
212 231 255
212 231 255
212 231 255
212 231 255
212 231 255
212 231 255
212 231 255
212 231 255
212 231 255
212 231 255
201 220 247
130 154 204
70 107 180
70 107 176
70 108 178
71 108 178
71 108 178
70 107 178
70 107 174
71 108 182
71 108 178
71 108 177
71 107 174
70 106 170
71 108 174
69 106 169
71 107 171
70 107 176
71 108 178
71 108 176
71 107 170
71 108 179
70 107 171
71 107 171
71 108 178
70 107 168
70 107 172
71 108 177
71 108 177
71 108 174
71 108 174
70 107 177
70 107 173
71 107 171
70 107 173
70 107 175
70 107 176
70 106 168
72 109 178
71 107 176
70 106 169
71 108 178
71 108 176
71 108 180
70 106 169
70 107 176
70 106 168
70 107 172
70 107 174
71 107 176
72 108 178
69 106 172
71 107 176
70 106 172
70 106 172
70 106 173
70 107 175
69 105 171
70 106 177
70 106 173
118 143 194
199 218 247
212 231 255
212 231 255
212 231 255
212 231 255
212 231 255
212 231 255
212 231 255
212 231 255
212 231 255
212 231 255
213 231 255
213 231 255
213 231 255
213 231 255
213 231 255
213 231 255
213 231 255
213 231 255
213 231 255
213 231 255
213 231 255
213 231 255
213 231 255
213 231 255
213 231 255
213 231 255
213 231 255
213 231 255
213 231 255
213 231 255
213 231 255
213 231 255
213 231 255
213 231 255
213 231 255
213 231 255
213 231 255
213 231 255
214 231 255
214 231 255
214 231 255
214 231 255
213 231 255
167 174 170
137 135 93
147 145 100
149 147 102
142 141 98
147 145 101
143 142 99
145 144 101
143 142 99
152 151 105
153 152 106
147 146 102
157 156 109
157 156 110
154 153 107
149 148 103
146 145 102
152 151 106
158 157 110
156 154 108
156 154 107
164 162 113
159 158 110
161 160 112
155 154 107
169 166 115
158 156 109
154 153 108
164 161 112
159 157 109
162 161 112
165 163 114
163 161 112
167 165 115
162 160 111
165 163 113
163 160 111
167 165 114
170 167 116
162 160 111
168 166 115
159 158 110
170 167 115
174 172 119
165 163 113
159 157 108
165 162 110
172 169 116
169 166 115
169 166 114
168 166 115
171 168 115
171 167 114
164 160 110
172 169 116
166 163 112
167 165 114
169 167 115
165 162 111
167 164 112
169 166 113
163 161 111
167 163 112
162 159 109
165 163 111
173 169 113
178 173 118
167 164 113
164 160 109
173 170 115
164 160 109
161 158 107
169 166 109
167 163 111
173 169 115
169 166 113
171 167 114
172 168 112
173 169 115
168 165 112
166 163 110
173 169 115
154 151 101
166 163 110
165 160 107
157 154 104
171 166 111
168 165 111
167 163 110
175 171 115
156 152 100
173 169 111
160 156 104
168 164 111
159 156 104
158 155 101
157 152 101
159 155 102
165 161 105
161 156 105
161 158 103
165 161 108
163 158 106
158 155 105
159 154 104
163 159 105
165 161 106
162 158 104
157 153 99
166 162 108
164 160 107
156 152 99
152 149 98
162 157 104
160 155 103
159 156 103
164 160 102
161 157 103
152 148 93
146 141 93
166 162 106
158 154 103
157 152 99
159 155 101
156 153 101
158 154 100
210 229 255
209 229 255
209 229 255
208 229 255
208 228 255
208 228 255
207 228 255
207 228 255
207 228 255
206 228 255
206 227 255
206 227 255
205 227 255
205 227 255
204 227 255
204 226 255
204 226 255
203 226 255
203 226 255
203 226 255
202 225 255
202 225 255
202 225 255
201 225 255
202 225 255
202 225 255
205 226 252
206 227 248
204 225 246
207 227 251
207 227 251
206 227 252
206 227 248
207 227 248
206 226 245
208 228 252
207 228 253
206 227 251
208 229 254
206 226 245
206 226 251
206 227 245
208 228 252
208 228 252
206 227 252
204 225 242
203 225 242
203 225 242
203 225 242
204 225 246
204 225 245
204 225 244
204 225 246
203 225 241
204 226 247
203 224 237
203 225 244
202 224 242
204 226 246
202 224 239
203 224 241
203 225 246
204 225 245
204 226 246
204 225 244
202 224 240
204 225 248
203 224 242
205 226 251
204 225 247
202 224 247
204 225 241
203 224 242
202 224 242
204 225 245
202 224 241
203 225 245
204 225 247
202 224 239
203 224 241
203 225 244
202 225 247
201 223 245
201 224 242
203 225 248
199 222 237
202 225 248
200 223 239
201 224 242
202 224 244
200 223 245
201 224 246
201 223 244
200 223 240
199 222 241
201 223 242
202 225 250
201 224 247
202 224 247
201 225 251
201 224 247
198 222 244
200 223 247
200 223 251
200 224 251
196 222 250
193 220 253
192 220 255
192 220 255
193 220 255
194 221 255
194 221 255
195 222 255
196 222 255
197 222 255
198 223 255
199 224 255
200 224 255
201 225 255
203 226 255
204 226 255
205 227 255
207 228 255
210 229 255
210 230 255
213 231 252
213 231 255
214 232 255
214 232 255
214 232 255
214 232 255
214 232 255
214 231 255
214 231 255
214 231 255
214 231 255
214 231 255
213 231 255
213 231 255
213 231 255
213 231 255
213 231 255
213 231 255
213 231 255
213 231 255
213 231 255
213 231 255
213 231 255
213 231 255
213 231 255
213 231 255
213 231 255
213 231 255
213 231 255
213 231 255
213 231 255
213 231 255
213 231 255
213 231 255
213 231 255
213 231 255
213 231 255
213 231 255
213 231 255
213 231 255
213 231 255
213 231 255
213 231 255
177 197 233
80 114 180
70 107 175
71 108 182
71 108 176
71 108 178
71 108 179
71 108 180
70 107 175
71 107 174
71 108 177
71 108 176
70 107 173
71 108 178
71 107 172
70 107 170
70 106 167
70 107 170
70 106 172
70 107 172
70 107 173
70 106 168
70 107 166
71 108 176
71 107 174
71 107 170
71 108 175
70 107 177
71 108 176
70 107 170
71 107 175
70 107 170
70 106 168
70 106 168
71 108 178
71 107 174
71 107 173
72 108 179
71 107 175
70 106 168
70 107 169
71 107 175
71 107 172
70 106 170
70 107 174
71 107 176
71 107 173
70 107 174
71 107 178
70 107 175
70 107 177
70 106 173
70 106 171
70 106 174
70 107 177
70 107 174
71 108 182
70 107 175
70 106 176
70 105 173
69 105 168
69 104 172
94 124 184
185 204 234
213 231 255
213 231 255
213 231 255
213 231 255
213 231 255
213 231 255
213 231 255
213 231 255
213 231 255
213 231 255
213 231 255
213 231 255
213 231 255
213 231 255
213 231 255
213 231 255
213 231 255
213 231 255
213 231 255
213 231 255
213 231 255
213 231 255
213 231 255
213 231 255
213 231 255
213 231 255
213 231 255
213 231 255
213 231 255
213 231 255
213 231 255
214 231 255
214 231 255
214 231 255
214 231 255
214 231 255
214 232 255
214 232 255
214 232 255
214 232 255
204 220 240
158 163 148
142 139 96
147 144 99
149 146 100
136 134 93
152 150 104
141 141 98
141 139 97
148 148 104
154 154 107
156 155 108
151 150 106
155 153 107
149 148 104
154 151 105
161 159 111
153 152 107
162 160 111
162 161 113
155 154 109
164 162 113
155 154 108
163 161 113
158 157 109
164 163 113
156 154 107
161 159 109
158 156 109
170 167 116
162 161 112
159 157 109
159 157 109
163 162 112
162 159 110
160 158 110
166 164 113
167 165 115
168 165 114
168 166 115
170 167 116
166 163 112
170 167 115
168 165 114
165 162 112
172 169 116
170 166 115
173 170 116
171 168 115
171 169 117
174 171 117
166 164 112
173 170 117
169 166 113
167 164 112
170 168 114
168 165 114
166 163 112
165 162 111
169 165 112
175 171 117
168 165 113
169 166 113
168 165 110
168 164 113
171 168 114
173 169 113
171 168 115
167 163 110
173 169 115
166 162 111
171 167 113
171 167 113
174 171 117
170 167 113
173 169 115
169 165 112
170 166 111
169 165 112
168 164 110
166 163 109
167 164 110
166 162 111
164 161 108
165 162 110
169 164 112
169 166 112
171 168 111
166 162 109
173 168 111
164 160 106
168 163 108
172 168 111
167 163 109
167 162 108
166 162 108
159 154 101
161 157 101
168 163 106
169 164 110
160 155 104
162 159 104
171 166 112
163 159 104
168 164 109
170 165 109
168 163 108
161 157 104
163 159 104
158 153 99
166 162 107
161 158 105
159 155 100
157 154 102
158 154 100
157 153 100
160 156 103
160 156 102
163 158 101
161 157 106
165 160 104
167 162 106
158 154 102
164 159 106
164 159 104
162 159 104
158 154 98
139 135 89
210 229 255
209 229 255
209 229 255
209 229 255
208 228 255
208 228 255
207 228 255
207 228 255
206 228 255
206 228 255
206 227 255
206 227 255
205 227 255
205 227 255
205 227 255
204 226 255
204 226 255
204 226 255
203 226 255
203 226 255
203 226 255
202 225 255
202 225 255
203 226 252
206 227 252
207 227 251
206 227 250
207 227 246
206 226 248
207 227 251
208 228 248
208 228 253
207 227 248
206 227 248
206 227 247
205 226 252
208 228 252
207 227 248
207 227 252
208 228 248
207 227 248
204 225 241
204 225 241
204 225 241
202 223 235
204 226 245
204 225 242
203 224 236
205 226 246
205 226 246
204 225 244
203 225 240
206 226 245
206 226 247
204 225 245
204 225 245
205 226 247
205 226 248
205 226 248
202 224 237
204 225 244
204 225 244
204 226 245
204 225 241
204 226 246
205 226 245
205 225 242
204 225 245
206 227 252
204 225 244
205 226 245
204 225 241
204 225 244
204 226 246
203 224 242
205 226 248
203 225 245
203 224 240
204 226 250
204 226 251
205 226 247
203 225 248
205 227 252
202 225 246
203 225 248
202 225 247
203 225 245
202 225 247
202 225 246
203 225 250
202 224 245
202 224 240
201 223 245
201 223 242
201 224 245
200 223 244
200 223 242
199 222 240
200 223 244
201 223 244
203 225 250
202 225 252
201 224 250
199 223 246
202 225 251
199 223 242
202 225 252
198 223 252
194 221 254
192 220 255
192 220 255
193 221 255
194 221 255
195 222 255
195 222 255
196 222 255
198 223 255
199 223 255
200 224 255
201 225 255
203 226 255
204 226 255
206 227 255
207 228 255
209 229 255
211 230 255
211 230 250
211 230 251
214 232 255
214 232 255
214 232 255
214 232 255
214 232 255
214 232 255
214 232 255
214 232 255
214 232 255
214 232 255
214 232 255
214 231 255
214 231 255
214 231 255
214 231 255
214 231 255
213 231 255
213 231 255
213 231 255
213 231 255
213 231 255
213 231 255
213 231 255
213 231 255
213 231 255
213 231 255
213 231 255
213 231 255
213 231 255
213 231 255
213 231 255
213 231 255
213 231 255
213 231 255
213 231 255
213 231 255
213 231 255
213 231 255
211 229 254
158 180 219
70 107 177
70 107 178
71 108 183
69 106 170
70 107 173
71 108 178
70 107 176
71 108 175
70 107 173
71 108 176
71 108 171
71 108 172
71 108 175
71 107 170
71 107 173
70 107 168
71 107 172
69 106 163
71 108 175
70 106 167
71 107 168
72 108 176
70 107 171
70 107 174
71 108 175
70 106 166
71 108 174
71 108 174
70 107 175
71 107 172
70 106 170
71 108 178
71 108 177
71 107 172
71 107 169
69 106 167
71 108 177
70 106 175
70 107 173
70 107 170
71 107 174
70 107 177
71 108 178
70 107 168
71 108 176
71 107 172
70 107 174
70 106 166
70 107 173
70 106 163
70 107 175
71 107 172
70 106 173
70 107 172
70 106 172
70 106 172
70 107 175
70 106 172
70 106 173
70 106 174
70 105 167
70 106 171
68 105 171
69 104 172
161 182 221
212 230 254
213 231 255
213 231 255
213 231 255
213 231 255
213 231 255
213 231 255
213 231 255
213 231 255
213 231 255
213 231 255
213 231 255
213 231 255
213 231 255
213 231 255
213 231 255
213 231 255
213 231 255
213 231 255
213 231 255
213 231 255
213 231 255
213 231 255
214 231 255
214 231 255
214 231 255
214 231 255
214 231 255
214 232 255
214 232 255
214 232 255
214 232 255
214 232 255
214 232 255
214 232 255
214 232 255
214 232 255
214 232 255
198 212 229
149 150 120
128 126 87
146 144 100
147 146 101
147 146 102
147 147 103
145 144 100
148 147 103
151 149 105
149 148 104
156 154 107
149 149 104
156 156 109
155 154 108
157 155 108
154 152 106
152 151 107
160 159 110
155 153 107
162 160 111
160 158 110
156 155 108
153 151 106
157 156 110
167 164 114
163 161 111
155 154 107
169 166 115
168 165 114
164 162 112
161 159 110
165 164 114
168 167 116
169 167 115
169 167 116
160 158 109
169 166 115
172 169 117
168 165 114
171 167 116
171 168 116
164 162 112
165 162 112
165 163 113
171 167 114
167 164 113
168 165 113
173 170 117
168 164 111
165 162 112
170 167 115
171 168 115
168 164 113
170 166 113
172 170 117
172 169 115
172 168 115
175 172 116
176 173 118
170 166 113
168 165 114
178 174 118
166 162 111
171 167 115
162 158 108
171 168 113
171 168 114
169 165 111
170 166 111
164 160 108
175 170 115
174 170 115
169 165 111
172 169 116
163 161 109
168 164 111
163 160 107
168 163 110
169 166 111
170 165 108
175 170 115
165 162 108
169 164 108
169 165 111
168 164 111
166 161 108
166 162 109
172 168 113
170 165 108
163 159 106
175 170 115
173 168 113
168 164 107
166 163 109
168 163 110
160 157 104
162 158 104
169 165 110
164 160 106
157 154 103
165 161 106
169 165 109
164 158 103
160 156 102
156 153 99
164 159 106
169 164 110
168 162 108
166 162 106
166 162 106
161 157 101
163 158 101
167 163 108
166 161 105
160 156 101
166 161 106
158 155 104
162 158 102
160 156 103
160 156 99
163 159 104
161 156 101
157 152 101
158 153 98
160 155 101
148 145 96
152 146 96
151 147 95
209 229 255
209 229 255
209 229 255
208 229 255
208 228 255
208 228 255
207 228 255
207 228 255
207 228 255
206 228 255
206 227 255
206 227 255
205 227 255
205 227 255
205 227 255
204 226 255
204 226 255
204 226 255
204 226 255
203 226 255
203 226 255
203 226 252
205 226 247
206 227 247
207 227 248
207 227 251
207 227 247
206 227 250
206 226 247
208 228 250
208 228 252
207 227 251
208 228 253
207 227 250
206 226 246
207 228 251
207 227 251
208 228 251
206 226 248
204 224 236
205 225 242
205 226 244
204 225 241
203 224 235
205 226 242
205 225 240
205 226 241
204 225 240
205 226 248
204 225 240
205 226 247
205 226 244
204 225 242
207 227 248
205 226 247
206 226 245
205 226 247
206 226 246
206 227 248
206 226 246
205 226 246
206 226 247
206 226 245
206 227 250
202 224 240
205 226 247
204 225 246
205 226 246
204 225 244
206 226 246
205 226 244
204 226 248
205 226 247
205 226 251
204 225 246
205 226 246
205 226 246
205 226 246
205 226 250
205 226 247
204 225 245
204 226 248
203 225 244
204 226 248
204 225 246
204 226 246
205 226 250
203 224 245
204 225 242
203 225 247
204 225 248
202 224 246
201 223 239
202 225 246
203 225 245
202 224 244
201 224 245
202 224 250
201 224 245
199 222 233
200 223 241
200 223 244
204 226 253
201 224 247
203 225 252
201 224 248
203 225 247
201 223 245
201 224 251
198 222 248
196 222 255
192 220 255
193 221 255
194 221 255
195 221 255
196 222 255
197 222 255
198 223 255
198 223 255
200 224 255
202 225 255
202 225 255
204 226 255
205 227 255
207 228 255
208 228 255
211 230 255
211 230 252
212 230 250
214 231 253
214 232 255
214 232 255
214 232 255
214 232 255
214 232 255
214 232 255
214 232 255
214 232 255
214 232 255
214 232 255
214 232 255
214 232 255
214 232 255
214 232 255
214 232 255
214 232 255
214 231 255
214 231 255
214 231 255
214 231 255
214 231 255
213 231 255
213 231 255
213 231 255
213 231 255
213 231 255
213 231 255
213 231 255
213 231 255
213 231 255
213 231 255
213 231 255
213 231 255
213 231 255
213 231 255
211 229 254
131 154 200
71 108 178
71 107 173
70 107 175
72 108 179
71 108 177
71 107 175
71 108 175
70 107 176
70 107 176
71 107 173
70 107 170
70 107 171
70 107 169
70 107 173
71 107 172
71 107 167
70 107 170
72 108 178
72 109 180
70 107 172
71 108 174
70 107 171
71 107 171
70 107 171
71 107 170
71 108 175
70 107 173
71 107 175
71 108 177
70 107 173
71 107 172
70 107 170
70 107 172
70 106 169
71 107 172
70 106 167
71 107 176
70 107 173
71 107 171
70 106 164
71 108 178
70 106 169
70 106 170
70 107 174
70 106 168
70 107 173
71 107 171
69 106 168
70 106 170
70 106 166
70 107 174
70 107 173
71 107 172
70 105 166
70 106 169
69 105 171
69 106 171
70 106 173
71 107 173
70 106 170
69 105 165
70 107 174
70 106 174
69 105 172
70 106 173
70 106 176
130 153 198
210 228 253
213 231 255
213 231 255
213 231 255
213 231 255
213 231 255
213 231 255
213 231 255
213 231 255
213 231 255
213 231 255
213 231 255
213 231 255
213 231 255
213 231 255
214 231 255
214 231 255
214 231 255
214 231 255
214 231 255
214 232 255
214 232 255
214 232 255
214 232 255
214 232 255
214 232 255
214 232 255
214 232 255
214 232 255
214 232 255
214 232 255
214 232 255
214 232 255
214 232 255
214 232 255
214 232 255
180 190 195
136 134 96
144 141 97
142 139 95
135 133 93
154 152 106
146 145 101
142 140 97
148 147 102
149 148 103
146 145 103
148 147 103
150 149 105
158 156 108
150 149 106
163 160 111
156 155 108
144 143 101
157 155 108
157 156 109
161 159 111
160 158 110
157 155 109
157 155 108
164 161 111
151 150 106
160 159 111
157 154 107
159 158 111
167 165 114
163 161 112
166 164 114
166 163 113
167 164 114
160 158 110
159 157 109
170 167 115
162 160 111
161 159 110
166 163 113
171 167 115
166 163 113
176 173 119
169 167 116
167 164 112
175 171 117
167 164 114
168 164 113
172 168 116
170 167 114
168 165 113
174 170 116
166 162 111
170 167 115
162 158 106
173 170 117
171 168 115
171 167 113
168 165 112
170 166 113
169 165 113
174 170 116
171 168 113
173 168 115
171 167 113
170 167 115
166 163 109
172 169 115
172 167 113
171 167 115
166 163 109
168 165 112
176 172 115
171 167 113
167 163 111
172 168 114
169 166 111
168 164 107
169 166 111
174 169 113
172 167 111
167 163 107
167 163 110
170 166 108
173 169 112
171 166 108
172 169 113
169 166 112
166 162 108
168 164 106
170 167 112
162 159 106
168 164 111
169 165 106
165 162 108
171 166 107
168 164 110
168 164 109
165 161 107
164 160 105
162 157 106
160 156 101
164 160 104
164 160 103
165 160 106
168 163 107
163 158 106
164 159 101
166 161 105
162 158 104
164 160 106
165 159 106
164 159 103
161 157 100
161 157 101
159 154 98
159 154 101
156 153 102
156 152 99
165 161 105
155 151 99
156 152 99
166 161 108
165 161 104
154 150 98
158 154 97
162 158 104
155 151 102
153 150 99
161 155 99
209 229 255
209 229 254
209 229 255
208 229 255
208 229 255
208 228 255
207 228 255
207 228 255
207 228 255
206 227 255
206 228 255
206 227 255
205 227 255
205 227 255
205 227 255
204 227 255
204 226 255
204 226 255
203 226 255
204 226 255
206 227 250
208 228 251
208 228 251
209 229 251
208 228 251
208 228 253
208 228 248
207 227 246
208 228 248
207 228 250
207 227 247
207 227 250
207 227 248
208 228 251
208 228 248
208 228 250
206 226 242
206 226 242
205 225 240
205 226 244
206 226 244
206 226 245
205 225 239
206 226 242
206 226 247
205 226 241
207 227 246
206 226 248
205 226 245
205 226 242
206 227 248
207 228 251
207 227 247
206 227 246
206 226 242
208 228 251
204 225 244
207 227 250
205 225 242
204 225 239
206 226 242
206 227 246
206 226 242
203 223 233
207 227 246
207 228 251
207 227 248
203 224 241
206 226 247
206 226 246
206 227 250
205 226 245
206 227 248
205 226 246
207 227 251
206 227 247
206 227 252
204 225 242
204 225 241
205 225 241
204 225 246
205 226 244
205 226 242
204 225 244
203 224 240
207 228 254
206 227 250
204 225 239
203 225 246
205 226 245
203 225 244
203 225 244
203 225 245
202 224 244
204 226 250
202 224 244
204 225 245
203 226 252
201 224 244
201 223 242
200 223 237
200 223 239
200 223 240
201 224 248
202 224 244
203 225 250
204 226 251
201 224 242
201 224 250
200 224 247
202 225 254
199 223 252
195 221 254
193 221 255
194 221 255
195 221 255
196 222 255
197 222 255
198 223 255
199 224 255
200 224 255
201 225 255
203 226 255
204 226 255
205 227 255
207 228 255
209 229 255
210 230 255
212 230 254
212 230 251
214 232 254
214 232 255
214 232 255
214 232 255
214 232 255
214 232 255
214 232 255
214 232 255
214 232 255
214 232 255
214 232 255
214 232 255
214 232 255
214 232 255
214 232 255
214 232 255
214 232 255
214 232 255
214 232 255
214 232 255
214 232 255
214 232 255
214 232 255
214 232 255
214 231 255
214 231 255
214 231 255
214 231 255
214 231 255
214 231 255
213 231 255
213 231 255
213 231 255
213 231 255
207 225 251
129 153 199
71 108 177
71 108 178
71 107 175
70 107 172
71 107 172
71 107 171
71 108 174
71 107 175
71 108 176
70 107 173
70 107 171
70 107 169
71 107 170
71 107 172
71 107 172
70 106 166
70 107 177
70 107 172
71 108 176
70 107 171
70 106 166
71 107 170
71 107 174
69 106 165
70 107 171
71 108 173
71 107 173
71 107 171
71 107 166
71 107 173
71 107 172
71 107 169
72 108 178
71 107 168
70 106 164
71 107 170
70 107 166
70 107 169
70 107 169
70 106 165
70 107 171
70 107 175
70 107 170
71 107 176
71 107 172
70 107 171
72 108 176
71 108 179
70 106 175
69 105 160
70 106 171
69 105 163
71 107 170
70 107 173
71 107 173
70 106 166
71 106 170
71 107 175
69 105 167
69 104 162
70 106 169
69 105 173
70 105 172
70 106 173
69 105 173
69 104 169
69 104 169
69 105 175
121 145 197
208 226 251
213 231 255
213 231 255
213 231 255
213 231 255
214 231 255
214 231 255
214 231 255
214 231 255
214 231 255
214 231 255
214 232 255
214 232 255
214 232 255
214 232 255
214 232 255
214 232 255
214 232 255
214 232 255
214 232 255
214 232 255
214 232 255
214 232 255
214 232 255
214 232 255
214 232 255
214 232 255
214 232 255
214 232 255
214 232 255
214 232 255
214 232 255
214 232 255
214 232 255
186 198 209
133 131 91
136 134 93
152 149 103
144 143 99
143 141 98
146 144 101
142 141 98
148 146 102
150 148 103
145 144 101
147 146 102
142 142 101
156 156 110
149 148 104
153 152 107
152 151 106
157 156 109
149 147 103
159 157 110
159 157 110
156 155 109
162 161 112
165 164 115
152 151 105
163 160 111
159 156 108
160 158 109
164 161 111
158 156 109
165 162 111
165 163 113
159 156 107
162 159 109
170 167 116
169 165 114
162 160 111
165 163 113
168 165 114
164 161 110
169 166 115
170 166 114
167 164 114
171 169 117
172 169 116
169 167 115
173 169 116
166 163 112
174 170 117
175 171 116
171 168 115
173 169 116
171 168 115
174 171 118
168 165 113
170 166 113
173 168 111
172 168 114
171 168 115
169 166 111
170 167 113
170 166 111
172 168 115
173 169 113
170 166 112
173 169 113
171 167 112
175 170 115
173 169 113
171 167 110
172 168 113
173 168 111
170 166 111
174 170 115
174 171 116
172 168 111
165 161 109
172 168 113
163 159 108
170 168 114
167 163 108
171 168 113
170 167 113
169 166 111
171 167 110
175 171 114
173 168 110
171 166 111
170 167 112
170 165 111
173 168 112
172 168 113
165 161 106
171 167 110
167 165 109
167 163 107
170 166 112
166 161 105
174 169 111
169 165 111
163 158 103
166 162 106
169 164 108
167 163 107
170 165 109
170 166 108
162 158 104
166 161 105
162 158 102
171 166 106
161 158 104
164 160 106
168 163 108
161 157 101
161 156 100
156 152 99
154 151 96
163 158 100
171 166 112
165 160 106
165 161 104
164 160 103
167 161 103
163 159 105
159 154 100
159 154 101
160 155 101
163 159 104
160 156 100
163 159 103
156 152 97
209 229 255
209 229 255
209 229 255
209 229 255
208 229 255
208 228 255
207 228 255
207 228 255
207 228 255
207 228 255
206 227 255
206 227 255
205 227 255
205 227 255
205 227 255
204 227 255
204 227 255
204 226 255
206 227 254
206 226 245
208 228 253
209 228 252
208 228 248
207 228 251
208 227 246
209 229 251
208 227 246
208 227 245
208 228 248
207 226 239
207 227 246
207 226 244
209 228 251
207 227 246
207 227 250
205 225 240
206 226 244
206 226 242
205 226 242
206 227 246
207 227 245
205 225 237
207 227 247
207 227 246
207 227 251
207 227 244
206 226 244
207 227 245
206 227 248
206 226 244
207 227 242
206 226 244
207 227 250
207 227 247
207 227 247
206 226 245
207 227 246
209 228 251
206 226 241
209 228 250
207 227 247
206 226 246
208 227 246
207 227 248
207 227 251
206 226 244
206 227 250
205 226 244
206 227 246
207 227 250
205 225 245
207 227 248
207 227 251
207 227 247
204 225 240
207 227 246
206 227 245
206 227 248
204 225 241
206 226 247
205 226 247
206 227 248
205 226 250
204 225 244
206 226 247
206 227 250
205 226 244
204 226 247
206 226 246
204 225 246
205 226 251
205 226 247
204 225 242
204 225 245
203 225 247
203 225 246
204 225 247
202 223 237
204 226 252
201 223 239
202 224 242
202 225 247
203 225 247
201 223 239
201 224 245
202 224 244
202 224 248
201 224 245
203 225 248
202 224 248
202 225 247
203 226 251
199 222 239
199 223 253
194 221 252
194 221 255
195 221 255
196 222 255
197 222 255
197 223 255
199 224 255
200 224 255
201 225 255
202 225 255
204 226 255
205 227 255
208 229 255
210 229 255
210 229 255
211 230 253
211 230 250
214 232 254
215 232 255
215 232 255
215 232 255
215 232 255
215 232 255
214 232 255
214 232 255
214 232 255
214 232 255
214 232 255
214 232 255
214 232 255
214 232 255
214 232 255
214 232 255
214 232 255
214 232 255
214 232 255
214 232 255
214 232 255
214 232 255
214 232 255
214 232 255
214 232 255
214 232 255
214 232 255
214 232 255
214 232 255
214 232 255
214 232 255
214 232 255
208 226 252
106 133 190
71 108 178
71 108 178
71 108 171
70 107 171
71 108 177
71 108 177
70 107 170
71 108 174
70 106 161
71 107 172
71 107 174
71 108 173
70 107 167
70 107 168
69 106 164
70 106 169
70 107 173
70 106 162
71 108 174
71 108 173
70 107 174
70 106 170
70 107 168
70 107 171
71 107 167
71 108 175
71 107 169
71 107 172
71 107 170
71 107 171
69 106 166
71 108 173
70 106 164
70 107 170
71 107 171
71 107 173
71 107 165
71 107 175
71 107 171
71 108 173
69 105 168
70 106 169
70 106 166
71 108 169
71 107 175
70 106 167
71 107 174
71 107 170
71 107 169
70 107 170
71 107 170
69 106 168
68 104 165
70 107 171
69 105 166
71 106 162
69 105 166
71 107 169
69 106 171
70 106 171
70 106 171
70 106 171
70 106 174
70 105 166
69 105 168
69 105 168
69 105 172
69 105 175
69 105 171
69 105 172
120 144 192
209 227 252
214 231 255
214 232 255
214 232 255
214 232 255
214 232 255
214 232 255
214 232 255
214 232 255
214 232 255
214 232 255
214 232 255
214 232 255
214 232 255
214 232 255
214 232 255
214 232 255
214 232 255
214 232 255
214 232 255
214 232 255
214 232 255
214 232 255
214 232 255
214 232 255
214 232 255
214 232 255
214 232 255
215 232 255
215 232 255
215 232 255
214 232 255
175 184 188
135 132 90
139 137 96
148 144 99
142 140 98
135 133 94
154 152 107
154 152 106
147 146 103
143 142 99
149 148 104
145 144 102
150 149 105
151 151 107
161 160 112
158 156 108
157 156 110
153 151 105
155 153 108
158 158 111
156 155 108
160 158 110
157 157 110
146 145 102
165 163 114
160 159 110
167 166 115
163 160 111
160 157 109
162 161 112
159 157 110
162 160 111
166 163 112
168 165 115
163 162 112
170 168 116
167 164 113
164 161 112
163 161 112
172 168 117
169 167 114
175 171 118
173 170 116
169 166 113
173 169 115
172 168 114
176 173 119
173 170 117
172 168 113
170 167 115
166 163 112
169 166 113
173 169 115
166 163 111
174 170 117
172 167 113
175 171 115
170 165 110
177 173 118
174 170 116
179 175 120
173 169 115
169 165 111
172 168 114
167 163 111
165 162 108
173 169 115
171 166 111
172 168 114
172 168 113
170 166 111
178 173 116
172 168 113
174 170 115
175 172 116
176 171 115
175 170 114
174 170 115
171 166 113
171 167 113
165 161 106
171 167 113
173 167 110
167 162 107
167 164 109
169 165 110
168 164 111
171 166 111
173 169 113
166 162 108
174 169 114
169 163 105
171 167 109
170 165 111
168 164 108
162 157 103
168 164 109
171 167 111
170 166 111
166 162 108
172 167 110
172 167 113
167 163 106
168 163 108
168 163 108
169 165 104
166 162 109
167 163 108
161 157 101
166 161 101
165 161 102
163 159 105
166 161 105
159 156 103
159 155 101
165 162 105
158 154 102
163 160 104
162 158 103
165 160 106
154 150 95
159 155 101
164 160 101
167 162 104
164 160 105
157 151 96
161 157 103
158 154 99
158 153 99
159 154 100
159 155 101
165 160 102
210 229 255
209 229 255
209 229 255
209 229 255
208 229 255
208 228 255
207 228 255
207 228 255
207 228 255
207 228 255
206 228 255
206 227 255
206 227 255
205 227 255
205 227 255
205 227 255
206 227 254
207 227 251
208 228 251
208 228 247
208 228 246
208 228 248
210 229 253
209 228 248
210 229 252
209 228 248
208 227 247
209 229 251
209 228 250
209 229 251
209 229 251
209 229 250
208 227 244
207 227 245
204 225 236
204 224 233
205 225 237
207 227 245
205 225 236
205 225 237
204 225 235
206 226 240
208 228 250
206 226 242
206 226 245
207 227 244
207 227 242
207 227 247
205 225 241
208 227 246
207 227 246
207 226 245
207 227 244
205 225 246
208 228 246
205 225 244
207 226 245
208 228 248
205 225 240
206 227 245
204 224 239
207 227 246
208 227 245
208 228 250
207 227 248
205 225 244
206 227 247
209 228 250
209 228 250
206 226 245
208 227 246
208 228 247
206 226 242
207 227 244
208 228 253
206 226 245
206 226 242
206 226 246
208 228 250
207 227 248
206 227 246
205 226 246
206 226 247
206 227 246
207 227 247
208 228 252
207 227 247
205 226 245
205 227 250
205 226 245
204 225 247
206 226 247
206 227 251
203 224 244
206 227 247
204 225 244
204 225 245
204 225 247
203 224 241
203 225 246
203 225 245
204 225 248
203 225 245
203 225 250
201 224 242
202 224 241
201 224 241
202 224 240
201 224 245
204 226 250
203 225 247
202 224 242
201 224 247
202 224 248
202 224 247
197 222 251
194 221 255
195 222 255
196 222 255
197 222 255
198 223 255
198 223 255
200 224 255
201 225 255
202 225 255
204 226 255
206 227 255
207 228 255
209 229 254
209 229 254
212 231 255
214 232 254
215 232 254
215 232 255
215 232 255
215 232 255
215 232 255
215 232 255
215 232 255
215 232 255
215 232 255
215 232 255
215 232 255
215 232 255
214 232 255
214 232 255
214 232 255
214 232 255
214 232 255
214 232 255
214 232 255
214 232 255
214 232 255
214 232 255
214 232 255
214 232 255
214 232 255
214 232 255
214 232 255
214 232 255
214 232 255
214 232 255
205 223 249
114 140 191
70 107 177
71 107 175
71 108 178
70 107 173
70 107 168
70 107 171
71 107 170
70 107 169
71 108 174
71 108 177
71 108 175
70 107 175
71 107 172
70 107 168
70 106 161
71 108 176
70 107 172
71 107 170
70 107 172
71 107 170
71 107 171
70 106 167
70 107 174
71 108 175
69 106 157
70 107 170
70 106 168
70 107 170
70 107 168
70 106 164
70 106 161
70 107 168
70 107 167
70 107 166
69 106 167
70 107 169
70 106 167
72 109 178
70 106 169
70 106 162
70 106 166
69 105 163
70 107 162
71 107 173
71 108 176
71 107 173
69 105 165
70 106 168
71 107 167
71 107 168
71 107 175
69 106 167
70 107 168
70 107 169
70 106 165
71 107 167
70 106 170
70 106 163
70 106 171
70 106 167
71 107 171
71 107 173
69 105 171
70 106 169
71 107 178
70 106 168
70 105 168
69 104 167
69 104 166
70 105 171
67 101 160
68 103 168
108 134 187
210 228 253
214 232 255
214 232 255
214 232 255
214 232 255
214 232 255
214 232 255
214 232 255
214 232 255
214 232 255
214 232 255
214 232 255
214 232 255
214 232 255
214 232 255
214 232 255
214 232 255
214 232 255
214 232 255
215 232 255
215 232 255
215 232 255
215 232 255
215 232 255
215 232 255
215 232 255
215 232 255
215 232 255
215 232 255
215 232 255
173 181 182
138 135 93
145 143 98
135 132 91
145 142 98
146 145 101
144 142 99
141 139 98
147 146 101
149 149 105
140 140 99
154 153 108
155 154 108
158 157 110
156 155 109
152 151 106
149 148 105
159 157 109
159 158 111
153 152 107
161 158 110
149 148 105
157 156 109
158 156 108
155 154 107
168 166 115
164 162 112
166 164 114
158 157 109
165 162 113
161 160 112
156 154 107
161 156 107
168 166 114
167 165 113
159 157 109
168 166 115
168 165 111
166 163 113
169 167 114
167 164 113
178 174 117
173 170 116
171 166 112
171 167 114
176 172 117
168 165 114
164 160 110
171 168 115
172 169 115
168 165 111
170 167 113
170 166 113
171 167 114
178 174 118
169 167 112
168 165 110
171 167 114
172 169 114
173 170 116
172 168 113
179 175 119
175 171 114
177 173 118
175 171 115
175 170 115
176 173 117
165 161 109
172 169 115
170 166 111
172 168 112
173 169 113
173 169 113
171 167 113
172 167 111
170 166 110
175 168 113
173 168 113
176 172 115
178 173 115
171 167 112
178 174 117
171 167 111
175 171 114
177 172 116
171 167 110
170 166 111
165 162 106
168 164 108
171 167 111
175 170 114
173 168 112
166 162 109
168 163 108
168 164 108
172 167 111
174 169 111
166 161 104
173 168 110
166 161 102
162 158 101
171 166 111
163 159 106
168 162 104
165 161 103
162 158 102
162 158 101
161 156 100
171 165 106
161 156 100
173 167 110
169 165 107
165 161 102
166 162 101
172 166 111
164 160 102
163 160 105
163 158 102
165 161 100
159 155 101
171 166 109
161 157 101
160 155 101
162 158 104
162 158 103
162 157 99
167 163 105
158 154 99
163 158 101
155 150 94
164 159 102
162 158 101
164 157 98
209 229 255
209 229 255
209 229 255
208 229 255
208 229 255
208 228 255
208 228 255
208 228 255
207 228 255
207 228 255
206 228 255
206 227 255
206 227 255
205 227 255
206 227 255
207 227 251
209 228 250
210 229 252
209 228 250
209 229 252
210 229 251
210 229 251
209 228 251
209 228 250
210 229 254
210 229 248
210 229 252
210 229 251
210 229 251
209 228 250
208 228 246
207 227 245
206 226 241
208 227 246
208 227 244
207 227 244
207 226 237
208 228 248
206 226 240
207 226 240
207 226 242
209 228 247
207 227 245
209 229 250
209 228 246
207 227 242
206 226 237
208 227 242
207 227 242
209 228 246
207 227 242
206 226 241
208 228 247
209 228 251
209 229 253
207 226 247
207 227 246
208 228 248
209 228 248
207 226 237
207 227 248
207 227 245
207 226 244
208 228 251
207 227 245
208 228 248
210 229 253
207 226 246
208 227 245
208 227 248
208 228 251
209 228 245
207 226 242
207 227 248
206 227 248
207 227 244
207 227 246
207 227 250
208 228 250
208 228 251
205 225 242
205 226 242
207 227 242
207 227 245
207 227 251
205 226 240
205 226 245
208 228 252
207 227 248
205 226 244
206 226 247
207 227 245
205 226 247
207 227 250
206 227 247
206 227 250
205 226 246
203 224 233
205 226 247
205 226 246
204 226 247
206 227 250
203 224 240
205 226 251
203 224 241
204 225 248
203 225 242
202 224 242
203 225 247
201 223 237
202 224 241
204 226 252
204 226 248
203 225 251
202 225 247
202 224 246
200 224 252
196 222 255
195 222 255
196 222 255
197 223 255
198 223 255
199 224 255
200 224 255
202 225 255
202 225 255
204 226 255
205 227 255
207 228 254
208 228 254
211 230 255
213 231 255
213 231 255
215 232 255
215 232 255
215 232 255
215 232 255
215 232 255
215 232 255
215 232 255
215 232 255
215 232 255
215 232 255
215 232 255
215 232 255
215 232 255
215 232 255
215 232 255
215 232 255
215 232 255
215 232 255
215 232 255
214 232 255
214 232 255
214 232 255
214 232 255
214 232 255
214 232 255
214 232 255
214 232 255
214 232 255
204 222 248
120 145 196
71 107 175
70 107 175
70 107 174
71 107 177
70 107 169
71 108 176
71 107 173
70 106 169
71 107 175
70 106 168
71 108 174
71 107 169
70 107 166
71 107 172
70 107 173
70 106 168
71 107 168
71 107 170
71 107 171
71 107 168
72 108 176
70 106 168
71 108 174
72 108 172
69 106 158
70 107 170
70 107 166
71 108 173
70 106 166
71 107 165
70 107 170
70 106 168
70 107 165
71 107 177
71 107 165
71 107 170
71 107 168
71 107 174
70 106 165
70 107 168
69 105 160
70 107 165
70 107 174
70 107 173
70 107 171
70 106 165
71 108 171
70 106 169
70 107 169
70 107 172
70 106 167
70 106 163
70 106 166
69 104 156
71 108 176
70 106 168
71 107 172
71 108 172
70 106 171
70 106 170
70 106 172
70 106 170
70 106 173
70 106 166
71 107 174
70 105 169
70 106 165
69 105 170
68 103 162
69 105 171
68 103 165
69 104 168
68 102 161
68 104 171
89 118 178
209 226 251
214 232 255
214 232 255
214 232 255
214 232 255
214 232 255
214 232 255
214 232 255
214 232 255
214 232 255
215 232 255
215 232 255
215 232 255
215 232 255
215 232 255
215 232 255
215 232 255
215 232 255
215 232 255
215 232 255
215 232 255
215 232 255
215 232 255
215 232 255
215 232 255
215 232 255
215 232 255
215 232 255
177 186 190
119 117 79
141 140 98
133 132 92
137 135 94
147 145 100
150 150 106
141 139 97
149 148 104
143 142 99
152 150 105
137 137 97
145 144 101
155 154 108
148 147 104
146 145 102
152 151 108
145 145 103
149 149 105
159 158 111
162 160 111
158 157 111
157 155 108
158 157 110
154 153 107
158 157 107
163 161 112
166 163 111
156 155 108
163 160 111
169 166 115
163 160 111
165 163 112
170 168 116
162 160 111
172 168 115
162 158 110
167 165 115
168 165 112
160 158 107
168 165 112
172 168 116
172 168 115
168 164 112
174 171 118
169 166 114
171 167 113
170 167 115
173 170 115
170 167 114
178 174 119
170 167 114
173 169 115
171 168 115
172 167 113
171 168 115
167 164 111
175 172 119
171 167 111
174 171 117
173 169 115
176 172 113
177 173 116
171 167 113
176 172 116
175 170 114
177 173 118
180 176 117
167 163 108
175 171 116
171 166 111
175 171 114
170 167 113
177 173 115
175 172 114
175 170 114
173 169 113
169 164 110
170 167 111
174 169 111
173 168 110
170 165 110
169 164 107
175 169 113
170 166 110
174 169 113
172 167 110
173 168 108
166 162 106
174 169 110
171 168 110
169 165 108
173 169 112
171 166 110
167 161 105
163 160 106
169 164 107
172 166 113
168 163 108
169 164 108
166 162 107
166 162 107
173 168 110
170 165 108
166 161 104
162 157 101
170 165 106
166 162 105
168 163 107
163 159 105
173 167 109
161 157 101
172 166 107
168 163 104
173 167 110
166 161 103
163 158 101
164 160 106
166 161 103
165 161 104
161 155 99
162 158 103
160 155 99
165 161 102
162 158 104
160 155 101
158 153 99
164 160 104
162 157 101
156 152 97
166 161 102
166 160 100
161 156 96
165 160 104
210 229 255
209 229 255
209 229 255
209 229 255
208 229 255
208 229 255
208 228 255
207 228 255
207 228 255
207 228 255
207 228 255
206 228 255
206 227 255
207 228 254
210 229 252
209 228 247
211 230 252
209 229 250
210 229 251
209 228 250
209 228 246
210 229 247
210 229 251
208 228 246
209 228 245
210 229 251
210 229 248
211 230 254
210 229 247
207 227 246
207 226 242
206 225 239
206 226 244
205 225 241
208 227 245
206 226 237
206 226 236
206 226 239
208 227 244
206 226 239
207 227 239
208 228 246
209 228 244
209 228 248
208 228 247
208 228 246
210 229 248
208 227 245
208 227 247
208 228 247
207 227 244
209 229 248
207 226 246
208 228 246
209 229 251
209 228 251
208 228 244
206 226 240
208 227 246
209 228 247
209 228 247
210 229 248
207 227 247
210 229 252
209 228 247
209 228 251
208 228 247
209 228 252
210 229 252
209 228 248
209 228 250
209 228 250
210 229 251
209 229 251
207 227 244
209 228 250
207 227 246
206 226 244
208 228 248
207 227 247
204 224 235
206 226 242
207 227 248
207 227 247
208 228 247
207 227 244
206 226 245
208 228 252
209 228 251
209 229 253
207 227 244
206 227 248
205 225 244
207 227 248
206 226 245
206 226 245
208 228 252
204 225 240
205 226 245
206 227 251
203 225 245
205 226 244
205 226 247
203 225 245
206 227 252
203 225 241
204 225 245
203 224 241
204 225 246
203 225 245
201 223 237
204 226 250
205 226 250
203 225 248
204 226 251
203 225 247
204 225 245
203 225 248
199 223 251
196 222 255
197 222 255
197 223 255
199 223 255
200 224 255
201 224 255
201 225 255
203 226 255
204 227 255
206 227 254
207 228 255
208 229 255
212 230 255
212 231 254
214 231 252
215 232 254
215 232 255
215 232 255
215 232 255
215 232 255
215 232 255
215 232 255
215 232 255
215 232 255
215 232 255
215 232 255
215 232 255
215 232 255
215 232 255
215 232 255
215 232 255
215 232 255
215 232 255
215 232 255
215 232 255
215 232 255
215 232 255
215 232 255
215 232 255
215 232 255
215 232 255
210 228 252
125 149 198
70 107 176
70 107 172
71 107 173
69 106 166
70 107 172
71 107 170
69 106 165
70 107 173
71 108 172
70 107 171
70 107 165
71 108 178
71 107 168
71 108 178
70 106 164
70 107 167
71 108 175
69 106 165
69 106 166
70 106 164
71 107 168
70 107 168
70 106 168
71 107 167
71 107 169
71 107 167
71 107 165
70 106 163
71 107 166
71 107 166
70 107 171
71 107 168
70 106 161
71 107 167
70 106 158
70 107 171
70 106 159
70 107 166
71 107 168
70 106 163
70 106 165
70 106 167
69 105 167
71 106 166
70 106 166
71 107 170
70 106 166
69 106 160
70 106 170
71 107 173
71 107 170
71 107 164
71 107 173
69 106 168
70 106 169
70 107 172
69 104 160
70 105 167
70 106 173
70 105 166
69 105 170
69 105 165
70 107 167
70 106 163
69 105 166
69 105 164
70 105 166
69 104 163
69 105 164
69 104 162
68 104 165
70 105 167
68 104 163
70 106 175
70 105 166
68 103 164
137 158 200
212 229 253
215 232 255
215 232 255
215 232 255
215 232 255
215 232 255
215 232 255
215 232 255
215 232 255
215 232 255
215 232 255
215 232 255
215 232 255
215 232 255
215 232 255
215 232 255
215 232 255
215 232 255
215 232 255
215 232 255
215 232 255
215 232 255
215 232 255
215 232 255
215 232 255
215 232 255
174 183 183
130 127 88
152 149 102
148 145 100
147 145 100
146 145 101
150 148 104
145 143 100
142 141 99
149 147 102
141 141 99
145 144 103
145 144 101
148 146 103
157 155 107
151 150 106
161 159 112
152 151 105
165 161 111
154 152 105
165 164 115
163 161 112
157 156 109
162 160 111
150 149 105
161 159 111
159 157 110
160 157 109
167 165 114
165 162 112
162 161 111
165 162 111
172 169 115
164 162 113
165 163 113
162 159 110
170 166 114
170 167 114
168 165 113
166 163 111
168 165 114
171 168 115
172 168 115
175 171 116
170 166 112
169 166 112
166 163 110
171 167 114
172 169 115
174 170 116
168 165 114
174 170 117
174 170 115
173 170 116
170 167 113
177 172 117
169 165 110
169 165 111
174 170 115
175 170 116
169 166 113
171 167 111
179 175 117
178 173 115
174 169 114
178 173 117
169 167 113
173 169 114
173 168 113
176 171 115
174 171 116
180 174 116
173 169 113
171 167 111
176 172 113
172 168 113
175 171 117
173 168 113
171 167 114
173 169 114
173 168 112
171 167 111
169 165 108
172 168 111
176 171 114
169 164 106
171 166 109
173 168 108
173 168 111
170 166 111
169 165 106
167 162 106
172 168 108
170 165 105
176 171 114
175 170 110
172 167 111
171 166 110
167 163 108
160 156 99
174 169 111
169 164 104
170 165 110
172 167 111
168 164 105
164 159 102
172 168 110
169 165 106
166 162 106
163 159 105
165 161 103
165 160 104
164 160 104
163 158 102
162 157 104
162 157 101
177 171 110
159 155 97
167 163 106
163 159 104
164 160 104
169 163 104
154 151 93
165 160 106
158 154 99
161 157 97
168 163 105
157 153 99
170 165 107
165 159 102
154 150 95
162 157 100
164 159 100
155 151 92
160 156 96
210 229 255
209 229 255
209 229 255
209 229 255
209 229 255
208 229 255
208 228 255
208 228 255
207 228 255
207 228 255
207 228 255
207 228 255
208 228 253
211 230 253
210 229 250
211 229 251
210 229 248
210 229 252
210 229 251
211 229 252
211 230 252
209 228 245
211 230 251
210 229 250
211 229 250
211 230 252
211 229 251
207 226 239
208 227 244
208 228 244
208 227 244
209 228 247
209 228 247
208 228 244
208 228 245
209 228 248
208 227 247
208 227 245
209 228 246
209 228 246
209 228 247
208 227 244
209 228 248
209 228 247
209 228 247
209 228 245
209 228 245
210 229 251
207 226 239
209 228 248
208 228 248
207 226 240
210 229 248
209 228 246
208 227 248
207 227 241
210 229 252
209 228 247
208 228 248
208 227 244
208 227 245
209 228 247
209 228 252
208 228 248
210 229 247
208 227 246
207 227 244
210 229 250
207 226 246
208 228 246
209 228 246
208 227 244
207 227 245
210 229 252
207 227 245
206 226 246
209 228 247
205 225 240
208 227 248
208 227 245
209 228 247
209 228 248
207 227 244
207 227 248
207 227 248
209 229 251
208 227 248
209 228 248
209 228 248
207 227 244
208 228 248
208 228 248
206 226 242
209 228 251
209 229 253
206 227 245
206 227 244
208 228 248
206 226 244
204 225 244
208 228 253
207 227 247
207 228 251
205 226 242
205 226 245
204 225 245
204 225 242
204 225 242
205 226 245
204 225 246
204 226 247
202 224 241
202 223 237
203 224 242
205 227 253
204 226 251
204 226 251
204 225 246
203 225 245
200 224 246
197 223 255
197 223 255
198 223 255
199 224 255
200 224 255
201 225 255
202 225 255
203 226 255
205 227 255
206 227 255
207 228 255
210 229 255
211 230 255
212 230 253
213 231 251
215 232 254
216 232 255
215 232 255
215 232 255
215 232 255
215 232 255
215 232 255
215 232 255
215 232 255
215 232 255
215 232 255
215 232 255
215 232 255
215 232 255
215 232 255
215 232 255
215 232 255
215 232 255
215 232 255
215 232 255
215 232 255
215 232 255
215 232 255
215 232 255
215 232 255
144 166 211
71 108 177
70 106 165
71 107 171
70 107 171
72 109 180
70 107 177
71 107 172
70 107 174
71 108 178
70 107 170
71 107 172
70 107 167
70 106 165
71 107 169
70 107 167
70 107 167
70 106 155
70 106 168
71 107 168
70 107 164
70 107 164
70 106 166
71 108 174
71 107 169
71 107 166
71 107 167
70 106 166
71 107 169
70 106 167
72 108 172
71 107 168
70 106 163
70 106 163
69 105 155
71 107 171
70 107 167
70 106 158
71 107 172
70 107 170
71 107 170
71 107 172
69 105 165
72 108 171
71 107 164
69 105 161
70 106 161
70 106 164
71 107 170
69 105 164
69 105 162
71 107 172
70 107 168
71 107 174
69 105 164
70 106 159
71 107 166
70 106 168
70 105 166
71 107 169
71 107 171
70 106 173
70 106 168
69 105 163
71 107 178
70 106 168
70 106 167
69 105 163
70 106 168
70 105 166
69 105 164
69 105 163
69 105 167
69 105 171
70 105 170
67 102 158
70 106 170
69 105 173
69 103 165
142 163 205
215 232 255
215 232 255
215 232 255
215 232 255
215 232 255
215 232 255
215 232 255
215 232 255
215 232 255
215 232 255
215 232 255
215 232 255
215 232 255
215 232 255
215 232 255
215 232 255
215 232 255
215 232 255
215 232 255
215 232 255
215 232 255
215 232 255
215 232 255
215 232 255
183 193 199
137 133 90
123 121 83
133 133 94
152 150 104
149 148 104
147 145 102
143 142 101
144 143 101
141 141 101
137 138 98
143 144 103
151 151 106
146 146 104
137 138 99
147 147 105
154 153 108
152 150 105
155 154 109
159 158 111
156 154 107
161 160 112
153 152 107
152 151 105
158 157 110
164 162 112
155 153 106
160 158 110
163 161 111
162 160 111
166 164 114
167 165 114
161 159 111
170 167 115
160 157 108
168 165 112
170 167 113
170 166 115
177 173 118
167 164 111
163 161 109
174 170 116
171 168 115
169 166 114
171 168 113
170 167 114
175 170 114
174 169 116
176 173 118
173 169 115
174 170 114
173 169 115
176 173 118
178 173 117
171 167 113
171 168 113
175 170 114
171 167 110
179 175 119
175 170 114
174 170 115
176 172 115
178 173 116
171 167 112
178 173 118
171 166 110
173 168 112
176 171 113
171 166 110
176 172 116
176 171 115
176 171 116
173 169 110
174 169 111
173 169 113
173 169 111
177 172 115
176 172 116
175 169 111
171 168 111
172 169 110
172 168 110
176 171 115
177 172 115
171 166 109
171 168 110
174 169 111
181 175 114
173 168 111
169 165 108
175 170 111
173 168 109
173 168 111
166 162 108
170 166 111
167 163 106
175 169 110
172 169 113
167 163 109
165 161 104
168 164 105
173 169 106
170 166 110
172 166 105
177 171 112
172 167 108
163 159 104
170 165 106
167 162 104
167 161 104
168 164 107
166 161 105
166 162 101
165 161 101
168 162 104
171 166 107
167 161 104
165 159 104
169 164 105
160 155 100
168 163 105
162 157 99
165 160 99
165 160 101
165 161 99
154 150 96
166 162 104
163 157 102
162 157 95
166 160 101
165 160 101
161 156 101
164 158 104
164 160 103
157 152 95
161 156 101
210 229 255
210 229 255
209 229 255
209 229 255
209 229 255
209 229 255
208 229 255
208 228 255
208 228 255
207 228 255
208 228 255
210 229 252
211 230 254
211 230 252
210 229 250
213 231 253
211 229 251
211 229 248
209 228 244
211 230 252
210 229 246
211 230 251
212 230 251
210 229 250
212 231 253
209 228 247
207 226 237
208 227 239
208 227 242
206 225 233
209 228 246
208 227 240
209 228 245
209 228 246
207 227 241
208 227 240
208 227 244
209 228 246
209 228 245
210 228 246
210 228 246
210 229 247
209 228 247
210 229 248
207 226 244
210 229 248
208 227 244
210 229 248
209 228 247
208 227 239
210 229 248
207 226 242
210 229 248
209 228 246
210 229 250
209 228 246
209 228 242
211 230 251
207 226 242
210 228 251
210 228 246
210 229 247
210 229 248
208 228 245
208 227 241
210 229 250
208 228 248
210 229 250
208 227 242
212 230 253
207 227 248
211 230 253
208 227 241
210 229 246
210 228 251
208 227 241
207 226 244
209 228 248
210 229 247
209 228 250
206 226 239
208 227 246
209 228 245
210 229 251
209 229 250
209 228 250
210 229 250
209 229 252
208 227 246
209 229 248
204 224 236
209 229 251
207 227 248
206 226 244
210 229 252
206 227 247
207 227 245
208 228 250
206 226 241
207 227 248
207 227 248
206 226 241
207 227 246
205 226 246
207 227 247
207 227 248
205 226 244
206 227 247
204 225 242
206 226 250
204 225 244
205 226 247
203 225 246
205 226 248
204 225 247
205 226 248
205 226 248
202 225 250
204 226 248
204 226 251
204 226 251
198 223 254
197 223 255
198 223 255
199 224 255
200 224 255
201 225 255
202 225 255
204 226 255
206 227 255
206 228 255
208 228 255
210 229 255
212 231 255
213 231 255
214 232 253
216 232 255
216 233 255
216 233 255
216 233 255
216 233 255
216 233 255
216 233 255
216 233 255
216 232 255
215 232 255
215 232 255
215 232 255
215 232 255
215 232 255
215 232 255
215 232 255
215 232 255
215 232 255
215 232 255
215 232 255
215 232 255
215 232 255
215 232 255
172 192 224
70 107 170
70 107 171
70 107 169
70 106 172
70 107 171
71 108 172
70 107 169
70 107 170
69 106 162
70 106 163
71 108 172
71 107 164
71 107 171
70 107 173
71 107 169
71 107 170
70 106 165
71 107 165
71 107 169
70 106 165
70 106 166
71 107 166
71 108 173
70 106 158
71 108 172
71 108 173
70 106 164
70 106 167
72 108 174
71 107 166
70 106 163
72 108 173
70 106 167
70 105 158
72 108 172
70 106 164
70 106 159
70 107 167
69 106 166
71 107 169
70 106 163
69 106 164
71 108 174
70 106 162
70 106 162
69 106 163
69 105 160
70 106 160
70 106 167
70 106 163
69 105 163
71 107 169
70 107 170
68 104 161
71 107 169
70 106 166
70 106 167
70 106 161
70 106 172
70 106 172
70 106 168
70 106 169
69 104 155
68 103 155
71 106 167
70 106 165
70 105 164
69 105 172
70 105 167
69 104 165
68 103 156
70 106 164
69 104 163
70 106 169
68 103 159
69 105 170
68 102 163
69 105 170
67 101 159
67 102 163
170 188 221
215 232 255
215 232 255
215 232 255
215 232 255
215 232 255
215 232 255
215 232 255
215 232 255
215 232 255
215 232 255
215 232 255
215 232 255
215 232 255
215 232 255
216 232 255
216 233 255
216 233 255
216 233 255
216 233 255
216 233 255
216 233 255
216 233 255
184 196 206
126 123 84
144 141 97
147 146 102
153 151 105
139 138 96
133 133 94
138 137 97
150 148 103
150 148 104
139 138 98
152 150 105
149 148 104
147 145 102
144 144 101
147 146 103
141 142 102
148 147 104
145 145 103
152 151 107
150 149 105
150 149 104
160 158 110
164 163 113
149 147 102
164 163 115
159 158 109
154 153 107
164 163 114
162 160 111
167 163 111
169 165 112
167 164 113
160 157 110
170 167 114
160 158 108
170 167 115
163 161 112
166 162 110
168 165 114
168 165 112
169 167 113
169 166 113
172 170 117
164 162 111
171 169 114
168 165 111
174 170 115
173 169 114
166 163 110
168 165 110
175 171 117
179 175 116
175 171 115
175 171 114
172 168 111
172 169 113
177 173 117
173 169 113
171 168 113
176 171 113
176 171 114
173 169 113
172 169 111
174 170 115
172 167 109
171 167 111
171 167 109
173 168 109
171 166 111
176 171 113
176 171 114
175 170 112
174 169 114
171 167 111
169 165 111
174 170 112
176 171 113
173 169 111
172 168 111
172 168 113
177 171 111
179 174 115
175 170 110
178 173 115
173 169 110
176 170 113
179 174 112
170 166 110
173 168 109
168 164 106
177 171 111
175 170 110
173 169 111
169 165 106
171 166 110
176 171 111
179 173 115
173 168 106
170 165 104
166 162 104
167 163 104
177 171 113
167 162 104
167 163 106
171 166 111
163 158 101
170 166 107
176 170 111
176 170 110
164 161 105
168 163 107
168 163 106
166 162 104
172 166 106
162 157 99
167 162 106
164 160 104
168 164 103
170 164 106
168 162 106
166 161 102
163 158 99
163 159 102
165 160 105
161 157 101
170 165 104
167 162 99
164 159 105
165 159 101
166 161 98
159 154 98
161 156 100
157 152 90
151 148 95
167 162 102
155 151 96
210 230 255
210 229 255
210 229 255
209 229 255
209 229 255
209 229 255
208 229 255
208 229 255
208 228 255
208 228 254
211 230 253
210 229 248
211 229 247
211 230 251
213 231 252
211 229 250
212 230 252
211 229 248
213 231 252
212 230 252
211 229 248
212 231 253
211 229 247
212 230 247
211 229 250
208 228 244
209 228 245
210 229 248
208 227 240
208 227 240
208 227 241
211 229 247
210 229 248
208 227 240
210 229 246
210 229 248
209 228 242
209 228 245
209 228 244
210 229 247
210 229 247
210 229 248
212 230 253
209 227 241
209 228 247
211 229 247
209 228 247
210 229 250
211 229 248
210 229 247
207 226 240
209 228 246
210 228 247
208 227 239
211 229 250
208 227 244
210 228 244
209 228 245
212 230 252
209 228 244
209 228 247
211 229 250
208 227 242
209 228 247
210 229 247
211 230 252
209 228 246
210 229 246
212 230 251
208 227 245
211 229 250
209 228 245
210 228 250
211 230 251
211 230 251
209 228 248
210 229 251
211 229 250
207 226 241
210 229 247
210 229 250
209 227 246
209 228 251
208 228 245
207 226 244
210 229 252
210 229 250
209 228 247
210 229 251
209 228 251
207 226 237
207 226 244
209 228 245
208 228 246
209 228 248
209 228 251
208 228 244
208 228 247
207 227 245
209 229 253
207 227 242
208 228 248
207 227 247
208 228 253
206 226 246
205 225 242
206 226 244
206 226 244
206 226 247
207 227 250
204 225 241
205 226 244
204 225 241
203 225 241
204 225 241
204 225 245
204 225 241
207 227 251
202 224 242
204 225 240
205 226 248
204 226 253
200 224 253
198 223 255
199 224 255
200 224 255
201 225 255
202 225 255
203 226 255
204 226 255
206 227 255
207 228 255
209 229 255
210 229 255
213 231 255
214 232 255
215 232 255
216 233 255
216 233 255
216 233 255
216 233 255
216 233 255
216 233 255
216 233 255
216 233 255
216 233 255
216 233 255
216 233 255
216 233 255
216 233 255
216 233 255
216 233 255
216 233 255
216 233 255
215 232 255
215 232 255
215 232 255
215 232 255
187 205 235
74 110 178
70 107 167
70 107 174
71 107 172
71 108 176
69 105 159
70 106 168
71 107 173
71 108 172
70 106 163
71 108 174
71 107 164
70 107 171
70 107 168
71 107 167
70 106 163
70 106 166
70 106 164
69 106 165
71 107 168
70 107 167
71 107 164
68 103 153
70 107 166
70 106 165
70 107 168
71 108 171
70 106 165
70 106 163
70 106 160
70 107 168
70 106 163
70 107 168
69 105 159
71 107 162
70 106 168
70 107 164
70 106 168
71 107 169
70 107 169
71 108 174
70 106 161
71 107 169
70 106 167
70 106 170
68 104 154
70 107 167
70 106 164
70 106 163
70 106 165
70 106 163
70 106 165
70 105 163
71 107 170
69 105 160
71 107 163
70 106 166
70 106 166
70 106 161
70 106 168
69 105 159
69 105 159
69 105 162
70 105 166
70 106 167
69 105 162
69 105 161
69 105 165
69 104 166
70 105 162
68 103 158
70 106 164
69 105 168
71 106 172
71 107 172
70 106 166
67 101 156
69 104 170
67 102 162
69 104 166
66 99 158
72 104 163
202 219 245
215 232 255
215 232 255
215 232 255
215 232 255
216 233 255
216 233 255
216 233 255
216 233 255
216 233 255
216 233 255
216 233 255
216 233 255
216 233 255
216 233 255
216 233 255
216 233 255
216 233 255
216 233 255
216 233 255
216 233 255
209 224 241
138 136 93
134 133 92
138 136 94
135 134 94
144 143 100
145 143 100
144 143 100
146 145 102
151 151 107
141 141 100
137 137 98
144 145 103
143 143 102
138 138 98
146 146 104
144 144 102
145 146 103
143 143 100
158 157 109
151 150 104
156 154 107
150 150 105
161 159 111
155 155 109
157 156 109
169 167 115
158 157 108
170 167 115
167 164 115
161 158 109
163 161 111
162 160 110
166 163 111
166 164 113
164 161 110
167 165 113
168 165 112
170 168 115
169 166 114
164 161 110
168 165 112
169 166 114
174 170 116
168 166 113
175 171 115
171 167 112
170 166 114
170 167 114
176 172 118
177 172 115
166 162 109
173 169 116
170 167 114
173 169 114
171 167 112
175 172 114
175 171 113
176 171 114
178 173 115
175 171 115
175 171 116
175 171 114
179 173 115
173 169 114
178 173 111
176 171 112
179 174 116
179 174 115
175 170 113
174 169 111
173 168 110
177 172 115
178 173 115
177 172 113
176 172 113
173 168 110
176 171 115
169 164 108
175 170 113
176 171 110
177 172 113
175 170 111
176 171 115
174 170 113
172 167 111
174 169 106
173 167 111
178 172 112
174 169 112
174 170 109
172 168 111
172 167 111
169 165 109
176 171 113
171 167 109
173 168 110
174 170 110
171 165 108
171 166 109
171 165 108
176 171 110
168 163 106
171 166 108
173 167 107
175 170 111
171 165 104
169 164 105
170 166 108
166 161 104
166 161 100
174 169 111
163 159 102
170 165 104
169 163 103
168 163 103
165 161 104
170 165 105
166 161 106
165 160 102
167 163 105
169 164 105
166 161 101
168 162 106
168 162 101
162 157 101
168 162 102
165 159 97
166 161 104
165 160 99
159 154 96
167 161 96
163 158 104
160 155 98
161 157 99
164 159 101
163 157 101
159 154 97
210 230 255
210 230 255
210 229 255
210 229 255
209 229 255
209 229 255
209 229 255
208 229 255
210 229 254
210 229 246
212 230 253
212 230 251
212 230 251
211 230 251
211 229 248
211 230 250
212 230 251
210 228 248
212 230 251
212 230 252
212 230 248
213 231 251
211 229 247
208 227 239
208 227 239
208 227 236
208 227 241
207 226 235
209 228 242
210 229 245
210 229 247
210 229 247
210 229 250
211 229 247
209 228 244
210 229 245
210 228 242
210 229 247
211 229 247
211 230 250
211 230 252
209 227 245
211 229 246
210 228 244
210 229 247
207 226 237
210 228 250
209 227 242
211 229 248
209 228 246
210 229 247
210 228 241
211 230 250
211 229 248
210 228 247
210 229 246
210 229 247
209 228 245
211 229 247
210 228 246
211 229 246
209 228 247
210 228 247
210 228 242
209 228 245
210 228 247
210 228 246
211 230 251
207 226 242
211 229 247
210 228 244
212 230 251
210 229 248
212 230 251
208 227 246
209 227 242
209 228 246
209 227 245
209 228 245
210 228 247
209 228 244
210 228 246
209 228 247
210 229 251
210 229 247
210 229 250
209 228 245
210 229 248
209 228 245
209 228 248
208 227 242
210 229 252
208 227 248
209 229 248
209 228 248
209 229 248
209 228 245
209 229 251
208 227 244
208 228 250
209 228 248
208 227 244
209 228 251
208 228 248
208 227 247
208 228 248
207 227 241
209 228 248
207 227 246
205 226 244
206 226 244
206 227 246
205 226 240
205 226 244
204 225 245
204 225 244
204 225 241
203 224 241
205 226 245
205 226 246
207 227 250
204 226 250
205 227 252
202 225 254
199 223 255
199 224 255
201 225 255
201 225 255
203 226 255
204 226 255
205 227 255
206 228 255
207 228 255
209 229 255
211 230 255
212 231 255
214 232 253
216 233 254
216 233 255
216 233 255
216 233 255
216 233 255
216 233 255
216 233 255
216 233 255
216 233 255
216 233 255
216 233 255
216 233 255
216 233 255
216 233 255
216 233 255
216 233 255
216 233 255
216 233 255
216 233 255
216 233 255
210 227 252
113 139 190
70 107 170
71 107 176
70 107 169
70 107 165
70 106 158
71 108 172
70 107 162
71 107 168
70 106 162
70 107 165
71 107 170
71 107 163
70 107 169
71 107 167
69 106 158
70 107 161
71 108 175
71 107 164
70 107 165
70 106 163
70 106 157
70 107 166
71 107 164
71 108 173
70 106 166
70 106 163
70 106 161
70 106 168
71 107 173
71 107 170
70 106 164
70 106 163
69 106 162
71 107 167
71 107 166
70 106 162
72 108 171
70 106 164
70 107 169
71 107 167
71 107 166
70 106 162
70 105 160
70 106 163
70 106 164
70 107 168
70 106 156
70 106 161
69 105 162
70 107 170
69 105 163
72 108 177
70 106 169
70 106 165
69 105 159
69 105 160
70 105 163
70 106 163
70 105 163
70 106 164
71 107 170
71 107 165
70 105 166
70 106 166
69 105 164
70 106 160
69 104 158
69 105 164
69 104 163
70 105 165
69 105 160
69 104 160
69 103 160
69 104 162
68 104 162
68 102 160
68 102 158
67 101 154
69 104 165
65 99 157
70 105 167
69 103 166
102 127 179
209 226 250
216 233 255
216 233 255
216 233 255
216 233 255
216 233 255
216 233 255
216 233 255
216 233 255
216 233 255
216 233 255
216 233 255
216 233 255
216 233 255
216 233 255
216 233 255
216 233 255
216 233 255
216 233 255
211 226 247
150 150 122
138 136 94
138 136 94
133 133 94
137 136 96
136 135 95
135 135 96
141 140 100
139 139 98
137 136 97
146 145 102
144 144 102
143 143 102
133 133 96
143 144 104
153 152 106
155 153 107
147 146 102
149 148 103
160 158 110
155 154 108
150 148 103
157 156 109
157 155 108
152 151 105
153 151 104
164 161 111
152 152 106
155 154 108
158 156 108
164 162 111
161 159 108
170 167 115
168 165 113
164 161 111
168 165 112
168 165 114
166 163 111
168 164 112
171 168 114
169 165 112
164 161 109
174 169 114
167 164 113
170 167 112
168 165 110
173 169 112
174 171 112
173 169 114
177 172 117
174 170 112
171 168 112
171 167 107
176 171 115
173 168 112
175 170 112
174 168 112
175 171 116
180 174 116
175 171 115
177 173 114
175 170 114
176 172 113
170 165 110
179 174 114
174 169 113
176 171 115
176 172 114
173 168 113
174 170 113
177 173 119
171 167 110
179 174 114
172 168 110
172 168 113
177 171 113
174 169 111
173 168 110
179 173 114
172 167 110
172 167 108
171 167 110
176 171 113
174 169 113
175 171 112
172 168 111
173 168 106
176 171 112
173 168 108
167 162 106
178 173 115
170 165 106
172 167 108
168 163 107
168 163 106
169 165 105
170 166 107
171 166 108
166 162 101
174 168 110
169 164 105
168 163 104
166 161 104
171 166 105
173 168 110
172 167 108
170 165 105
173 168 110
173 168 110
176 170 109
168 164 103
168 163 102
170 163 103
167 163 107
165 161 109
167 162 105
164 159 102
164 160 102
165 161 99
173 169 108
170 166 108
167 163 102
168 163 101
162 157 101
162 158 101
163 158 102
165 160 101
175 170 108
167 163 102
158 153 96
168 162 101
169 164 103
160 155 99
163 159 99
159 153 98
167 162 104
166 161 104
157 153 97
211 230 255
210 230 255
210 230 255
210 229 255
210 229 255
209 229 255
209 229 255
210 230 254
211 230 254
211 229 248
212 230 252
211 229 246
213 231 251
212 231 253
211 229 247
214 231 253
212 229 244
211 229 246
213 231 253
213 231 254
213 231 251
213 231 252
209 228 241
210 229 247
209 228 241
211 229 250
206 225 232
208 226 237
211 230 250
209 227 236
210 228 244
209 227 242
208 226 235
210 228 246
211 229 248
211 229 246
210 228 245
210 228 242
210 229 246
212 230 250
213 231 251
211 230 248
210 229 245
209 228 245
209 228 241
212 230 250
211 229 245
211 229 248
210 228 251
210 228 246
213 230 248
211 229 247
211 229 250
213 231 253
211 229 246
212 230 251
211 229 246
210 228 244
211 230 250
208 227 248
211 230 250
212 230 251
212 230 248
212 230 252
210 228 246
210 228 248
212 230 248
210 228 246
209 227 244
211 229 251
209 228 247
210 228 246
212 230 251
208 227 246
212 231 254
211 229 247
211 230 251
212 230 251
211 229 248
209 228 248
210 228 247
211 230 251
210 229 248
212 230 250
209 228 247
211 229 248
209 228 248
210 229 252
209 228 245
210 228 250
210 229 248
209 228 245
208 227 241
211 229 250
210 229 248
208 227 247
210 229 248
208 228 247
208 227 246
209 228 248
210 229 248
209 228 250
207 227 246
209 228 250
209 228 246
209 228 250
208 227 244
208 228 247
208 227 247
207 227 246
209 228 251
206 227 245
207 228 250
206 226 245
206 227 246
205 226 242
205 226 245
204 225 241
205 226 244
205 225 241
208 228 250
206 227 250
205 226 250
205 226 250
201 224 246
200 224 255
200 224 255
201 225 255
202 225 255
203 226 255
204 226 255
205 227 255
207 228 255
208 228 255
210 229 255
212 231 255
214 231 255
214 231 252
216 233 255
217 233 255
216 233 255
216 233 255
216 233 255
216 233 255
216 233 255
216 233 255
216 233 255
216 233 255
216 233 255
216 233 255
216 233 255
216 233 255
216 233 255
216 233 255
216 233 255
216 233 255
216 233 255
148 169 212
70 107 168
70 106 168
70 107 166
70 107 167
70 107 166
70 107 166
70 106 166
71 107 168
71 107 172
70 107 168
70 106 165
71 107 168
69 105 154
70 107 169
69 105 159
70 107 162
70 106 157
71 108 175
70 107 165
69 106 164
71 107 166
70 106 160
69 105 160
70 106 163
70 106 159
71 107 168
71 108 174
71 107 166
70 106 160
70 106 159
70 107 172
70 107 162
70 106 161
71 107 168
70 106 163
71 107 168
70 106 161
70 106 164
69 105 162
70 106 163
71 107 168
70 107 172
71 107 168
70 106 163
70 105 165
69 106 162
71 107 169
70 107 168
70 106 166
71 107 167
69 106 163
70 106 160
69 105 160
71 107 169
69 105 163
69 104 152
71 107 166
69 106 161
70 106 163
69 105 163
71 107 173
71 106 169
71 107 172
71 107 168
70 105 168
69 105 161
70 106 169
70 106 167
69 105 168
69 104 158
69 104 167
68 104 163
68 103 153
69 104 159
70 105 164
69 104 162
69 104 164
68 102 158
68 103 160
67 102 157
68 101 159
68 102 161
67 101 162
67 101 163
142 161 197
216 233 255
216 233 255
216 233 255
216 233 255
216 233 255
216 233 255
216 233 255
216 233 255
216 233 255
216 233 255
216 233 255
216 233 255
216 233 255
216 233 255
216 233 255
216 233 255
216 233 255
216 232 253
168 172 157
136 133 92
123 121 83
141 139 97
135 135 95
142 141 99
144 143 101
134 134 96
130 130 92
136 136 97
142 141 100
141 140 100
143 142 100
151 151 106
154 153 108
137 138 100
146 145 102
150 150 105
153 153 110
146 146 103
148 148 105
153 152 108
158 156 108
151 149 104
157 155 108
154 153 108
155 153 107
155 153 106
160 158 112
165 161 109
163 161 110
163 160 108
161 159 110
156 153 104
167 164 111
161 158 109
165 162 110
167 164 111
167 164 111
161 158 107
169 165 111
168 165 111
167 163 111
176 172 116
174 171 115
170 166 114
171 167 113
169 165 110
175 171 117
175 172 113
173 169 113
171 168 107
173 169 113
174 171 113
169 165 112
176 172 115
176 172 116
176 171 112
172 168 110
171 167 112
178 174 114
177 172 114
179 174 116
177 173 115
176 171 114
179 174 113
175 170 112
180 175 117
171 167 110
178 173 115
176 171 111
179 174 115
179 174 113
178 173 113
172 168 106
173 169 110
179 174 117
172 168 110
177 171 111
175 171 110
172 167 106
175 170 111
171 168 110
179 173 113
172 167 108
179 175 118
173 169 111
172 168 110
171 166 108
170 166 110
171 168 108
174 169 110
174 170 111
172 168 111
169 165 105
172 167 112
171 165 106
178 172 111
175 170 110
170 166 107
173 168 108
169 164 105
170 165 104
164 160 105
169 165 107
166 160 101
171 165 106
161 156 96
170 166 108
162 157 101
172 166 108
169 164 104
168 162 106
166 162 104
176 171 111
169 164 108
170 166 109
172 166 105
165 160 104
167 163 104
163 158 101
170 165 104
163 157 103
172 166 106
159 154 101
161 156 99
168 163 105
163 159 101
162 157 98
167 162 102
166 161 99
155 150 95
158 154 95
161 156 98
162 157 98
166 161 101
157 153 96
165 160 99
163 158 100
211 230 255
211 230 255
210 230 255
210 230 255
210 229 255
210 229 255
212 230 254
212 230 252
212 230 251
212 230 250
213 230 250
212 230 250
213 231 251
212 230 247
214 232 253
213 231 251
212 230 246
212 230 250
212 230 248
213 230 250
213 230 250
210 228 245
211 229 244
210 229 245
211 229 245
210 228 242
210 228 241
211 229 250
211 229 246
211 229 245
212 230 248
210 229 242
209 227 241
211 229 245
211 229 244
211 229 250
210 228 245
211 229 248
211 229 244
211 229 246
213 230 251
211 229 242
210 228 248
210 228 242
211 229 247
213 231 252
212 230 250
210 228 245
210 228 241
211 230 250
211 229 245
211 229 246
212 230 248
210 228 245
211 230 248
211 229 245
211 229 247
210 228 250
210 228 245
211 229 247
209 227 242
212 230 248
212 230 250
213 230 253
213 231 252
212 230 248
211 229 246
211 229 251
212 230 253
211 229 246
212 230 248
212 230 250
209 227 246
211 229 248
208 227 241
211 229 246
211 229 251
212 230 250
212 230 250
211 229 245
212 230 248
211 229 248
211 229 251
211 229 245
211 230 251
210 229 244
211 230 250
211 230 248
211 229 246
210 229 247
210 228 244
210 229 246
209 228 245
211 229 248
211 230 254
210 229 247
212 230 251
209 228 244
210 229 251
209 229 248
211 230 253
208 228 245
209 228 246
210 229 250
209 228 247
208 227 242
208 228 250
208 227 245
208 228 246
207 227 242
208 228 248
208 227 246
209 228 248
208 228 247
207 227 245
205 225 236
207 227 248
205 226 241
206 227 247
204 225 239
207 227 245
207 228 251
207 227 250
204 225 247
204 225 241
205 227 255
200 224 254
201 225 255
202 225 255
203 226 255
204 226 255
205 227 255
206 227 255
207 228 255
209 229 255
211 230 255
213 231 255
214 232 255
215 232 253
216 233 255
217 233 255
217 233 255
217 233 255
217 233 255
217 233 255
217 233 255
216 233 255
216 233 255
216 233 255
216 233 255
216 233 255
216 233 255
216 233 255
216 233 255
216 233 255
216 233 255
182 201 230
70 107 170
70 107 168
70 107 165
70 107 170
69 105 160
71 107 174
71 107 169
69 106 163
70 106 167
69 106 162
70 106 160
70 107 163
70 106 165
71 107 166
71 107 163
70 106 165
70 106 166
70 106 162
70 106 162
70 106 168
70 107 166
70 107 166
70 106 164
70 107 166
69 106 166
70 106 160
71 107 164
71 107 163
70 106 163
70 106 165
70 106 159
71 107 168
70 106 159
70 106 167
69 105 160
70 106 161
69 105 159
70 107 169
69 105 159
71 107 165
70 106 171
71 107 168
69 106 165
71 107 164
70 106 166
71 107 167
69 106 159
71 107 163
70 107 165
71 107 167
70 106 162
70 106 159
70 107 164
70 106 161
70 106 158
71 107 167
70 106 158
71 107 167
70 106 164
70 106 162
70 105 158
71 106 168
71 106 168
70 106 162
69 105 163
68 104 161
71 107 168
69 105 162
69 104 164
69 105 162
70 105 163
70 106 163
69 105 159
69 104 166
69 105 163
67 101 152
70 105 162
68 103 161
70 105 172
68 102 153
67 100 157
70 104 168
69 103 164
67 101 159
67 101 155
68 101 160
187 204 231
216 233 255
216 233 255
216 233 255
216 233 255
216 233 255
216 233 255
216 233 255
216 233 255
216 233 255
216 233 255
217 233 255
217 233 255
217 233 255
217 233 255
217 233 255
217 233 255
173 180 174
132 130 89
139 137 94
136 134 94
142 141 100
143 141 99
134 134 96
142 141 99
129 129 93
135 135 97
135 135 97
142 141 99
129 131 95
145 146 104
147 147 104
134 135 96
147 146 104
150 149 104
145 144 101
149 148 104
149 149 105
151 151 105
148 147 103
152 151 105
157 155 108
163 161 111
157 155 107
159 157 108
161 159 109
151 150 106
158 156 107
163 161 110
160 158 110
162 160 110
169 167 115
169 166 114
165 163 112
171 168 116
168 165 111
170 167 115
167 165 114
169 166 111
172 168 113
172 168 112
177 174 117
166 163 110
175 171 115
176 172 116
173 168 110
173 169 115
171 167 110
176 172 115
173 170 115
173 169 115
176 170 112
173 169 113
174 169 111
179 174 117
177 172 113
174 169 115
173 169 110
177 172 113
177 172 111
176 172 113
175 171 112
173 169 111
176 171 110
176 171 112
171 167 110
174 170 109
178 174 115
174 171 115
175 170 112
175 171 113
178 172 113
178 173 113
175 170 110
177 172 111
179 174 114
174 169 110
172 168 110
177 172 115
174 170 110
177 173 113
178 172 111
177 171 109
177 172 110
176 172 108
175 170 112
173 168 110
173 168 110
174 170 110
177 171 109
176 170 110
172 168 104
177 172 110
170 166 104
174 169 108
173 167 104
171 167 109
170 166 107
169 164 101
173 167 107
169 165 106
174 168 109
176 171 111
173 168 107
174 169 108
168 163 104
163 159 101
169 163 106
171 166 104
168 163 99
170 165 105
172 167 108
169 165 104
169 164 105
171 166 106
173 166 106
166 162 100
166 162 101
173 167 106
172 168 107
171 166 105
162 158 98
163 158 101
165 160 99
169 163 102
165 161 101
162 158 98
173 168 108
167 163 105
157 153 96
169 164 97
162 157 97
163 158 100
169 163 103
165 160 99
155 151 95
166 160 101
211 230 255
211 230 255
211 230 255
211 230 255
210 230 255
212 230 253
214 232 253
212 230 250
212 230 250
210 229 248
213 230 251
212 230 245
212 230 248
213 231 248
212 230 250
212 230 248
211 229 246
212 230 247
213 231 251
213 230 248
210 228 241
208 226 233
211 229 246
210 228 240
212 230 247
212 230 247
211 229 248
209 227 233
212 230 250
212 229 246
211 229 242
211 229 244
206 224 232
211 229 244
211 229 245
210 228 240
211 229 247
212 230 246
210 228 240
212 230 251
209 227 241
212 229 245
211 228 244
211 230 247
212 230 246
212 229 244
212 230 245
211 229 246
212 230 246
212 230 245
212 229 246
210 228 241
211 229 248
212 230 250
213 231 251
214 231 253
212 230 248
210 228 245
211 229 244
212 230 248
211 229 251
212 230 251
211 229 245
211 229 246
211 229 247
212 230 246
211 229 247
211 229 248
212 230 247
212 230 248
211 229 250
212 230 248
211 229 246
212 230 247
212 230 252
213 231 252
210 229 242
211 229 248
210 228 246
211 229 244
210 228 244
211 229 248
212 230 250
213 230 250
210 228 242
211 229 245
212 230 251
209 227 241
208 227 242
213 231 251
209 228 244
209 228 245
211 230 250
211 229 248
209 227 245
209 228 245
209 228 245
208 227 244
210 229 251
210 228 246
211 229 250
208 226 240
208 227 246
210 229 251
210 229 246
209 228 246
211 230 252
210 229 248
209 228 248
208 228 245
209 228 247
207 226 242
210 229 252
207 227 245
207 227 245
207 227 245
206 226 239
206 226 241
206 226 244
207 227 250
205 225 242
206 226 244
206 227 245
206 226 248
206 226 246
206 227 250
204 226 253
201 225 255
202 225 255
202 226 255
203 226 255
204 227 255
206 227 255
207 228 255
208 229 255
210 229 255
212 231 255
213 231 255
215 232 255
217 233 255
217 233 255
217 233 255
217 233 255
217 233 255
217 233 255
217 233 255
217 233 255
217 233 255
217 233 255
217 233 255
217 233 255
217 233 255
217 233 255
217 233 255
217 233 255
211 228 252
101 129 186
70 107 167
70 107 170
70 106 162
70 107 164
70 107 171
71 107 169
71 107 167
70 106 163
71 107 166
70 106 159
70 107 163
71 108 170
71 107 170
69 105 156
70 106 164
70 107 167
71 107 166
71 107 167
70 106 163
69 105 159
70 106 160
70 107 168
69 105 157
70 106 154
69 105 154
70 106 162
70 106 163
70 106 163
70 107 166
70 106 161
70 106 159
69 105 157
71 107 165
70 106 163
69 105 154
70 107 164
70 107 169
69 105 153
69 105 157
71 107 168
70 106 158
70 105 163
71 107 163
71 107 163
69 105 156
69 105 161
71 107 172
69 105 155
70 106 161
69 105 154
69 105 156
70 105 155
70 106 165
70 106 161
70 106 161
70 106 161
70 106 166
70 106 161
70 106 162
70 106 165
70 105 156
69 105 159
69 104 158
69 104 156
70 106 162
67 101 152
70 106 166
70 107 168
69 104 154
69 105 161
70 106 167
68 104 162
70 106 163
71 106 166
70 106 166
69 104 163
69 103 158
67 101 157
69 103 165
69 105 165
68 103 158
67 101 159
68 103 163
67 100 155
67 100 148
67 100 155
102 125 166
213 229 252
217 233 255
217 233 255
217 233 255
217 233 255
217 233 255
217 233 255
217 233 255
217 233 255
217 233 255
217 233 255
217 233 255
217 233 255
217 233 255
217 233 255
201 214 229
126 124 87
138 136 94
127 126 87
136 134 93
132 132 93
127 127 90
142 142 100
130 130 93
132 132 93
146 145 103
131 132 93
146 146 103
136 136 97
152 151 106
132 134 97
143 143 102
152 151 107
153 152 106
136 137 100
150 150 107
161 159 111
152 151 107
155 153 107
152 151 104
148 147 103
149 148 103
161 158 107
160 159 111
159 156 106
159 157 110
165 162 112
158 156 109
161 158 107
161 158 108
165 163 112
155 153 103
167 166 114
173 169 114
167 165 112
167 164 111
165 163 109
178 172 115
172 168 114
169 165 112
166 163 107
170 166 113
174 170 115
172 168 111
173 169 112
176 172 113
171 167 110
176 172 115
173 169 113
172 168 113
180 175 117
177 172 111
177 172 115
170 166 107
175 171 115
174 170 113
175 171 113
178 174 115
175 171 113
178 173 113
180 175 115
178 174 114
179 174 114
178 173 115
176 171 110
175 170 106
176 171 113
177 172 113
172 169 108
175 171 113
178 173 118
178 173 113
178 173 114
173 168 107
175 169 111
174 170 109
178 173 113
177 171 110
178 173 113
178 173 114
172 166 107
178 173 111
179 173 110
174 169 101
170 166 106
175 169 110
173 168 106
175 171 110
172 168 108
177 172 113
177 172 110
170 165 105
175 169 108
177 171 110
175 170 109
176 170 111
173 168 106
168 164 103
169 164 103
172 166 104
169 164 104
174 169 108
174 168 108
172 168 106
174 169 110
167 163 99
175 171 110
173 168 108
169 163 102
169 164 104
168 163 101
167 161 99
169 163 104
167 162 101
174 168 107
171 166 102
169 164 106
165 160 104
163 158 99
163 158 102
164 159 98
166 160 99
164 160 101
155 152 94
164 160 100
169 163 101
172 166 104
154 150 94
167 162 101
165 160 101
168 163 98
170 164 105
166 162 99
167 162 100
166 161 101
160 156 99
212 230 255
211 230 255
211 230 255
211 230 255
212 230 253
213 231 252
212 230 248
214 231 254
214 231 252
213 231 251
215 232 254
212 230 246
214 232 253
214 231 253
211 228 246
213 230 246
211 229 247
213 231 250
214 231 251
213 230 250
212 230 247
210 228 241
211 229 242
211 229 242
213 231 251
212 229 244
211 229 242
210 228 242
211 229 241
213 230 248
211 229 250
213 230 248
213 230 248
210 228 242
212 230 246
212 230 246
211 229 245
211 229 246
212 229 247
212 229 247
214 231 251
210 228 244
212 229 248
212 229 248
213 230 248
213 230 247
212 230 246
211 228 244
213 231 248
212 230 246
212 229 244
209 227 240
213 230 247
212 230 246
212 230 247
212 230 250
212 229 245
214 231 252
213 230 248
213 231 248
213 230 250
212 230 250
213 231 251
211 229 242
212 230 248
211 229 244
212 230 251
210 228 244
211 229 245
211 229 245
211 229 245
212 229 247
213 230 250
210 228 241
212 229 248
212 230 247
211 229 247
212 230 246
211 229 244
212 230 250
211 229 246
213 231 252
211 229 244
209 228 242
211 229 244
212 230 248
213 231 252
213 231 252
212 230 247
211 229 246
211 229 246
210 228 245
211 230 250
212 230 250
211 229 248
212 231 253
210 229 242
211 229 251
211 230 248
212 230 253
210 228 246
209 228 242
211 229 246
211 230 253
208 227 244
211 229 250
210 228 242
209 228 246
210 229 250
210 229 245
210 229 247
209 228 246
209 229 250
208 227 245
209 228 246
208 227 244
209 228 250
209 228 246
207 227 251
206 227 246
207 226 241
205 225 240
206 227 247
208 228 248
207 227 247
206 227 245
207 228 251
205 226 252
202 225 255
202 225 255
203 226 255
204 226 255
205 227 255
207 228 255
208 229 255
209 229 255
210 230 255
213 231 255
214 232 255
215 232 254
218 234 255
217 233 254
217 233 255
217 233 255
217 233 255
217 233 255
217 233 255
217 233 255
217 233 255
217 233 255
217 233 255
217 233 255
217 233 255
217 233 255
217 233 255
164 184 218
70 106 166
71 107 160
71 108 175
71 107 166
70 106 163
69 105 157
70 106 166
70 106 155
70 107 167
71 107 169
69 105 155
69 106 165
70 107 166
71 107 166
70 106 163
70 106 161
70 106 163
70 106 160
70 106 164
69 105 161
72 108 174
70 107 164
70 106 165
70 105 160
70 106 162
69 106 162
70 107 162
69 105 154
71 106 164
70 106 158
69 105 152
71 107 169
70 106 158
69 105 157
71 107 163
71 107 163
71 107 167
70 107 163
69 105 160
70 106 161
69 106 161
70 105 156
70 107 163
70 106 160
69 104 147
69 105 158
71 107 171
70 106 158
69 106 158
69 105 155
71 107 168
71 107 169
69 105 163
71 107 170
69 105 158
71 107 167
69 105 159
70 106 164
70 106 159
70 106 168
70 107 164
69 104 153
69 104 158
70 106 159
69 104 156
71 107 169
69 104 155
68 104 160
70 106 167
70 105 161
69 105 167
70 106 160
69 105 161
70 105 157
69 105 173
69 104 162
70 105 160
70 105 160
69 104 160
68 103 156
69 104 162
68 103 157
68 103 161
67 101 149
69 103 163
66 99 150
65 98 153
66 98 156
154 173 202
217 233 255
217 233 255
217 233 255
217 233 255
217 233 255
217 233 255
217 233 255
217 233 255
217 233 255
217 233 255
217 233 255
217 233 255
217 233 255
209 225 245
154 153 126
143 140 96
134 132 92
132 132 94
132 131 93
116 117 86
143 142 101
132 132 95
145 145 103
117 119 87
134 134 96
139 139 99
141 141 101
137 138 99
146 146 103
141 141 101
150 150 105
144 144 101
149 149 104
147 147 104
145 145 103
145 145 103
153 152 105
155 154 108
153 150 104
151 150 105
160 158 108
153 152 107
164 162 110
165 162 109
162 159 109
160 157 107
161 159 109
164 160 107
168 165 110
162 159 108
166 163 110
169 166 110
170 167 112
174 169 110
166 163 107
168 165 110
168 165 112
168 164 111
173 169 113
165 161 108
171 167 112
167 164 106
173 169 113
174 170 114
167 164 109
173 169 111
175 171 113
174 170 112
175 171 114
176 171 111
172 168 109
178 173 114
175 172 116
181 175 117
178 173 112
180 174 114
175 171 111
176 171 110
176 172 113
175 170 112
180 175 114
176 171 109
178 173 111
174 169 113
171 167 106
178 173 110
175 170 111
176 171 111
179 173 110
176 171 113
178 172 110
178 173 113
182 177 114
179 174 112
179 173 113
175 170 109
179 173 110
176 170 111
177 172 111
177 172 113
175 170 110
176 171 110
174 168 112
168 164 101
172 168 109
176 170 104
174 169 108
176 171 112
179 173 111
174 170 108
173 168 107
174 169 103
175 170 106
176 171 108
174 168 106
163 158 100
173 168 106
173 168 106
165 161 99
170 166 106
169 164 100
172 167 102
177 171 110
171 166 105
171 166 106
173 168 107
170 164 104
173 167 106
172 168 103
169 164 104
167 161 104
171 166 106
172 167 105
169 164 99
170 164 104
170 165 104
167 162 103
169 164 105
162 158 97
167 162 102
163 158 98
166 161 104
169 164 101
162 157 99
163 158 101
163 158 99
174 168 104
168 162 102
166 160 102
167 162 102
160 155 92
157 152 93
167 162 101
164 158 99
162 157 96
212 231 255
212 230 255
211 230 255
212 231 254
214 231 251
212 230 246
213 231 251
214 231 250
213 231 251
213 230 248
215 232 252
212 230 250
214 231 253
212 229 242
214 231 252
213 230 248
214 231 252
214 231 248
212 230 246
209 228 239
210 228 239
211 229 242
211 228 242
211 228 244
212 230 245
213 230 246
212 230 245
212 230 245
212 230 248
212 230 248
214 231 251
212 229 241
212 229 246
213 230 248
212 230 245
212 229 248
210 228 241
216 233 255
213 231 247
210 228 244
213 230 250
212 230 245
212 230 245
212 229 244
214 231 251
215 232 254
210 228 239
213 230 250
214 231 251
212 229 251
211 229 245
209 227 241
211 228 247
212 230 251
213 231 252
209 227 244
212 230 247
214 231 248
211 229 247
213 230 250
211 229 246
213 231 252
212 229 246
214 231 251
211 229 247
212 229 246
213 231 250
211 229 250
212 230 247
213 231 251
212 229 245
213 230 252
214 231 251
210 228 244
212 230 250
213 231 252
211 229 245
214 231 251
212 230 248
212 230 247
208 225 240
213 230 250
214 231 252
213 231 252
213 230 250
214 231 254
210 228 244
212 230 247
211 229 246
211 229 247
211 229 248
212 229 246
212 229 248
211 229 246
213 231 252
211 229 246
211 229 244
211 230 251
212 230 247
210 228 248
210 229 248
212 230 251
212 230 250
212 230 250
211 229 250
212 230 252
210 228 246
211 229 246
209 228 247
210 229 246
210 229 247
210 228 245
207 226 242
209 228 245
206 226 236
209 228 245
208 227 242
206 225 233
206 226 239
207 227 246
207 226 242
207 227 246
207 227 242
207 227 247
208 228 247
207 228 250
206 227 247
206 226 246
205 226 252
202 225 255
203 226 255
205 227 255
205 227 255
207 228 255
208 228 255
209 229 255
210 230 255
212 230 255
213 231 255
215 232 254
216 233 254
218 234 254
217 234 255
217 234 255
217 234 255
217 233 255
217 233 255
217 233 255
217 233 255
217 233 255
217 233 255
217 233 255
217 233 255
217 233 255
201 218 243
80 113 168
71 107 169
71 108 174
69 106 168
70 106 166
70 106 170
70 106 161
69 105 159
70 106 163
70 106 168
69 105 163
69 105 155
70 106 164
69 105 155
70 106 164
71 108 173
69 105 151
70 106 165
70 106 160
70 106 159
69 105 157
70 106 161
69 105 162
71 107 166
70 106 163
71 107 159
69 105 156
71 107 166
70 106 159
69 104 154
69 105 165
68 104 151
70 106 160
70 105 154
70 106 162
69 104 153
69 105 157
71 108 168
70 107 171
70 106 164
71 106 165
70 107 163
71 107 169
70 106 164
70 106 162
70 106 162
70 106 162
70 106 159
71 107 170
70 106 162
70 106 163
69 105 161
70 106 167
70 106 160
69 105 154
70 106 163
71 107 164
69 105 160
70 106 160
70 106 161
69 105 157
70 106 163
70 106 161
70 106 168
70 106 161
71 106 159
71 107 169
70 105 163
70 106 167
69 105 159
69 104 158
70 106 161
69 104 159
70 105 164
69 104 153
69 104 160
70 106 165
70 105 166
69 103 160
68 102 159
68 102 154
70 105 162
69 104 167
66 99 148
67 101 150
68 101 160
67 100 158
67 100 151
67 101 157
69 100 156
204 220 244
217 233 255
217 233 255
217 233 255
217 233 255
217 233 255
217 233 255
217 233 255
217 233 255
217 233 255
217 234 255
217 234 255
217 234 255
167 174 172
137 134 90
134 133 92
142 140 96
131 130 91
135 135 96
137 136 95
137 137 98
123 124 89
132 133 96
135 136 96
128 129 93
140 141 100
135 135 98
143 143 101
140 139 99
134 134 95
143 142 100
144 143 102
146 145 101
143 143 101
156 156 109
144 144 102
150 148 104
152 152 106
154 154 106
160 158 110
164 161 109
154 154 107
164 161 109
161 158 107
162 159 108
165 162 110
159 157 106
158 156 105
158 155 103
162 160 106
163 160 111
170 166 112
164 162 112
164 162 110
166 163 111
170 166 111
164 161 108
170 165 111
162 159 107
169 165 107
176 172 115
173 169 108
168 165 109
177 173 114
176 171 114
176 171 113
175 170 109
176 172 115
174 171 114
173 168 110
176 172 113
179 174 112
178 175 114
171 167 107
172 168 112
175 170 110
178 173 114
177 173 111
178 174 113
176 171 109
181 175 111
181 175 114
180 175 113
178 173 111
178 173 111
176 171 108
174 170 108
177 172 113
175 171 111
174 169 109
177 172 113
176 171 111
177 171 111
176 171 110
178 173 109
176 171 110
174 170 108
177 172 110
178 173 111
177 171 107
179 173 110
177 172 114
175 170 108
176 171 111
173 168 105
176 171 110
178 173 110
175 169 104
170 166 104
174 170 110
178 172 110
172 167 106
175 170 109
175 170 111
179 173 113
177 171 106
171 166 107
173 167 102
174 169 108
170 165 104
176 170 105
172 167 105
168 163 106
168 163 105
173 168 109
172 166 104
173 168 106
168 162 104
173 168 107
165 159 100
170 165 107
172 167 106
168 163 101
173 167 104
173 167 103
167 161 104
171 166 101
169 164 101
170 165 104
174 167 103
171 165 103
175 169 108
170 165 101
157 153 95
162 156 98
170 164 100
165 160 101
171 165 103
169 164 102
159 154 96
169 164 101
171 164 101
164 159 99
166 162 102
166 160 97
212 231 255
212 231 255
213 231 255
214 231 248
214 231 250
214 232 253
215 232 253
214 231 250
215 232 254
215 232 252
215 232 252
214 231 248
213 230 247
213 230 248
215 232 252
215 232 252
215 232 253
212 229 246
211 229 241
210 227 240
210 228 237
212 230 247
210 228 237
212 229 246
212 229 246
213 231 251
211 228 240
213 230 246
211 229 244
212 229 245
212 229 245
211 229 245
213 230 247
213 230 245
211 229 245
211 229 244
214 231 251
210 228 237
212 229 244
212 230 242
214 231 248
211 228 241
209 227 239
212 230 248
211 228 245
213 230 246
213 230 247
212 229 245
214 231 251
212 230 246
210 228 246
214 232 252
213 230 248
210 227 242
214 231 250
211 228 244
212 229 244
210 228 242
213 230 250
213 230 250
214 231 252
211 229 242
210 228 241
212 229 245
211 229 242
211 228 244
212 229 248
214 231 251
214 231 251
215 232 251
213 230 245
212 230 247
214 232 253
215 232 253
214 231 250
213 231 248
212 230 250
211 229 248
213 231 250
212 229 248
212 229 246
214 231 250
213 231 250
212 229 247
212 230 248
212 230 248
212 229 247
213 230 246
213 231 251
211 229 245
213 231 252
213 231 253
211 230 248
213 230 250
212 230 251
213 231 251
213 231 252
212 230 251
212 229 246
213 231 251
208 227 242
212 230 251
213 230 250
211 229 248
212 230 248
211 229 246
212 230 251
209 228 244
212 231 252
211 230 251
211 230 250
210 228 244
210 229 246
211 229 250
210 229 246
210 229 245
210 229 247
211 230 252
209 228 246
210 229 247
209 228 247
208 228 247
206 226 239
206 226 241
208 227 245
209 228 248
209 228 250
208 228 252
209 229 253
205 226 251
203 226 255
205 227 255
205 227 255
206 228 255
207 228 255
209 229 255
210 229 255
212 230 255
212 231 255
214 232 255
216 233 255
215 232 251
217 233 254
218 234 255
218 234 255
218 234 255
218 234 255
218 234 255
218 234 255
217 234 255
217 234 255
217 234 255
217 234 255
217 234 255
148 168 201
70 106 165
71 107 171
68 104 160
70 105 158
70 106 160
71 107 165
69 105 155
69 106 165
69 105 161
70 106 162
71 107 166
70 106 160
70 107 167
70 107 164
70 106 158
70 106 158
70 106 170
69 105 161
70 106 162
70 106 162
70 106 159
69 105 154
69 105 150
70 106 163
71 107 166
70 106 161
71 107 163
71 106 159
70 106 160
70 106 165
69 105 158
71 107 159
71 107 167
69 105 160
69 105 157
71 107 166
69 105 161
70 106 157
70 106 160
70 106 161
71 107 166
69 105 160
69 105 155
70 106 170
70 106 151
70 106 163
71 108 174
70 105 155
69 105 155
70 106 164
70 106 156
70 105 164
71 107 171
70 106 161
70 106 159
69 105 159
69 105 161
70 106 163
71 107 165
70 105 156
70 106 161
71 107 164
70 106 162
70 106 162
70 106 164
69 105 158
70 106 169
70 106 162
69 104 153
70 105 166
69 104 155
70 105 161
71 107 165
70 105 160
68 103 153
68 103 158
70 105 164
69 104 160
69 105 161
69 104 160
68 102 155
68 102 153
69 103 155
68 103 157
67 101 157
69 104 161
66 98 142
68 102 153
68 101 156
64 96 143
135 154 190
217 234 255
217 234 255
217 234 255
217 234 255
218 234 255
218 234 255
218 234 255
218 234 255
218 234 255
218 234 255
218 234 255
202 215 231
132 131 91
132 131 91
132 130 90
138 137 97
128 128 90
131 132 94
121 122 87
133 134 96
124 126 91
125 126 92
126 127 91
134 135 96
140 140 100
125 125 89
138 137 97
130 131 95
141 142 102
139 139 98
146 146 104
149 148 104
141 141 98
148 147 103
145 144 101
148 147 102
151 149 103
160 158 110
145 145 100
148 147 102
152 150 103
156 154 106
154 152 105
159 156 105
159 157 108
161 158 108
168 165 113
160 157 106
166 163 109
166 164 111
162 160 103
164 161 109
171 167 111
170 167 109
170 167 112
167 163 108
169 165 111
177 172 115
173 169 115
173 169 110
173 169 112
173 169 114
174 170 112
169 166 108
175 170 110
175 170 113
175 170 114
176 172 111
178 172 112
177 172 113
170 165 103
177 172 110
174 170 110
173 169 109
177 173 112
178 172 112
179 174 114
177 172 112
172 169 109
175 170 110
176 171 110
174 170 111
178 172 110
180 174 113
180 174 114
178 173 110
178 173 112
180 174 111
180 175 115
176 171 108
172 166 102
173 168 105
180 174 112
179 174 111
173 169 108
178 173 110
177 173 111
177 173 113
178 172 110
172 167 102
174 169 108
180 175 115
174 169 106
171 166 102
174 169 106
179 172 106
172 167 106
177 171 106
175 170 106
173 168 106
176 171 106
177 171 111
176 170 111
169 165 99
180 174 111
171 165 103
167 161 103
174 169 108
171 165 106
176 170 108
175 170 107
171 165 103
172 166 106
173 167 106
167 163 101
169 164 102
172 167 103
171 165 104
171 165 104
163 158 100
169 164 101
171 167 101
169 164 99
169 164 102
172 167 104
175 169 107
168 163 98
168 162 103
168 162 102
169 163 104
163 158 100
168 163 100
174 168 106
165 160 99
165 158 99
162 156 97
161 156 96
166 160 99
160 155 98
169 165 104
166 161 99
166 161 100
170 166 102
165 160 96
213 231 255
212 230 254
215 232 254
216 233 254
215 232 252
214 231 251
215 232 253
213 230 246
213 230 246
215 232 252
214 230 250
215 232 252
215 232 252
214 231 250
216 233 255
215 232 251
214 231 245
212 229 242
211 229 241
214 231 248
210 228 236
211 229 241
214 231 250
213 230 247
212 230 244
213 231 246
211 228 241
212 230 245
212 230 246
212 229 247
208 225 241
213 230 246
214 231 248
214 231 250
213 230 248
214 231 250
210 227 240
213 230 246
213 230 245
212 229 242
214 231 250
211 228 242
213 230 244
213 230 246
214 231 248
213 230 245
213 230 247
213 230 250
213 230 245
212 229 244
212 229 245
213 230 246
214 231 251
213 230 246
213 230 247
214 231 248
212 229 246
215 232 250
214 230 251
214 231 250
211 228 244
214 231 251
214 231 247
214 231 250
213 230 248
215 232 253
213 230 251
215 232 252
212 230 250
212 230 247
214 231 250
213 230 246
212 229 248
214 231 251
213 230 248
211 228 245
212 229 250
213 230 241
214 231 250
214 231 248
215 232 252
213 230 246
214 231 250
210 228 246
214 231 250
212 230 250
213 230 248
213 229 247
213 231 252
212 230 247
212 229 246
212 230 247
212 230 250
212 230 251
213 231 250
213 230 250
213 230 248
211 229 250
212 230 248
211 228 242
212 230 247
212 230 251
212 230 246
212 230 248
212 230 247
211 229 245
212 230 248
211 230 248
211 229 247
211 229 246
211 229 247
212 230 247
211 229 248
212 230 251
212 230 252
211 230 252
211 229 248
210 229 248
210 229 248
210 229 247
210 229 246
208 228 245
209 228 248
207 226 240
209 228 250
209 228 247
208 228 250
209 229 251
208 228 248
208 228 247
204 226 253
205 227 255
205 227 255
207 228 255
207 228 255
208 229 255
209 229 255
210 230 255
212 231 255
214 231 254
215 232 255
217 233 255
218 234 255
218 234 255
218 234 255
218 234 255
218 234 255
218 234 255
218 234 255
218 234 255
218 234 255
218 234 255
218 234 255
205 222 245
73 108 167
70 106 163
70 106 167
70 106 162
70 106 164
70 107 164
70 106 159
71 107 162
70 107 165
70 106 156
70 106 161
70 105 155
70 106 161
69 105 157
70 106 158
70 106 163
70 106 160
70 106 160
70 106 159
70 106 157
70 106 160
70 106 162
70 106 164
70 106 162
70 106 166
71 107 165
70 106 165
70 106 162
70 107 164
70 106 160
70 107 164
70 106 161
70 105 163
71 107 165
70 106 162
69 106 158
71 107 162
70 106 162
70 106 157
70 106 161
71 107 161
69 105 153
69 106 163
68 104 149
70 106 161
70 107 162
69 105 156
70 105 160
69 105 157
70 106 160
69 105 151
69 104 150
69 104 152
70 106 159
71 107 162
70 106 165
70 106 166
69 105 157
68 104 153
70 105 155
70 105 158
69 105 159
70 105 155
70 106 160
68 104 152
69 104 158
71 107 169
70 105 161
70 105 161
68 103 158
69 104 153
70 105 160
70 105 155
68 103 150
69 104 154
69 105 161
69 104 158
69 103 156
67 102 151
68 103 154
68 103 152
68 103 158
70 105 163
68 102 156
68 102 151
68 102 154
66 98 143
67 100 148
66 100 154
65 98 151
66 99 151
64 94 142
203 219 242
218 234 255
218 234 255
218 234 255
218 234 255
218 234 255
218 234 255
218 234 255
218 234 255
218 234 255
217 233 254
158 164 158
138 135 93
127 126 86
124 124 88
126 125 88
115 116 85
117 118 85
117 118 86
127 128 91
132 133 96
134 133 95
114 116 85
132 133 95
137 137 98
139 139 99
137 137 96
132 133 96
138 139 99
137 137 96
150 149 103
141 141 98
142 142 98
146 146 101
145 144 100
153 152 106
156 154 106
150 149 103
159 157 107
156 155 106
153 151 103
160 158 108
160 158 108
165 162 112
166 163 112
163 161 110
167 164 109
162 159 107
169 166 110
168 165 110
169 166 110
171 167 112
170 167 109
169 166 109
164 161 104
169 165 108
173 169 113
162 160 107
177 172 113
175 172 113
173 169 117
170 166 111
174 170 112
177 173 115
175 171 113
176 172 114
173 169 110
174 170 111
177 172 113
178 174 113
176 171 112
176 171 112
174 170 110
174 170 109
176 171 112
173 168 105
178 173 112
177 173 112
177 171 108
181 176 113
174 170 109
178 172 111
178 172 109
178 173 112
180 174 111
175 170 105
178 172 111
178 172 109
175 170 107
180 174 111
173 168 106
181 175 113
176 171 102
177 172 110
174 167 105
176 172 111
177 171 106
174 169 106
171 167 106
178 172 107
173 168 104
172 166 101
175 169 108
178 172 111
176 171 109
176 171 110
169 164 101
172 167 106
176 171 104
173 167 101
173 168 106
177 172 109
173 168 103
176 170 108
175 170 106
178 172 108
174 169 106
173 168 103
173 168 107
170 165 100
177 172 108
171 165 106
174 169 105
173 168 104
174 167 106
169 163 104
171 166 103
177 171 108
175 169 106
173 167 105
172 166 101
172 166 104
174 167 106
163 158 97
170 165 101
173 167 101
169 165 104
167 163 105
170 165 104
166 160 101
170 165 106
171 165 102
171 165 102
159 154 96
169 163 99
168 162 101
162 157 94
167 161 101
168 162 104
162 158 97
171 165 101
169 163 101
161 155 96
167 162 99
213 231 255
214 232 252
215 232 252
215 232 253
216 232 253
215 231 250
215 232 250
213 230 246
215 231 247
214 231 250
216 232 252
215 232 251
215 232 248
216 232 252
216 232 251
214 230 242
213 230 245
213 230 246
212 230 242
214 231 248
213 230 246
213 230 245
214 231 246
213 230 242
211 229 240
214 231 247
213 230 247
213 230 245
213 230 245
214 231 247
213 230 246
211 228 240
214 230 250
214 231 246
214 231 245
213 230 246
214 231 248
214 231 250
212 229 246
213 230 246
214 231 247
214 231 248
213 230 247
212 229 245
214 231 248
214 231 250
214 231 247
211 229 244
213 230 246
214 230 247
214 231 250
215 232 250
215 231 248
214 231 248
213 230 244
212 229 244
214 231 252
214 231 250
212 229 246
211 228 244
215 232 250
213 230 250
211 228 241
212 229 247
213 230 247
213 229 244
214 231 248
213 229 246
214 231 250
212 229 245
211 228 244
210 227 241
213 230 247
212 229 245
214 231 247
214 231 247
213 230 247
213 230 247
213 230 245
215 232 252
211 229 241
214 231 251
212 229 245
214 231 251
212 230 246
213 230 247
214 231 251
209 226 241
213 230 248
211 228 246
213 230 248
210 228 247
214 231 250
214 232 253
212 229 246
213 231 250
213 231 247
213 230 247
212 230 248
213 231 253
212 230 246
211 229 246
213 231 250
214 231 250
213 230 250
215 232 252
211 229 247
212 230 248
212 230 248
211 229 241
213 230 250
212 230 251
212 230 248
211 230 247
212 230 248
211 229 246
212 230 248
210 228 245
210 229 244
211 230 248
209 228 244
211 229 252
210 228 246
206 225 236
209 228 245
207 227 242
210 229 246
211 229 251
208 228 247
210 229 248
208 228 247
206 227 255
206 227 255
206 228 255
207 228 255
209 229 255
209 229 255
210 230 255
212 230 255
213 231 255
215 232 255
216 233 255
217 233 252
218 234 255
218 234 255
218 234 255
218 234 255
218 234 255
218 234 255
218 234 255
218 234 255
218 234 255
218 234 255
138 160 202
70 107 172
70 106 168
71 107 169
69 105 162
70 106 164
70 107 167
70 106 160
70 106 160
69 105 157
70 106 161
70 106 155
70 106 168
70 106 162
69 105 156
70 106 158
70 107 166
70 106 161
70 106 162
70 106 161
70 107 166
70 106 159
70 106 162
71 107 170
70 106 162
70 106 159
71 106 159
70 106 163
71 107 164
69 105 162
69 105 154
70 107 165
70 106 158
70 106 155
69 105 158
69 105 158
69 105 156
70 106 162
68 104 152
69 105 158
70 106 163
70 106 162
69 106 157
70 106 158
70 106 160
70 106 158
71 107 166
71 107 164
69 105 159
71 107 164
71 107 167
71 107 159
70 106 165
71 108 166
70 106 155
69 105 154
70 106 155
69 105 157
69 105 160
69 105 162
70 105 154
69 105 153
69 105 161
69 105 154
69 104 151
69 105 159
70 106 166
70 106 162
70 106 162
69 104 158
70 106 164
70 105 162
70 106 163
69 104 159
69 103 153
69 104 158
68 102 152
69 104 157
69 103 153
68 103 162
68 103 159
69 104 156
67 101 149
67 102 153
69 104 163
67 100 154
67 100 147
66 100 157
65 96 142
64 94 135
68 101 154
67 100 155
64 95 142
141 160 194
218 234 255
218 234 255
218 234 255
218 234 255
218 234 255
218 234 255
218 234 255
218 234 255
218 234 255
191 202 211
128 127 89
116 115 80
127 126 88
128 128 92
115 117 85
120 120 86
106 108 79
119 121 87
121 122 89
127 127 90
121 122 87
129 130 94
127 128 92
136 136 96
134 135 97
138 139 99
144 144 102
147 146 102
137 137 99
125 127 91
147 146 102
142 142 101
144 144 102
146 146 99
151 149 101
148 147 100
157 155 105
156 155 104
151 149 103
163 161 112
158 157 107
154 153 102
158 156 107
163 160 107
161 158 108
166 162 107
171 167 110
155 153 103
166 163 109
159 156 104
168 165 109
156 154 104
170 166 110
174 170 109
175 171 113
172 169 111
172 167 110
175 170 111
169 165 110
172 168 110
175 171 112
179 174 115
175 171 112
177 172 109
174 170 108
174 170 111
180 174 111
175 169 107
175 170 107
172 168 105
176 171 110
180 175 114
182 176 113
176 171 109
174 170 109
179 173 111
173 169 106
174 169 109
179 174 113
181 175 112
175 170 105
180 174 112
179 173 113
177 172 108
174 168 108
177 172 111
177 172 110
182 176 114
177 171 106
177 172 110
178 173 109
175 170 108
182 176 114
176 171 108
179 173 110
174 169 106
180 175 113
176 170 105
172 167 107
176 172 108
176 171 109
175 170 107
175 169 107
177 172 110
173 167 104
177 171 108
176 170 108
176 171 111
168 164 101
176 171 102
170 165 101
172 167 104
175 170 104
180 174 110
176 170 108
171 166 106
177 172 110
176 170 113
170 165 99
175 170 107
172 166 96
173 168 104
164 159 98
168 161 97
169 163 101
168 163 99
169 162 101
171 166 102
168 163 99
166 162 101
165 159 101
167 160 99
175 169 102
173 167 104
169 164 98
168 163 100
172 166 101
166 161 100
165 160 98
167 162 94
172 166 106
177 171 106
166 160 93
164 159 100
167 162 95
164 159 95
166 160 99
162 157 93
165 160 99
165 160 96
164 158 95
170 164 99
164 159 99
215 232 253
216 232 251
214 231 248
216 233 253
214 231 251
216 232 252
213 230 247
215 231 247
215 232 251
216 233 254
216 232 252
213 230 247
214 231 246
216 232 252
216 232 251
214 231 246
212 229 241
213 230 241
214 231 247
213 230 246
213 230 240
212 229 241
214 231 245
213 230 244
214 231 247
213 230 242
213 230 247
212 229 242
214 231 246
213 230 245
214 230 246
214 231 246
214 231 247
214 231 246
211 228 242
213 229 245
216 233 253
214 231 246
212 229 246
214 230 246
215 231 249
214 231 247
214 231 250
216 233 254
214 231 247
214 230 248
216 233 252
213 230 245
213 230 246
215 232 251
214 231 250
214 230 250
213 230 246
215 232 250
213 230 246
216 232 251
212 229 242
214 231 248
213 230 246
215 232 252
214 230 248
213 230 246
216 233 253
215 232 251
212 229 242
213 229 247
215 232 251
212 228 245
213 230 247
215 231 252
213 230 248
215 232 250
215 231 252
214 231 247
213 230 244
215 231 250
213 231 248
214 231 250
213 230 247
211 228 242
213 230 247
215 232 251
214 231 250
216 233 254
212 229 245
214 231 248
214 231 247
213 230 248
213 230 247
212 229 246
214 231 248
213 230 248
213 230 247
215 232 251
213 231 248
213 230 246
213 231 248
214 232 252
214 231 251
212 229 244
214 231 250
212 229 242
214 231 250
212 229 250
213 230 247
214 231 248
213 231 248
213 230 246
212 230 245
213 230 247
214 231 252
210 229 247
213 230 248
212 230 247
211 229 245
210 228 242
210 228 241
212 230 251
211 230 250
211 229 245
212 230 248
210 229 247
210 229 247
212 230 253
210 229 250
209 228 247
208 227 242
209 228 247
211 230 253
208 227 247
207 227 251
206 226 253
206 227 255
206 227 255
208 228 255
208 229 255
210 229 255
210 230 255
212 230 255
213 231 255
214 232 255
215 232 255
218 234 255
217 233 252
218 234 255
218 234 255
218 234 255
218 234 255
218 234 255
218 234 255
218 234 255
218 234 255
204 220 244
80 113 174
69 104 149
71 107 164
70 106 162
69 105 162
69 105 156
71 107 166
70 106 159
69 105 157
70 106 158
71 107 163
69 105 155
70 106 162
70 105 159
70 105 154
70 106 162
69 105 156
70 106 164
70 106 160
70 106 160
70 106 158
70 106 156
70 106 159
69 105 161
70 106 155
71 107 163
70 106 157
70 107 163
71 107 162
70 106 159
69 105 155
70 106 161
69 105 151
71 107 164
70 106 157
70 106 164
70 106 161
71 107 166
71 107 160
70 106 162
70 106 157
70 106 162
70 106 157
70 106 160
72 108 171
70 106 158
69 105 155
69 105 160
69 105 155
68 104 149
70 106 158
69 105 156
70 106 159
69 105 164
70 106 159
70 107 164
68 104 148
71 107 168
69 104 153
70 106 156
70 106 163
70 106 161
70 106 162
69 104 155
69 104 154
70 105 159
68 103 149
68 102 148
69 103 152
68 104 150
69 105 154
69 105 160
69 104 155
68 102 146
69 104 159
69 104 157
69 103 153
68 103 155
68 103 154
69 104 156
69 104 157
67 102 151
67 102 150
69 104 164
68 102 155
68 102 154
68 101 156
66 98 139
66 100 150
66 99 150
65 96 145
66 98 147
65 96 144
71 99 139
208 223 246
218 234 255
218 234 255
218 234 255
218 234 255
218 234 255
218 234 255
218 234 255
216 232 253
143 142 110
123 121 81
129 127 90
122 122 86
118 119 85
117 118 86
122 122 87
116 117 86
120 121 89
124 126 91
123 124 90
135 134 95
127 127 89
110 113 83
121 123 89
133 133 95
133 134 95
135 135 96
140 140 100
147 146 102
135 136 100
151 150 104
136 136 95
142 142 102
145 144 101
152 151 104
148 147 102
153 152 104
152 150 104
146 145 99
158 156 103
163 159 106
158 156 104
161 158 106
152 152 106
163 160 107
162 159 104
162 159 108
166 162 110
163 160 106
172 167 110
171 167 110
173 170 113
168 165 107
171 167 112
173 170 111
172 168 113
171 167 107
164 161 105
177 172 110
178 173 109
176 172 113
174 170 112
176 172 111
180 174 110
174 170 108
177 172 112
175 169 110
176 171 109
175 171 111
176 172 110
180 175 113
178 174 111
175 170 106
178 173 112
178 173 111
176 171 111
181 176 111
178 173 110
179 174 108
179 174 109
174 169 108
179 174 112
178 172 111
181 176 115
181 175 111
180 174 108
177 172 104
176 171 107
176 170 102
176 171 107
182 176 112
177 171 107
179 172 107
179 173 110
180 174 112
182 175 109
180 174 110
176 172 112
176 172 106
180 174 110
177 172 107
181 175 112
177 171 106
175 169 102
177 171 108
178 173 110
178 171 106
175 170 104
177 171 107
174 169 106
179 172 114
176 171 106
175 170 106
173 168 102
176 171 106
174 169 102
169 164 101
175 169 103
174 169 108
177 172 107
176 170 104
176 169 106
171 165 100
166 161 99
171 166 96
166 162 98
164 160 98
174 168 104
172 165 99
174 167 105
166 160 99
171 165 101
163 158 97
163 158 95
171 166 104
173 167 104
168 163 101
167 162 101
170 165 97
168 163 104
164 159 98
166 161 99
170 164 103
167 161 103
161 157 89
169 164 101
172 166 103
164 159 96
170 165 103
164 158 97
160 155 93
168 164 99
163 157 96
216 232 252
216 232 254
215 231 248
216 233 253
216 232 250
215 232 250
215 231 248
216 232 251
216 232 252
215 231 247
216 232 250
215 232 248
216 232 251
216 232 250
216 232 251
215 231 247
213 230 242
214 231 245
214 231 246
213 230 244
215 231 247
214 231 246
214 230 247
215 231 246
212 229 237
214 230 245
211 228 239
216 232 250
213 230 246
213 230 246
215 232 248
211 228 240
215 231 247
216 232 250
215 232 251
213 230 244
214 230 246
214 230 248
215 231 245
211 228 241
215 231 246
213 230 247
216 232 250
214 231 247
212 228 245
214 231 246
215 232 250
214 230 245
214 231 250
216 232 252
215 231 247
217 233 253
211 228 242
212 229 241
214 231 246
214 230 250
214 231 250
214 230 247
213 229 245
212 229 247
213 230 246
216 232 253
214 231 247
214 230 246
215 231 252
213 229 248
210 227 244
213 230 247
215 231 250
212 230 247
214 231 247
215 231 250
213 230 247
213 229 245
212 229 242
212 229 241
214 231 247
213 230 250
212 229 248
215 232 251
214 230 245
214 231 248
210 227 242
213 230 248
215 231 247
214 231 248
214 231 248
214 230 245
213 230 248
213 230 246
213 230 245
213 230 247
212 229 245
214 231 248
214 230 247
214 231 248
212 229 244
212 230 245
214 232 252
213 230 250
214 231 248
214 231 248
212 229 244
213 230 245
211 229 246
214 231 251
212 229 245
214 231 252
213 231 248
212 229 244
212 230 247
213 230 248
210 228 242
214 232 253
212 230 245
212 229 242
212 230 247
212 230 245
212 230 248
209 228 240
212 230 250
212 230 250
210 228 245
211 230 252
211 229 246
207 226 240
208 227 242
206 225 233
208 226 243
207 226 249
206 225 247
205 224 247
207 227 251
206 227 255
202 222 250
207 227 254
207 227 254
210 230 255
212 230 255
213 231 255
214 232 255
215 232 255
217 233 255
217 233 253
219 234 255
219 234 255
219 234 255
219 234 255
219 234 255
219 234 255
219 234 255
219 234 255
158 177 214
70 105 158
70 106 168
70 106 161
70 106 161
69 105 160
71 107 166
69 106 162
69 106 159
70 106 158
70 106 156
68 103 152
70 106 162
69 106 160
69 104 154
70 107 164
70 106 157
71 106 158
70 105 152
70 106 163
70 106 156
70 107 165
69 106 158
69 104 151
71 107 168
70 106 162
69 104 150
70 107 162
71 106 158
70 106 158
70 106 160
70 106 163
70 106 161
69 105 159
69 105 152
70 107 162
69 105 157
69 105 158
70 106 156
70 105 157
71 106 159
70 106 166
69 106 159
70 105 151
69 105 156
70 106 158
69 105 156
69 105 156
70 105 158
70 105 156
70 106 153
69 105 155
71 107 166
70 106 159
68 103 138
69 105 155
70 106 161
68 103 148
69 105 150
69 105 160
69 105 156
69 105 156
69 104 160
69 104 159
69 105 154
69 105 156
70 105 161
70 105 156
69 104 156
69 104 152
68 103 153
70 106 163
68 102 147
69 104 154
69 104 157
70 106 163
69 104 156
69 104 158
68 103 155
69 103 154
67 101 144
69 104 152
66 101 141
69 103 158
69 105 165
67 100 144
68 102 149
67 102 153
68 101 156
67 101 156
66 98 140
66 99 148
66 98 146
65 98 151
64 95 142
162 179 206
219 234 255
219 234 255
219 234 255
219 234 255
219 234 255
219 234 255
219 234 255
193 205 218
115 114 79
111 109 74
112 113 81
125 125 88
124 125 87
107 108 78
117 118 86
118 119 85
130 131 94
122 123 89
123 124 89
119 121 89
123 126 92
132 132 94
125 127 93
132 132 93
125 127 91
128 130 91
123 125 89
138 138 97
145 144 103
139 139 98
146 146 99
143 141 98
150 149 102
148 148 103
146 145 102
150 149 102
155 154 106
154 153 104
151 150 103
160 157 104
162 159 107
165 163 109
164 162 110
161 159 110
152 150 102
159 157 105
163 160 107
158 157 103
172 168 111
170 167 111
173 168 107
168 164 109
174 169 112
172 168 109
175 169 108
168 166 110
169 166 108
176 171 112
171 168 109
173 169 110
177 173 111
175 170 110
174 170 109
175 170 108
171 167 105
176 172 113
173 168 107
174 170 106
177 172 111
176 172 106
176 171 111
177 172 111
178 174 108
182 177 115
179 174 112
176 172 109
178 174 115
173 169 105
177 172 107
177 173 110
176 171 108
181 175 110
177 172 106
175 170 108
174 169 107
178 173 109
178 172 107
178 173 111
180 174 111
175 170 107
180 174 111
180 174 106
177 172 111
179 173 110
174 169 106
181 175 112
177 172 111
177 172 109
181 175 108
178 172 109
173 168 106
175 168 103
177 172 105
176 170 105
169 164 97
171 167 101
172 167 102
171 167 103
176 170 105
174 167 104
172 167 102
175 170 106
177 171 106
172 168 107
170 165 104
179 172 105
175 169 107
175 169 104
181 175 110
175 169 106
173 167 103
174 169 105
172 166 104
172 167 104
171 165 106
173 168 102
174 168 103
169 163 99
168 163 100
166 162 97
169 163 99
167 162 96
168 162 100
169 165 103
170 165 100
165 159 95
163 157 93
166 161 99
168 163 98
167 162 96
171 165 101
163 158 92
170 165 101
163 157 95
168 162 99
170 165 99
169 162 96
172 166 101
170 164 104
167 161 97
169 163 98
167 161 99
215 231 247
217 233 252
216 232 248
215 231 251
217 233 253
216 232 251
218 233 253
217 233 252
215 231 251
216 232 250
214 231 245
216 233 251
216 232 248
217 233 252
216 232 248
213 230 244
212 229 239
214 231 245
214 231 246
216 232 250
213 230 242
215 232 247
214 231 242
215 231 245
216 232 251
216 232 250
214 230 244
211 228 240
215 231 247
215 232 247
212 229 241
213 230 244
213 229 245
215 232 248
215 231 246
215 232 250
213 229 241
214 230 246
217 233 253
214 230 244
216 233 251
215 232 250
216 232 251
216 232 251
215 231 248
213 230 245
214 230 247
214 230 248
214 231 247
213 230 244
216 233 252
214 231 247
216 233 252
215 231 250
216 232 252
216 233 254
214 230 246
216 232 251
216 232 252
215 231 248
216 232 251
211 227 244
212 228 244
214 230 250
214 230 247
213 230 246
215 231 252
214 231 250
214 230 247
215 231 251
214 231 251
213 230 246
213 229 246
214 231 252
216 232 248
211 228 245
214 231 248
216 232 251
213 229 247
215 232 252
215 232 251
213 229 247
213 230 247
214 231 248
215 231 252
214 230 245
213 230 245
215 231 250
212 229 245
212 229 247
215 232 248
215 232 250
213 230 242
214 231 248
215 231 250
215 232 252
214 231 248
215 231 250
215 231 248
213 230 247
216 233 254
214 231 247
214 231 251
214 231 247
213 230 246
212 230 246
214 231 251
215 232 253
213 230 246
213 231 247
214 231 248
212 230 244
213 230 245
214 231 248
212 230 246
212 230 245
213 231 251
213 231 248
213 230 248
212 230 245
211 228 244
211 229 245
213 231 251
211 229 246
209 227 244
209 227 242
209 227 247
207 225 238
207 226 240
210 228 245
208 226 247
206 225 248
205 224 248
207 227 254
205 225 253
205 225 253
204 224 252
204 224 251
212 230 255
213 231 255
214 231 255
215 232 255
216 233 255
217 233 255
218 234 254
219 234 255
219 234 255
219 234 255
219 234 255
219 234 255
219 234 255
215 231 253
92 121 169
70 106 162
70 106 160
70 106 163
70 106 159
69 105 159
69 105 160
69 105 151
71 107 166
70 106 160
71 107 165
69 105 163
71 107 162
70 106 157
70 106 163
70 106 162
70 105 157
70 106 161
70 106 158
69 105 161
70 106 159
71 106 158
70 105 155
71 106 163
69 105 152
70 106 160
70 106 157
70 106 158
71 107 166
70 105 153
69 105 154
70 105 153
68 103 145
69 104 154
69 104 155
70 106 157
71 107 160
70 106 157
70 106 156
70 106 160
69 105 145
70 106 157
69 105 158
70 106 157
70 105 157
69 104 156
70 106 161
70 106 160
70 106 161
70 106 162
70 105 154
70 106 157
69 105 154
69 105 151
69 104 156
70 106 162
69 105 157
69 104 152
70 106 164
70 106 155
70 106 159
69 105 152
71 107 166
70 106 160
69 105 160
69 105 155
68 104 156
70 106 163
70 105 160
71 106 163
69 104 158
70 106 159
67 102 144
69 103 157
68 103 154
68 102 147
69 104 149
68 103 152
69 104 158
68 102 152
68 103 154
67 101 151
68 103 152
70 105 160
69 104 153
69 104 160
70 105 162
68 102 156
67 100 150
68 102 148
67 99 139
68 101 152
66 99 151
65 97 146
64 95 142
101 122 157
218 233 254
219 234 255
219 234 255
219 234 255
219 234 255
219 234 255
219 234 255
141 144 130
120 119 83
109 110 78
126 125 86
110 112 82
117 118 84
112 114 83
121 122 88
126 129 92
114 116 83
118 120 87
106 110 80
124 126 92
132 134 97
130 131 94
123 125 90
131 133 97
127 129 91
128 130 94
136 136 96
131 131 95
131 131 90
149 148 103
140 140 97
154 152 104
150 149 102
140 140 99
150 148 101
147 146 100
151 149 100
153 152 102
157 155 102
154 153 104
159 157 106
164 161 108
158 155 101
162 158 104
162 159 106
163 158 101
161 159 106
163 160 104
169 165 111
169 164 109
168 165 106
166 163 107
170 167 110
170 166 109
170 166 109
169 166 108
173 169 112
172 169 113
171 167 109
173 169 108
176 171 111
171 166 106
176 171 107
177 172 111
175 170 109
176 171 111
175 172 112
174 169 105
177 172 110
179 174 113
178 173 109
175 170 105
176 171 109
174 170 107
180 175 110
178 172 110
178 173 110
178 173 109
177 172 111
178 173 109
176 172 106
181 173 109
177 172 106
182 176 112
178 172 107
180 175 112
175 170 105
176 170 101
175 171 108
177 173 104
175 170 106
174 169 108
175 170 106
174 169 104
180 174 110
178 172 106
177 173 106
179 173 106
175 170 106
177 170 108
176 171 108
175 170 104
179 174 108
170 165 101
177 171 102
174 169 105
176 170 105
172 168 103
170 166 102
170 165 104
178 172 108
175 170 103
167 163 104
172 167 106
171 166 99
173 167 101
169 164 98
171 166 100
177 171 108
170 165 99
172 167 99
173 167 103
173 168 104
173 168 105
164 159 99
173 167 100
169 164 101
172 167 101
173 167 104
169 163 98
173 168 106
166 161 97
169 163 100
169 164 100
164 159 99
173 167 104
167 162 95
170 164 99
171 166 100
170 164 97
164 159 96
167 162 97
176 170 106
169 162 99
156 151 90
169 164 100
165 160 94
161 155 90
158 154 89
165 160 98
167 162 97
158 152 96
217 233 253
216 233 251
216 232 248
217 233 254
215 232 250
216 232 248
217 233 252
216 232 250
215 231 247
217 233 251
216 232 250
216 232 250
218 233 253
216 232 248
213 230 242
214 230 242
212 228 233
215 231 246
211 228 235
215 232 248
215 231 245
213 230 242
215 232 247
216 232 250
214 231 245
214 230 242
215 231 245
216 232 247
215 231 247
216 232 247
216 232 247
214 231 246
214 231 246
216 232 248
215 231 246
217 233 253
215 232 247
217 233 253
215 231 246
216 232 251
216 232 250
214 230 244
216 232 248
217 233 253
215 232 247
215 231 246
216 232 248
214 231 244
216 232 248
217 233 251
215 231 246
215 231 247
217 233 252
216 232 250
213 229 244
210 227 240
217 233 253
212 229 242
216 232 251
213 230 242
214 230 247
216 232 251
214 230 246
215 231 248
213 229 247
213 229 246
213 230 246
214 231 248
213 229 245
212 228 245
214 231 250
215 232 252
215 231 248
216 232 250
213 229 244
212 229 245
216 232 251
211 227 242
216 232 248
214 231 247
214 230 251
214 231 245
213 229 242
215 232 251
215 231 247
214 231 250
214 230 242
214 231 248
214 230 245
214 230 248
216 233 252
215 231 251
215 231 250
213 229 241
215 231 250
215 231 251
215 231 247
213 230 247
213 230 247
214 231 247
214 231 248
215 232 250
215 231 248
213 230 246
214 231 247
214 230 245
215 232 251
215 232 251
212 229 246
213 230 246
213 230 246
214 231 247
215 232 251
215 232 253
213 230 246
214 232 251
214 231 250
212 230 244
214 231 250
212 230 247
212 230 246
214 231 253
212 229 240
211 228 248
204 222 238
207 225 245
207 225 245
207 225 236
205 224 237
209 227 244
209 227 242
205 224 248
209 227 248
206 225 247
202 223 250
207 227 254
199 219 247
205 224 251
204 223 250
212 230 255
214 232 255
215 232 255
217 233 255
217 233 254
218 233 253
219 235 255
219 235 255
219 235 255
219 235 255
219 234 255
219 234 255
188 205 232
69 105 166
69 104 156
70 106 158
71 106 162
70 107 167
69 105 156
69 105 160
70 106 162
69 105 152
69 105 153
70 106 156
70 106 164
70 105 152
71 107 166
69 105 162
68 104 150
69 105 154
69 105 149
69 105 150
69 105 153
70 106 155
69 105 160
69 105 153
70 105 160
69 105 153
69 104 148
70 106 157
71 107 163
70 106 161
69 105 157
70 106 156
71 107 164
69 105 157
70 106 153
70 106 162
70 106 158
70 106 156
70 106 165
68 103 144
70 106 160
70 106 161
69 104 146
70 106 154
71 107 162
70 105 155
70 106 161
69 104 151
68 104 152
70 106 166
71 106 161
70 106 159
69 104 148
68 104 153
70 106 164
70 106 159
69 105 155
70 105 154
70 106 160
69 105 155
70 105 151
68 104 154
69 105 159
69 105 154
69 104 158
70 105 159
69 105 150
70 105 158
70 106 158
69 104 152
69 104 148
69 104 150
69 104 150
67 101 147
69 103 150
69 104 156
67 103 155
68 103 157
69 103 148
68 102 148
66 100 145
68 102 150
69 104 157
67 102 149
68 103 161
67 101 145
68 102 156
68 102 156
68 102 155
67 101 150
68 102 155
66 98 149
66 98 141
65 98 142
65 96 143
65 97 149
64 94 136
185 201 225
219 234 255
219 234 255
219 235 255
219 235 255
219 235 255
196 207 219
125 124 82
115 115 80
114 114 81
104 104 74
115 116 83
104 106 78
113 114 84
118 120 87
112 116 87
101 105 78
116 118 86
125 126 91
123 124 89
122 123 88
132 133 96
129 130 93
125 128 93
125 126 89
134 135 98
143 142 99
134 134 91
123 125 90
144 143 97
144 143 101
134 134 88
149 147 98
148 147 99
151 149 100
143 142 97
152 149 100
154 152 103
152 150 98
156 153 100
157 155 103
159 157 106
157 154 104
167 163 106
159 157 106
164 161 107
164 161 106
168 164 106
167 163 106
167 164 107
167 164 107
165 161 106
169 165 106
172 168 109
166 163 106
169 164 105
179 174 113
168 164 102
176 171 110
172 169 105
179 174 110
175 170 106
176 171 111
176 171 107
174 169 109
170 166 105
171 167 109
176 171 110
173 168 103
177 172 111
177 171 108
179 174 111
176 171 106
177 172 107
179 174 109
179 174 108
177 172 109
183 176 111
177 172 106
179 174 110
178 171 108
176 172 108
179 174 110
180 174 110
179 174 109
177 172 104
178 172 104
178 173 107
176 170 109
175 170 103
179 174 108
178 172 107
181 174 108
180 174 111
183 177 116
172 167 100
179 174 106
175 170 105
178 172 106
173 169 104
180 175 108
175 170 104
175 170 105
177 171 106
180 174 108
177 171 107
174 169 108
176 170 101
172 167 103
179 173 111
176 171 110
175 169 104
171 166 98
177 170 108
172 167 106
174 168 97
175 170 100
170 165 103
174 169 104
176 170 103
176 169 104
176 170 104
168 163 103
166 161 93
170 166 101
168 163 97
171 165 96
170 164 100
170 165 99
168 163 96
162 157 96
169 164 97
171 166 100
171 165 101
175 169 101
166 160 99
166 160 96
169 164 100
166 160 97
166 161 99
169 163 99
165 159 99
169 163 99
165 160 96
159 155 93
168 162 96
167 161 96
175 169 106
168 162 96
169 163 101
167 162 104
169 164 103
218 234 255
218 234 253
218 234 253
218 234 254
216 232 248
218 233 253
216 232 252
217 233 251
218 233 253
218 234 254
217 233 252
218 233 252
216 232 250
216 232 251
213 229 239
212 229 236
214 231 244
214 230 243
216 232 247
216 232 247
215 231 244
215 231 244
215 231 244
216 232 248
215 231 247
216 233 251
216 232 248
213 229 242
216 232 250
216 232 250
214 231 245
212 229 245
217 232 251
214 230 245
216 232 251
213 229 241
216 232 248
216 232 247
216 232 248
214 230 246
217 233 252
216 232 247
217 233 252
217 233 250
217 233 251
217 233 251
216 232 247
217 232 250
215 231 244
214 231 246
215 231 248
216 232 247
215 231 251
215 231 245
212 228 241
214 230 246
215 231 248
216 232 248
215 231 251
216 232 251
215 231 247
215 231 248
213 229 245
215 231 250
216 232 250
213 230 246
216 231 251
217 233 252
212 228 245
216 232 248
215 231 248
217 233 253
215 231 247
215 231 247
215 232 250
216 232 250
214 230 247
212 229 245
214 231 248
212 229 242
213 229 246
215 231 247
216 232 251
214 231 248
214 230 250
216 232 251
214 230 247
216 232 248
215 231 246
215 231 247
215 231 250
215 232 250
212 228 241
216 232 251
214 231 244
214 230 245
214 231 247
213 229 242
215 231 246
215 232 248
216 232 251
215 232 248
216 232 250
213 230 246
212 230 242
215 232 251
213 229 244
214 231 248
213 230 241
215 232 251
213 230 242
215 232 250
213 230 245
214 231 250
215 232 248
215 232 252
212 229 241
215 232 251
215 232 252
209 227 231
213 230 247
208 226 242
208 226 240
205 223 237
201 219 235
204 222 231
205 223 238
206 223 239
204 222 237
205 223 242
214 231 250
210 228 249
208 226 245
209 227 249
207 226 251
207 227 253
205 225 251
203 222 250
206 225 251
207 225 251
209 226 250
215 232 255
216 233 255
217 233 255
219 234 255
219 235 254
219 235 255
219 235 255
219 235 255
219 235 255
219 235 255
151 171 208
69 105 160
69 105 156
70 106 162
71 107 165
71 107 162
70 106 154
69 105 153
70 106 161
69 104 151
70 105 156
70 106 162
70 105 158
70 106 162
70 105 153
68 104 156
71 107 163
69 105 156
69 105 157
69 105 155
70 106 157
68 103 146
71 107 165
70 106 162
71 106 158
71 107 167
69 105 163
71 107 160
69 105 152
70 106 155
70 106 158
69 106 157
70 106 154
70 106 163
71 108 171
69 105 162
70 106 161
69 105 153
70 106 156
70 105 153
69 104 148
70 106 153
69 105 156
69 104 152
69 105 154
69 104 151
70 105 156
71 106 162
69 106 154
69 105 158
70 106 161
69 105 155
70 106 162
68 104 159
70 105 158
70 106 155
69 105 153
71 107 165
70 106 161
69 105 152
70 105 162
70 105 155
70 106 156
70 105 156
70 106 156
69 104 152
69 104 158
69 104 156
71 106 162
68 104 148
69 105 155
69 105 153
68 103 147
68 104 150
69 104 154
70 105 162
69 104 152
70 105 159
67 101 142
67 101 147
69 103 152
69 103 152
68 103 147
69 104 154
68 102 152
69 104 159
67 101 147
66 100 147
66 100 142
67 101 145
69 103 157
66 98 144
65 96 140
67 100 144
66 98 142
65 97 144
61 91 139
146 162 188
219 235 255
219 235 255
219 235 255
219 235 255
219 235 255
154 159 148
114 114 80
125 124 86
107 107 75
97 100 75
105 107 78
112 114 83
103 106 77
110 111 81
114 116 86
108 111 83
111 114 84
120 122 89
113 116 85
124 126 90
120 122 87
118 120 86
133 133 93
125 127 91
123 125 87
134 135 96
125 127 89
132 133 93
134 134 93
138 137 95
137 137 93
148 146 99
151 148 98
144 143 99
152 151 100
155 154 102
156 154 101
155 154 102
155 153 104
153 152 99
160 157 104
154 152 99
164 161 107
161 159 104
163 160 102
165 161 106
163 159 106
164 161 105
167 164 109
167 164 105
168 163 104
170 166 108
169 164 102
173 168 109
173 169 109
170 166 106
167 163 103
175 170 110
170 167 108
173 168 107
174 170 110
176 171 109
173 169 108
181 175 111
175 170 109
174 170 106
179 175 111
173 168 105
179 174 109
175 171 109
181 175 112
178 172 108
182 176 112
178 173 107
176 171 106
176 171 104
177 172 109
181 176 112
181 175 109
177 172 108
183 177 113
180 174 110
178 171 103
181 176 112
181 174 108
175 169 106
181 175 112
177 172 106
178 173 108
178 172 106
180 174 106
174 168 100
181 176 109
178 172 103
179 173 107
178 172 108
172 166 97
182 176 110
177 171 108
176 172 104
175 170 101
176 171 109
176 170 102
174 169 103
178 172 106
178 172 106
170 165 96
175 169 104
176 171 103
173 168 104
176 170 101
174 168 101
177 171 104
176 169 101
176 169 103
174 168 104
173 167 99
177 170 106
173 167 99
171 166 99
176 170 106
175 168 102
165 160 96
173 167 104
168 163 97
170 164 99
170 164 102
174 167 102
168 162 99
169 163 95
170 164 99
172 167 104
166 160 98
167 162 100
169 162 97
163 158 99
168 162 95
165 160 95
172 167 100
168 163 96
170 164 99
162 157 93
170 164 99
161 155 89
162 157 90
168 163 95
164 159 92
174 167 105
164 159 97
168 162 96
163 157 93
217 233 253
218 234 253
219 234 255
216 232 247
218 233 252
216 232 251
218 234 253
218 234 252
218 234 253
217 233 250
217 232 250
218 234 253
216 232 250
216 231 247
215 232 246
216 232 250
217 233 250
216 232 247
216 232 247
215 231 241
216 232 250
215 231 247
213 230 240
216 232 247
217 233 250
215 231 241
213 230 239
215 231 244
215 231 249
216 232 248
215 231 246
215 231 246
215 232 246
215 231 247
216 232 248
216 232 248
214 230 244
216 232 247
218 234 253
217 233 251
217 233 251
216 232 248
215 231 242
215 231 244
216 232 246
217 233 251
217 233 248
218 233 252
216 232 247
215 231 247
215 231 248
215 231 247
213 229 246
216 232 247
214 230 248
215 231 247
216 232 251
217 232 250
213 229 246
216 232 252
214 230 247
215 231 248
217 233 253
211 227 241
211 227 242
214 231 248
217 233 252
215 231 246
215 231 251
215 232 248
214 230 248
216 232 252
216 232 250
216 232 248
215 231 247
215 231 250
215 230 247
215 231 245
215 232 246
216 232 248
213 229 246
216 232 251
214 230 247
216 232 250
214 230 248
217 232 251
216 232 247
214 230 248
212 229 242
214 230 245
215 231 247
214 230 247
215 231 245
216 232 250
215 232 250
213 230 246
215 231 247
214 231 245
215 232 250
213 229 244
216 232 247
215 232 251
214 230 242
214 230 245
213 230 246
215 231 248
214 231 246
214 231 246
214 231 250
215 232 250
215 231 248
213 230 245
215 232 250
215 232 248
212 229 242
214 231 248
215 232 252
215 232 250
212 230 245
212 229 246
208 226 247
205 222 233
213 230 244
209 226 245
205 222 240
205 222 235
205 223 240
213 230 247
202 220 239
206 224 236
209 226 242
208 225 244
210 227 252
211 228 250
209 228 250
204 223 250
206 225 251
203 222 249
206 225 250
207 225 250
210 228 253
212 230 253
216 233 255
217 233 255
218 233 254
220 235 255
220 235 255
220 235 255
220 235 255
220 235 255
212 228 248
78 111 168
68 104 150
71 107 165
68 104 153
69 105 159
68 104 148
69 105 152
70 106 154
69 105 156
70 106 159
70 106 159
70 105 151
70 106 160
69 105 156
71 107 167
70 105 156
69 105 154
69 105 146
68 104 145
69 105 154
70 106 160
71 106 162
69 105 159
69 105 155
70 106 160
69 105 155
69 106 161
69 105 152
69 104 153
69 105 155
70 106 158
70 106 159
69 105 153
68 103 144
71 106 160
70 106 157
68 103 142
70 106 158
70 106 153
71 107 164
70 105 154
70 106 155
70 106 156
70 106 156
70 105 153
71 107 158
69 105 154
70 106 158
70 106 160
69 105 152
68 103 145
71 106 160
70 106 163
70 106 162
68 103 151
70 106 163
69 105 158
70 106 159
69 104 149
69 105 153
69 105 152
68 104 157
70 106 156
69 104 154
70 105 154
68 103 144
69 105 167
71 107 167
69 105 156
69 105 156
69 104 145
70 106 161
68 103 144
70 106 158
67 102 141
68 104 147
69 104 157
68 102 152
69 104 156
69 104 157
69 104 156
67 100 146
68 102 149
69 103 151
68 102 152
66 100 139
68 102 155
68 102 155
68 102 155
65 98 143
68 101 149
67 99 148
67 100 152
65 96 144
66 98 141
60 90 135
62 91 131
62 92 142
215 230 250
220 235 255
220 235 255
220 235 255
209 222 237
117 116 77
102 103 71
109 111 80
106 107 77
115 115 82
104 106 77
104 106 78
96 99 72
118 120 87
103 107 80
114 117 85
104 108 82
115 118 87
129 131 93
113 116 85
121 123 89
122 124 88
125 127 89
133 132 91
139 139 94
132 132 92
135 136 93
134 135 96
137 137 94
151 149 100
142 141 95
155 153 101
151 150 103
152 150 100
147 146 99
149 149 103
152 149 99
153 152 98
157 155 102
158 155 105
154 151 99
151 150 100
154 153 96
157 154 99
157 155 101
159 156 99
164 162 110
161 158 102
172 167 108
166 163 106
167 164 107
175 170 111
167 164 105
171 167 103
172 168 108
175 170 110
170 166 99
170 166 109
172 168 104
167 164 102
176 171 105
167 164 104
174 169 104
173 169 105
178 172 104
176 171 110
178 172 108
175 171 106
176 171 104
176 171 110
178 173 108
178 172 109
177 172 107
178 173 109
180 174 108
180 174 106
175 170 103
180 174 106
177 173 107
175 170 99
178 173 106
177 172 107
177 172 106
178 173 110
180 175 110
179 173 104
181 175 106
179 173 110
177 171 102
177 171 107
179 173 104
179 173 109
177 172 103
181 174 108
175 170 105
178 172 106
181 174 108
181 175 110
179 173 109
176 171 103
173 168 104
181 175 112
178 172 103
176 170 101
174 169 103
169 164 96
175 169 99
176 171 105
176 170 103
179 172 106
175 170 106
172 167 100
171 165 99
179 172 106
174 168 102
171 166 101
175 169 104
171 167 106
174 168 104
175 169 104
170 165 98
173 168 99
167 162 98
173 167 100
173 168 101
163 158 92
170 164 98
170 165 98
164 159 93
167 161 99
170 163 99
174 168 104
170 163 102
162 156 91
169 163 98
166 161 97
168 162 96
168 162 92
161 157 95
169 163 104
172 165 99
164 159 93
169 164 99
162 157 87
168 162 99
176 170 101
166 160 98
167 161 89
164 160 93
159 153 93
166 160 98
219 234 254
219 234 254
218 234 253
219 234 253
218 233 252
218 234 252
218 234 252
219 234 252
218 233 250
218 234 252
219 234 254
218 234 253
218 234 251
217 232 247
214 230 240
217 233 251
216 232 246
216 232 247
216 232 246
212 228 239
216 232 247
215 231 242
217 233 248
216 232 248
216 231 244
216 232 245
215 231 242
217 233 248
215 231 241
217 233 253
215 231 245
216 232 246
216 232 248
217 233 251
217 233 248
216 232 250
218 233 251
217 232 248
219 234 253
217 233 248
216 232 250
215 231 245
214 229 239
216 232 246
217 232 250
217 233 250
216 232 247
217 233 250
218 234 252
217 232 250
215 230 248
215 231 248
215 231 245
215 230 245
216 232 248
215 231 248
215 230 250
217 232 252
216 232 250
211 227 241
214 230 248
216 232 248
215 231 246
215 230 247
217 233 252
212 228 244
217 233 252
218 234 253
214 230 246
217 233 253
215 231 248
217 233 252
213 229 241
214 230 246
214 230 247
216 232 250
215 231 251
213 229 242
215 231 248
215 231 244
213 229 247
216 232 247
217 233 251
214 230 244
216 232 252
214 230 245
217 233 251
216 232 248
215 231 245
215 231 244
216 232 250
215 231 245
216 232 246
214 230 245
216 233 251
217 233 252
216 232 252
216 232 248
215 232 247
213 229 241
214 230 241
214 230 242
215 231 247
216 232 251
215 231 247
214 231 245
215 231 245
214 231 246
216 232 250
216 232 252
215 231 244
215 232 247
214 231 250
214 231 247
214 231 246
216 232 252
214 230 246
211 228 245
213 230 245
214 230 246
213 229 243
211 228 246
207 223 244
210 227 240
204 221 241
205 222 242
209 226 241
207 224 240
209 226 240
202 220 223
203 221 231
208 225 244
209 226 247
207 225 248
210 227 242
207 226 252
208 227 253
200 219 247
204 222 249
207 225 251
208 226 250
209 226 251
211 227 251
217 233 255
218 234 255
219 235 255
219 234 253
220 235 255
220 235 255
220 235 255
191 207 230
69 105 154
69 105 155
69 105 154
69 105 159
70 106 153
69 106 160
70 106 156
68 103 148
70 106 161
70 106 155
69 105 153
69 104 146
70 105 156
69 105 156
69 105 151
70 106 155
70 105 151
69 105 153
70 106 159
70 106 157
69 105 156
70 106 157
70 105 156
70 106 157
69 105 149
70 105 155
70 106 154
69 105 158
70 106 159
68 104 144
70 105 160
69 105 153
69 105 152
70 106 161
70 106 154
69 105 152
69 104 150
69 105 149
70 106 151
69 105 149
68 104 144
69 105 155
69 104 146
70 107 160
69 105 151
69 105 154
70 105 153
71 106 155
69 105 155
69 104 147
69 104 148
69 104 153
68 104 145
70 105 157
69 105 153
70 106 163
70 106 154
69 105 154
69 105 158
69 104 149
68 103 146
70 105 159
68 104 143
70 104 150
69 105 154
69 104 152
70 106 162
70 105 153
70 105 156
68 103 151
69 104 158
68 103 141
69 104 153
68 104 155
67 102 150
68 103 150
69 105 157
68 103 150
69 104 152
69 103 147
67 102 150
68 102 149
69 103 155
68 102 149
68 102 148
69 104 155
68 102 143
67 100 145
66 99 139
67 100 146
66 99 150
65 97 143
66 99 141
65 97 139
66 97 139
65 97 145
62 92 136
63 93 146
187 203 227
220 235 255
220 235 255
220 235 255
177 185 188
122 121 83
117 116 81
116 116 80
104 105 76
111 111 80
102 104 77
95 99 74
101 105 80
100 104 79
100 103 75
107 110 81
107 110 81
120 122 88
119 121 87
124 124 88
118 121 88
122 123 89
116 118 84
115 118 87
132 133 94
125 126 88
131 132 90
129 131 89
143 143 99
141 140 96
144 143 97
135 133 88
142 142 94
152 150 98
146 145 98
146 146 99
153 151 99
155 153 102
157 154 104
157 155 101
158 155 102
155 154 102
161 159 103
153 150 99
154 152 100
162 159 101
156 154 103
164 161 105
162 158 100
160 157 103
169 164 106
168 164 102
172 168 106
170 167 108
166 163 105
176 172 110
172 168 106
176 172 111
170 166 104
171 166 104
179 174 110
172 168 106
170 166 104
174 169 103
178 173 111
174 169 106
178 173 107
171 168 107
172 167 106
178 172 105
179 173 108
170 165 104
180 174 108
173 168 104
178 172 106
179 174 108
180 174 108
183 177 112
180 174 109
180 174 110
177 172 106
175 170 104
177 171 105
179 173 106
178 173 104
177 172 104
181 175 113
179 173 101
181 175 108
181 175 108
176 170 104
178 171 105
178 172 104
175 170 104
180 173 107
177 171 104
174 169 104
177 171 104
174 168 102
174 169 101
177 171 101
176 170 105
177 171 107
172 166 99
175 169 104
177 170 108
179 172 106
175 169 98
177 172 106
173 168 100
172 166 103
174 168 99
172 166 101
172 167 104
173 167 103
173 168 101
175 169 101
172 167 96
167 163 100
171 165 96
174 169 101
168 162 96
171 166 97
171 165 96
169 164 96
170 166 103
173 167 99
173 167 98
173 168 101
171 166 101
167 162 97
168 162 100
168 162 98
164 158 96
163 158 94
172 167 100
170 164 96
169 163 99
173 166 101
160 154 95
168 162 95
165 159 94
168 162 90
170 165 99
162 156 93
174 167 104
168 162 96
165 159 93
169 163 99
167 161 95
170 164 99
219 234 254
219 234 253
218 233 251
219 234 253
218 234 251
218 233 251
218 234 251
219 234 252
218 234 252
219 234 250
217 232 246
217 232 249
218 233 253
216 231 244
216 232 245
216 232 247
214 230 242
216 232 246
216 232 245
217 233 248
217 233 247
218 234 253
216 232 248
216 232 245
217 233 248
217 232 249
216 232 246
216 231 247
218 234 252
216 232 248
216 232 246
217 233 247
215 231 245
218 233 248
215 231 240
217 232 250
218 234 251
218 233 251
218 233 252
219 234 252
217 232 250
216 231 245
218 233 250
217 232 247
218 233 250
217 233 251
214 230 246
213 229 242
218 233 252
218 233 251
217 233 247
217 233 250
216 232 251
216 231 247
215 230 248
217 232 250
217 233 251
213 229 244
215 230 251
219 234 255
212 228 240
216 232 247
214 230 245
213 228 246
212 227 244
217 233 251
210 225 241
213 229 246
214 229 247
218 234 252
217 233 253
213 228 241
215 231 247
216 231 250
217 233 251
217 233 248
217 233 250
216 232 247
216 232 250
212 227 241
213 229 244
218 233 253
217 232 251
216 232 250
217 232 246
216 232 247
216 232 248
213 229 245
216 232 247
216 232 246
217 233 248
213 229 240
217 233 252
214 231 245
216 232 251
218 233 252
215 231 246
217 233 253
215 231 247
215 231 245
215 231 246
217 233 252
216 232 248
216 232 248
217 233 253
216 232 248
215 231 245
216 232 247
214 230 244
216 232 250
215 231 246
214 230 244
214 231 244
216 232 247
215 232 248
214 230 246
213 230 245
213 230 243
215 231 250
207 223 242
208 224 244
207 223 245
205 222 237
209 226 243
211 228 240
206 223 239
210 227 245
207 224 239
209 226 242
209 226 235
202 220 230
201 218 239
207 224 240
204 221 243
209 226 247
205 223 244
207 226 251
203 221 248
207 225 251
204 222 248
211 229 253
206 223 248
205 222 247
216 232 254
218 234 255
220 235 255
220 235 255
220 235 255
220 235 255
220 235 255
144 164 199
69 106 162
69 105 156
70 106 158
68 104 153
70 106 164
70 106 159
70 106 155
70 105 153
69 105 150
70 106 158
69 104 148
69 104 149
70 106 156
69 105 150
69 104 144
70 106 155
68 103 144
70 106 156
69 105 154
69 105 150
69 105 151
69 105 149
70 105 154
70 106 159
69 105 156
70 106 159
68 103 153
69 104 153
70 106 154
69 104 150
69 105 156
69 104 150
69 105 153
71 106 156
69 104 145
69 104 151
70 106 156
69 105 154
70 106 152
70 106 163
70 106 155
69 105 157
69 105 152
69 105 150
68 103 144
70 106 158
69 105 153
70 106 160
69 105 151
70 105 153
71 107 160
68 103 149
68 104 147
69 105 155
70 105 152
70 106 158
69 104 154
69 104 151
71 106 156
69 104 145
69 104 149
70 106 152
70 104 155
70 106 168
69 104 152
67 103 146
69 104 153
68 104 153
68 103 148
69 104 150
70 106 158
70 106 158
69 103 152
69 104 150
70 105 152
69 104 150
68 102 151
68 103 152
68 102 143
68 102 150
68 102 150
70 105 154
67 102 147
67 101 144
68 103 154
67 99 140
69 103 151
67 101 146
67 100 137
67 100 145
64 96 137
66 99 135
65 96 135
68 101 149
65 98 148
65 96 144
66 97 146
62 92 136
159 174 195
220 235 255
220 235 255
220 235 255
150 152 135
115 114 78
107 107 76
102 103 73
83 87 64
92 96 72
90 93 70
101 103 74
105 109 80
96 100 75
87 92 68
104 110 82
114 117 85
105 108 80
120 122 87
111 115 84
121 122 86
114 116 82
123 123 87
124 126 89
142 142 102
140 139 91
134 134 92
137 137 96
139 138 92
140 139 94
136 136 92
138 139 94
134 134 90
155 152 105
155 153 100
153 151 97
156 153 97
153 151 99
152 149 96
146 144 93
160 158 101
166 163 108
164 160 106
165 162 107
166 163 109
169 165 108
162 158 98
168 164 105
167 162 100
166 163 104
171 167 108
170 166 108
171 167 109
171 168 111
168 164 101
170 166 104
172 167 106
173 168 105
173 169 107
174 168 104
169 166 107
171 167 101
176 171 106
175 170 108
177 172 103
170 165 95
176 171 103
180 175 111
177 172 107
178 173 109
180 174 107
172 168 103
178 174 108
177 172 107
179 173 100
175 170 103
175 170 103
180 174 108
178 173 109
177 171 109
178 172 103
180 174 110
177 171 99
178 173 109
176 170 104
176 171 105
180 175 109
179 173 100
180 173 106
179 173 105
177 171 104
179 173 106
178 172 109
180 174 104
176 170 104
179 173 109
177 171 103
176 170 99
173 168 99
174 168 101
174 168 104
177 171 104
176 170 106
175 169 101
174 169 99
175 170 101
173 167 102
178 172 104
176 170 103
174 168 95
178 171 106
176 170 101
175 170 103
172 167 100
176 170 103
170 165 101
174 169 103
168 162 93
169 164 93
176 170 104
172 166 99
177 171 102
171 166 101
173 167 97
169 163 97
172 167 102
171 165 99
175 169 100
169 164 101
168 163 95
172 166 103
173 166 101
169 163 95
174 168 103
167 163 90
170 164 99
174 168 104
164 159 93
168 162 96
164 158 91
172 167 101
170 164 101
160 155 93
168 162 96
165 159 93
171 164 99
161 156 97
165 160 93
159 154 91
162 156 93
157 152 91
219 234 252
219 234 253
219 234 253
219 234 252
219 234 253
219 234 253
219 234 253
220 235 254
219 234 252
217 232 246
218 233 250
219 234 253
218 233 250
217 233 248
216 232 246
216 231 245
217 233 250
216 231 246
219 234 253
216 232 245
218 233 248
218 233 248
214 230 241
214 230 240
213 229 241
215 230 243
217 232 249
217 233 250
218 233 248
218 234 251
217 233 247
218 234 250
216 231 244
216 232 246
218 233 250
217 233 246
216 232 244
216 232 246
217 233 247
216 232 245
217 232 248
218 233 250
218 233 250
215 231 245
216 232 247
216 231 247
218 233 252
217 233 250
216 231 245
219 235 254
215 230 246
215 231 244
215 230 248
216 231 248
215 230 247
216 231 250
212 227 244
213 228 246
215 231 248
214 230 247
214 229 245
215 230 247
214 230 247
215 230 248
215 230 247
211 226 244
216 232 251
215 231 248
215 230 246
215 231 247
216 232 250
214 230 242
214 230 247
218 233 250
214 230 242
216 231 246
216 232 248
217 233 248
216 231 250
215 231 248
216 232 246
215 231 245
215 231 244
216 231 250
213 230 240
217 233 248
217 233 253
215 231 244
217 233 248
217 233 248
214 230 245
218 233 251
216 232 244
214 230 241
215 231 244
215 231 246
215 231 247
217 232 247
213 229 241
217 233 252
216 232 248
218 233 252
215 232 247
216 232 246
218 233 253
216 232 247
216 232 250
217 233 250
216 232 248
214 230 244
215 231 246
216 232 250
217 232 248
216 232 247
216 232 250
213 229 246
211 227 245
212 228 245
213 230 246
211 227 244
206 223 242
205 222 239
208 225 239
210 226 247
205 221 237
209 225 239
206 223 239
206 223 237
206 223 240
206 223 233
208 224 239
207 224 244
206 223 240
209 226 246
208 225 244
209 226 248
192 211 238
208 227 251
209 227 251
209 227 250
206 223 248
209 226 250
206 222 247
210 226 248
218 234 255
219 235 255
220 235 253
220 235 255
221 235 255
221 235 255
103 129 172
69 106 167
70 105 161
70 106 157
69 104 153
70 106 164
71 107 163
69 105 150
69 104 148
69 105 155
68 104 151
70 105 153
70 106 154
70 105 157
70 106 157
69 105 157
68 104 149
68 104 150
70 106 162
70 106 158
69 105 145
69 105 156
70 106 150
70 106 160
70 106 155
69 104 155
69 105 156
69 105 152
70 105 157
68 103 142
71 107 158
71 106 157
68 104 148
69 105 149
70 105 151
70 106 156
68 103 149
70 106 156
69 105 156
69 105 144
70 105 154
70 105 157
69 105 152
69 105 145
69 104 153
70 106 155
69 105 150
69 105 149
71 107 166
69 104 147
70 105 152
69 104 150
69 104 153
70 106 156
69 105 152
70 105 154
69 104 141
69 104 151
70 106 155
69 104 154
68 103 147
69 104 151
68 103 143
70 105 157
69 105 155
70 106 157
70 105 153
68 103 148
68 103 147
69 105 155
68 103 141
69 103 151
68 103 151
68 103 146
69 104 148
69 104 154
69 104 153
69 103 153
69 103 149
68 103 143
68 103 150
68 103 157
68 103 151
67 101 145
66 98 130
68 102 147
69 104 156
66 100 153
67 100 149
67 101 153
68 102 155
69 103 152
68 100 151
65 97 134
66 99 148
66 98 135
64 97 140
65 96 147
62 92 135
91 113 144
221 235 255
221 235 255
207 219 234
117 115 74
111 110 71
103 104 74
89 91 66
102 104 74
95 98 73
87 90 67
102 105 77
99 102 74
99 102 73
106 109 81
100 102 74
104 107 78
106 109 79
119 120 87
127 127 89
126 127 90
109 110 78
121 122 83
125 126 84
134 134 94
126 127 87
139 138 89
146 145 100
137 136 91
143 142 93
147 146 98
136 136 94
139 139 92
150 149 98
149 147 95
154 152 98
146 145 96
144 143 92
156 153 100
154 153 100
159 156 101
157 154 103
163 160 105
163 159 101
169 165 103
158 156 99
160 157 102
167 163 106
167 163 101
175 170 108
165 161 100
167 163 102
165 161 99
163 160 102
172 167 102
168 164 100
165 162 103
168 164 102
176 170 104
174 170 103
174 170 104
178 173 110
166 162 95
175 170 104
173 168 106
177 172 108
172 167 99
173 168 99
176 171 108
175 171 105
172 168 100
180 174 109
173 169 103
178 172 105
174 169 101
177 172 102
176 171 106
176 171 102
180 173 108
177 170 101
178 173 106
178 173 102
179 173 109
176 171 103
174 169 102
178 172 107
181 175 109
182 174 109
178 172 109
174 168 96
178 173 104
175 170 99
177 171 103
176 171 99
174 168 101
175 170 98
179 173 108
177 171 102
177 171 103
176 170 100
177 171 106
179 173 105
174 168 99
175 169 99
176 170 102
176 171 106
177 171 106
173 166 105
176 169 101
180 174 108
172 166 97
171 165 99
178 172 102
173 168 104
174 167 97
175 169 101
175 169 99
174 168 98
180 174 106
171 165 98
169 163 93
172 166 99
173 167 100
168 163 98
175 169 101
169 164 99
169 164 100
164 160 92
174 168 104
170 164 98
170 165 93
170 164 100
163 159 91
171 165 94
161 156 90
172 166 99
171 165 101
164 159 93
172 166 98
164 158 96
168 163 95
170 165 98
166 161 98
167 162 95
167 161 94
162 157 89
166 161 96
159 154 88
164 159 91
162 157 89
169 163 92
220 235 253
220 235 254
220 235 255
218 233 248
218 233 250
218 234 250
220 235 253
219 234 251
220 235 253
218 233 253
218 233 248
218 233 250
218 233 248
220 235 253
217 233 246
215 231 239
217 232 245
217 233 247
218 233 246
216 232 244
217 232 245
215 231 239
217 232 246
218 233 250
215 230 245
218 233 251
216 232 242
217 232 247
217 232 248
218 233 247
216 232 246
217 232 246
218 233 247
216 231 244
218 233 250
217 233 247
215 231 241
218 233 247
217 232 245
218 233 250
220 235 254
216 231 246
217 232 248
217 232 246
218 234 250
219 234 251
215 230 242
217 232 247
217 232 250
217 232 247
215 230 245
216 231 246
217 232 251
218 233 251
215 230 246
209 224 242
215 230 247
214 229 247
213 228 246
214 229 246
217 232 251
214 229 247
210 225 244
216 231 250
211 226 244
214 229 248
217 232 251
215 230 246
215 230 247
214 229 245
217 232 248
215 231 247
217 232 250
218 233 251
217 232 251
217 233 251
218 233 251
218 234 252
214 230 247
214 229 245
215 231 247
216 231 247
216 232 247
218 233 251
214 229 242
219 234 254
216 232 245
218 233 251
216 231 246
217 233 251
216 231 242
215 230 241
218 233 250
219 234 253
215 230 245
218 233 251
217 233 250
217 233 248
215 231 246
217 233 250
219 234 253
218 234 252
216 232 247
215 231 244
217 233 251
217 233 247
216 232 251
215 232 245
216 232 246
214 230 244
215 231 244
216 232 247
217 233 250
217 233 248
213 229 250
213 229 248
212 228 242
214 230 244
209 225 238
215 230 250
213 229 248
209 226 237
208 224 244
211 227 246
206 223 241
210 227 239
206 223 237
209 226 243
207 224 232
207 224 233
207 224 241
204 221 236
211 227 245
205 222 241
204 221 241
207 223 245
167 186 216
177 196 225
210 227 251
210 228 251
209 226 249
212 229 252
204 221 245
205 222 245
214 230 252
219 235 255
221 235 255
221 235 255
221 235 255
204 220 244
69 104 151
69 104 156
70 106 159
70 106 158
69 105 159
68 103 144
70 105 160
69 105 158
71 107 162
70 107 162
68 103 149
70 105 152
69 105 157
69 105 151
69 104 146
70 106 157
69 105 150
70 106 159
70 106 159
70 105 156
70 106 158
70 106 153
70 106 152
70 106 156
69 104 144
69 104 154
68 104 141
68 103 131
68 103 148
69 104 144
70 106 154
70 106 159
70 105 153
69 105 156
70 105 156
70 106 154
70 106 158
70 105 152
70 105 158
70 105 152
70 105 149
70 106 156
69 105 156
69 104 145
69 105 156
69 104 148
70 105 151
69 104 152
70 105 155
70 105 150
69 104 152
67 102 136
70 106 155
69 105 155
70 105 150
69 104 153
69 105 154
69 105 154
70 105 151
69 104 144
68 102 142
69 104 148
70 105 156
68 104 149
69 105 160
70 105 151
69 103 147
69 103 147
69 104 154
68 103 147
68 103 143
69 104 159
68 102 149
68 104 152
70 104 148
68 102 151
68 102 146
68 103 154
68 102 145
68 102 155
66 100 140
67 101 145
66 100 148
68 102 153
67 101 141
68 101 149
68 103 152
68 101 138
66 99 142
67 100 149
66 100 144
67 100 143
67 100 139
66 99 145
67 99 139
66 98 140
64 95 134
63 95 140
62 92 137
60 90 132
205 219 241
221 235 255
184 193 195
111 110 72
117 116 80
105 106 75
110 110 76
91 94 68
91 94 69
99 103 76
85 88 65
102 106 76
95 99 74
91 96 70
109 112 80
95 100 74
106 109 81
112 115 84
122 124 89
112 115 83
104 108 79
127 127 88
124 126 87
133 135 95
123 125 85
136 136 93
139 140 96
138 138 93
143 142 95
143 143 96
142 142 97
144 143 94
149 147 97
139 139 89
148 145 93
148 147 95
156 152 97
158 155 98
165 160 105
157 155 97
161 158 97
163 160 101
157 155 101
165 160 100
165 161 104
168 164 107
165 161 99
158 155 99
166 162 99
166 162 103
167 163 101
173 168 106
177 171 107
169 165 104
165 162 99
168 164 102
177 172 108
170 165 103
170 165 105
176 171 109
170 166 104
174 168 106
175 171 106
172 167 101
172 168 103
176 170 99
176 171 104
175 170 102
174 169 104
177 172 104
174 170 105
178 172 105
177 172 101
173 170 103
182 175 107
176 171 104
178 173 105
179 173 108
176 171 104
176 171 105
182 175 104
182 176 109
179 174 107
182 176 107
180 173 104
181 174 104
177 172 103
181 174 105
175 170 100
179 172 101
175 170 101
180 174 106
172 168 97
175 170 102
179 173 99
177 171 102
176 171 105
179 173 104
176 170 104
175 169 101
182 174 108
176 170 104
174 168 103
176 171 101
179 173 101
172 167 100
173 169 104
176 170 101
177 171 106
170 165 94
175 169 100
172 167 101
174 168 99
171 165 96
170 165 99
170 165 100
172 166 96
174 167 99
177 171 104
176 170 100
173 167 99
169 164 99
173 168 104
171 165 95
172 166 99
166 161 94
166 160 94
167 161 95
172 167 102
175 169 102
176 169 97
170 164 93
169 162 99
167 162 93
167 161 93
168 162 98
170 165 96
172 166 93
166 160 95
163 158 94
167 161 95
166 160 94
166 161 93
167 161 100
162 158 87
174 167 100
164 159 93
169 164 96
159 154 89
163 157 90
220 235 254
219 234 252
220 235 254
220 234 252
219 234 251
218 233 247
220 234 252
221 235 255
220 235 252
218 234 250
220 235 254
220 234 252
220 235 253
220 234 252
217 232 244
214 229 241
217 233 247
219 234 251
216 232 245
217 233 246
217 232 247
217 232 242
216 231 244
218 233 248
217 232 246
219 234 250
214 230 240
217 233 248
219 234 251
218 233 250
218 233 246
220 235 253
217 233 247
219 234 252
218 233 247
217 232 245
216 231 245
218 233 248
217 232 245
218 233 251
219 234 251
220 235 254
217 233 246
220 235 253
219 234 251
217 232 244
217 232 246
217 232 248
217 232 247
216 231 246
218 233 252
213 228 245
216 230 247
218 233 251
214 229 244
218 233 248
215 230 248
211 226 244
213 228 247
217 232 251
211 226 244
216 231 250
215 230 249
212 227 247
213 227 245
215 230 250
217 232 252
216 231 251
213 228 247
215 229 247
215 230 247
215 230 247
214 229 246
212 227 241
216 231 248
217 232 248
217 232 251
213 228 239
219 234 251
218 233 252
216 232 245
217 232 248
217 232 246
218 234 252
215 230 245
215 231 248
215 230 244
217 232 250
217 232 247
217 232 250
218 233 250
218 233 250
219 234 252
219 234 253
217 233 247
217 232 246
215 230 244
218 233 252
218 233 251
218 233 251
215 231 242
218 234 252
217 233 248
218 233 250
217 232 246
215 231 245
218 233 250
217 233 248
217 233 248
215 231 244
215 231 244
217 233 248
217 233 247
219 234 254
210 226 239
212 228 241
211 227 240
212 228 244
212 228 245
211 227 244
211 227 242
210 226 240
209 225 239
206 222 233
203 220 235
207 224 235
211 227 240
208 224 239
203 219 236
207 224 231
211 227 239
209 225 239
211 227 247
213 229 247
210 226 245
211 228 250
190 208 235
92 122 169
183 202 228
208 225 250
208 225 249
206 223 247
211 227 251
208 224 248
210 225 248
218 233 254
221 235 255
221 236 255
221 236 255
184 200 222
69 104 148
68 103 149
68 104 154
70 105 158
69 104 143
67 103 148
70 106 158
70 105 156
70 106 153
69 105 156
69 104 153
69 105 156
67 102 137
69 105 153
70 106 156
69 105 150
69 104 150
69 104 151
69 105 155
69 105 154
69 105 154
69 105 149
70 106 155
70 106 159
68 104 148
69 105 156
68 104 148
69 105 154
71 107 162
69 105 152
69 105 148
69 104 149
69 104 151
70 106 161
70 106 152
69 105 155
69 104 148
69 105 149
69 105 154
69 104 149
69 105 149
69 105 148
69 105 154
69 105 150
69 103 142
70 105 152
69 105 153
68 104 147
69 105 155
69 105 154
68 104 149
69 105 161
69 104 152
69 104 150
70 106 154
69 104 150
70 106 158
70 105 150
70 105 153
69 104 151
69 105 154
69 104 150
68 103 144
68 103 144
69 104 146
69 103 148
68 103 143
67 102 146
69 105 160
68 103 143
70 105 161
70 105 162
68 104 147
68 103 148
69 104 152
67 100 139
69 104 150
69 105 155
68 102 147
68 103 141
68 102 149
67 100 141
68 103 150
69 103 153
68 102 152
69 104 151
68 102 153
66 99 143
68 102 157
68 101 154
66 98 146
66 99 140
66 98 142
65 97 142
64 95 136
64 96 138
63 94 135
64 95 140
62 92 130
58 87 128
184 200 222
221 236 255
145 148 133
101 102 70
93 93 64
93 93 64
87 89 65
93 95 70
82 85 63
88 93 70
89 93 69
83 88 67
97 101 75
92 96 70
92 96 72
106 109 77
113 116 85
113 114 79
124 124 87
122 124 87
123 125 86
116 118 83
137 136 91
129 130 91
135 134 91
123 124 81
139 138 92
135 134 89
138 138 94
138 138 90
139 138 93
145 145 98
138 138 90
151 150 95
157 153 97
150 148 97
145 145 96
158 155 94
156 154 98
159 156 98
158 155 94
161 158 102
160 157 101
163 160 97
165 161 99
164 160 100
165 162 104
165 161 102
159 156 98
166 161 102
172 168 102
167 163 103
170 165 101
166 162 100
163 159 95
174 168 105
173 168 105
174 170 104
175 169 107
170 165 101
174 170 103
177 171 104
171 168 107
176 171 105
173 168 97
174 170 100
172 167 104
178 172 105
177 172 104
178 172 106
177 173 104
177 172 101
178 171 100
177 172 102
179 174 107
178 173 101
178 172 104
182 176 106
177 171 106
174 168 96
176 170 101
179 173 106
175 170 103
178 173 98
178 172 107
173 167 101
175 170 102
181 174 108
180 173 104
179 172 101
180 174 105
177 171 99
174 169 96
179 173 104
178 172 106
178 172 104
174 169 99
180 173 107
177 171 102
176 171 103
177 171 104
178 171 97
174 169 99
178 172 100
180 173 107
171 166 101
173 167 99
177 172 106
179 173 103
171 165 95
178 172 101
170 165 92
174 169 100
174 167 101
172 167 102
172 167 98
173 167 98
171 165 99
170 165 99
168 161 94
174 168 103
172 166 99
173 167 97
170 165 97
171 166 97
175 169 99
178 171 103
175 168 99
169 164 96
169 163 96
171 165 98
167 162 101
165 159 93
164 159 95
171 165 93
172 165 99
164 159 93
166 161 92
165 160 89
172 166 99
168 162 97
162 158 92
166 160 98
169 162 93
166 161 93
172 166 98
165 159 94
158 153 89
170 164 94
162 156 88
220 235 253
221 235 254
219 233 253
219 234 251
220 235 254
220 235 253
220 235 252
221 235 255
220 234 254
220 234 253
220 235 252
219 233 247
220 235 252
218 233 249
220 235 253
219 234 251
216 232 240
218 233 247
219 234 250
217 233 246
216 232 245
217 233 245
219 234 250
218 233 246
218 233 248
219 234 250
216 231 242
219 234 253
216 232 244
218 233 246
216 231 244
218 233 248
217 232 248
218 233 247
218 233 248
218 233 246
216 232 244
218 234 248
217 232 244
217 232 247
218 233 250
220 235 253
220 234 252
220 235 253
219 234 251
220 235 253
217 232 250
219 233 248
218 233 248
217 232 246
218 233 251
218 233 250
218 232 250
216 231 250
217 232 250
214 229 249
218 232 250
215 229 247
219 233 253
216 231 250
217 232 253
213 229 249
212 227 247
216 231 250
215 230 250
215 230 248
211 226 246
211 226 245
219 233 253
212 227 245
217 232 250
215 230 247
218 233 252
217 232 248
216 231 247
215 230 246
218 233 251
217 232 247
217 232 248
215 230 247
216 231 245
216 231 250
217 233 248
218 233 248
218 233 248
219 234 251
217 232 248
218 234 251
216 231 245
218 233 250
215 230 246
216 231 244
219 234 253
214 229 239
217 232 245
219 234 253
218 233 250
218 233 251
217 232 245
218 233 250
218 233 248
215 231 244
216 231 245
217 233 247
216 231 244
218 233 247
217 233 248
218 233 250
216 231 245
216 232 246
219 234 252
216 232 247
217 232 247
213 229 245
214 229 242
215 230 247
214 230 245
215 230 247
211 227 242
212 228 247
211 227 244
208 224 235
214 230 250
202 219 230
211 227 240
208 224 239
211 227 243
209 225 244
207 223 239
211 228 243
209 226 239
211 227 239
211 227 248
213 229 250
209 225 244
211 228 249
210 226 247
119 143 188
112 137 173
213 230 254
214 230 253
211 227 250
206 222 246
208 224 247
206 222 245
215 230 252
221 235 255
221 236 255
221 236 255
160 179 206
69 105 153
69 105 152
68 103 145
69 104 154
69 104 146
68 104 146
69 104 147
70 106 161
69 104 143
69 105 157
69 104 150
70 105 153
69 104 146
69 104 155
70 106 156
70 105 154
70 106 157
70 105 154
68 104 148
70 106 158
69 105 143
69 104 151
70 106 161
67 102 133
70 106 157
69 105 155
71 107 161
68 103 145
68 104 146
70 106 154
69 104 145
70 106 157
69 105 155
69 104 148
70 105 157
70 105 158
70 105 154
70 105 154
70 105 152
70 105 153
69 104 153
67 102 150
68 103 152
68 104 142
69 105 151
71 106 158
69 104 152
69 104 148
69 104 146
70 105 148
71 106 162
69 105 154
69 105 149
70 105 156
68 103 149
68 104 153
69 104 146
69 104 152
68 103 146
69 104 143
71 106 160
68 103 139
70 106 156
68 103 144
68 102 138
68 103 154
70 106 156
68 103 148
68 103 146
69 105 148
69 105 150
68 103 151
69 103 143
68 104 150
68 102 154
68 102 144
68 103 153
69 105 148
68 103 152
68 102 149
67 102 150
68 102 148
69 103 152
66 99 136
67 100 141
66 100 133
68 102 144
68 102 151
68 101 147
68 101 144
67 101 141
65 97 136
66 100 146
66 99 141
66 99 142
64 96 134
65 97 143
61 91 129
60 89 120
58 86 122
143 159 183
215 229 246
117 116 88
107 106 72
102 101 71
79 81 57
80 82 56
97 99 72
89 91 65
70 77 61
103 106 76
96 100 72
98 102 75
100 104 75
99 103 75
97 103 79
105 108 78
118 120 86
119 121 85
111 114 83
118 121 85
118 118 81
127 127 83
132 132 89
112 115 76
122 123 84
138 138 92
140 138 90
137 136 93
140 140 95
143 143 94
145 143 90
145 143 90
150 148 97
156 154 100
151 149 96
147 145 94
157 155 101
148 147 96
152 149 96
160 157 97
155 153 97
164 160 101
165 162 102
149 148 93
165 161 98
165 161 97
166 162 102
164 160 96
167 163 101
161 158 97
167 164 100
175 169 104
163 159 97
167 163 101
166 163 98
172 167 100
171 167 107
169 165 99
176 171 101
170 164 94
179 173 109
175 169 101
175 171 100
175 170 104
174 170 106
177 171 100
173 169 100
178 172 105
177 171 100
177 172 103
181 174 110
176 172 106
178 172 105
180 174 103
180 174 108
176 172 102
176 169 99
181 175 106
175 169 95
173 168 95
172 167 102
177 170 97
177 172 104
174 169 101
180 174 106
178 172 100
177 171 102
176 170 103
175 169 99
179 172 101
177 171 99
175 170 101
182 175 110
180 174 105
177 171 103
176 170 101
175 168 101
173 168 100
177 172 99
176 170 104
179 172 103
179 173 103
176 170 100
176 169 99
176 170 103
174 168 99
167 163 91
173 167 98
179 172 102
175 169 100
179 173 108
172 167 96
172 166 97
175 170 101
171 165 91
174 169 95
173 167 100
176 170 101
174 168 96
178 172 104
171 165 98
173 167 99
175 169 101
173 167 100
171 165 98
171 165 94
172 166 96
173 167 98
172 166 96
170 164 97
170 164 94
172 166 93
173 166 100
168 161 89
164 158 94
173 166 96
169 163 95
165 161 99
166 160 92
174 168 99
173 167 97
166 160 93
167 162 96
168 162 94
167 162 96
163 158 91
162 156 93
161 157 90
158 154 89
221 235 254
220 235 253
221 235 253
220 235 253
220 235 252
221 236 255
220 235 251
221 236 255
220 235 252
220 235 252
220 235 252
221 235 254
220 235 252
218 233 248
218 232 247
220 235 251
219 234 248
217 232 241
218 233 250
220 234 251
218 233 247
220 235 252
218 233 249
217 232 240
219 234 251
217 232 245
218 233 247
219 234 253
217 232 244
219 234 248
220 234 250
217 232 246
218 233 246
218 233 248
217 232 244
216 231 242
220 234 251
220 235 252
219 234 248
220 234 252
219 234 248
220 235 252
218 232 246
218 232 247
219 233 248
219 234 248
216 231 242
218 233 248
218 233 250
217 231 247
216 231 244
214 229 246
218 232 253
217 232 251
213 228 245
213 228 245
213 228 246
214 229 247
214 229 248
216 231 251
216 231 250
215 230 249
212 226 245
217 231 251
213 228 247
217 231 250
211 226 245
209 224 242
217 232 252
217 231 251
215 230 248
214 229 245
214 229 245
216 231 246
217 231 248
217 231 245
215 230 246
218 233 247
214 230 236
217 232 246
216 231 246
219 234 248
219 234 251
215 230 242
217 232 248
219 233 251
217 233 250
218 233 248
218 233 247
219 234 250
218 233 247
218 233 248
215 230 242
217 232 245
218 233 251
218 234 250
217 233 246
216 232 242
217 232 247
218 233 247
216 232 247
218 233 247
217 232 244
217 233 247
220 235 254
219 234 251
219 234 251
219 234 251
219 234 252
217 232 246
219 234 253
215 231 240
217 232 248
209 225 239
214 229 247
216 231 247
216 231 245
212 228 242
213 229 244
211 226 244
214 229 244
212 227 243
210 226 233
213 228 242
217 232 250
211 227 240
207 223 233
214 230 239
208 224 235
209 225 239
208 224 238
208 224 235
211 227 244
211 226 248
207 223 243
210 226 247
209 225 244
162 181 215
79 111 166
175 193 221
210 226 248
212 229 251
214 230 253
210 225 247
210 225 247
200 215 239
221 235 255
221 236 255
221 236 254
126 148 183
69 104 155
68 104 145
69 104 151
70 107 163
69 105 152
70 106 157
69 104 150
68 104 151
70 106 155
69 105 153
68 103 152
69 105 150
68 103 145
68 103 142
69 104 145
69 105 154
68 104 149
70 106 154
70 106 154
68 104 148
69 105 144
69 104 149
68 104 151
69 105 149
69 105 152
68 102 148
69 104 146
69 105 154
68 103 144
70 106 153
69 104 145
70 105 154
69 104 148
71 106 155
68 104 148
69 105 154
69 105 146
68 104 139
70 106 159
69 105 154
68 103 139
70 106 153
69 105 150
69 105 155
68 103 138
69 104 154
69 104 142
69 104 148
68 104 154
70 106 152
69 104 151
69 103 147
68 104 150
70 105 153
69 104 150
69 104 143
70 105 149
69 105 149
69 104 149
69 104 151
69 104 149
69 105 152
69 103 145
68 103 143
69 104 144
71 106 162
69 103 151
70 105 149
69 104 151
68 103 138
69 104 156
68 103 143
67 102 142
69 104 149
67 101 144
69 104 154
70 105 159
68 103 152
69 104 150
67 102 146
68 102 152
69 104 150
68 103 144
68 101 140
67 102 147
67 100 145
67 101 144
67 100 143
67 102 144
69 103 146
66 99 143
66 98 130
67 100 144
63 95 129
63 96 132
62 92 130
63 94 136
64 95 138
60 90 126
59 88 123
133 148 174
204 216 230
104 104 67
92 92 64
92 93 64
94 96 70
74 77 57
75 78 59
76 81 60
97 100 73
87 91 68
73 81 63
93 97 70
92 97 74
84 90 67
100 103 74
99 103 75
108 111 77
98 101 71
106 109 79
121 123 82
111 113 77
123 125 84
119 120 78
138 138 90
129 128 86
131 131 88
132 132 86
140 139 88
140 139 90
142 141 89
149 147 95
149 147 97
145 144 91
150 148 96
147 144 90
152 149 95
154 152 97
150 148 96
152 149 89
154 152 90
163 160 101
160 156 94
163 160 98
159 156 94
167 163 105
169 165 102
162 158 90
161 157 99
162 160 102
172 167 101
167 163 100
173 169 106
169 164 100
169 164 100
165 161 98
169 164 99
165 161 95
172 167 99
174 168 102
166 162 102
178 173 104
175 169 104
166 162 96
176 171 103
176 170 106
180 173 106
176 171 103
174 168 96
178 173 103
172 168 92
178 172 106
177 171 103
169 165 94
179 173 107
176 170 97
175 170 100
176 171 99
175 170 105
177 171 99
177 172 96
177 172 105
180 174 104
180 174 104
175 170 95
176 171 99
176 170 101
180 173 103
180 174 102
180 174 106
179 172 101
179 173 104
179 173 101
179 173 104
178 172 101
177 171 103
182 175 104
178 171 102
179 173 104
176 170 96
175 168 97
175 169 104
175 169 96
177 171 100
177 171 103
176 170 101
176 171 100
174 168 93
173 168 93
169 164 93
171 166 96
178 172 104
177 171 101
174 168 99
176 169 99
176 169 101
171 165 96
173 168 101
167 162 91
174 168 97
175 169 101
172 167 95
171 165 93
172 166 100
171 165 97
168 162 89
175 169 98
170 164 96
171 166 93
171 165 96
169 163 94
179 172 102
174 169 98
172 166 98
167 161 90
166 160 87
172 166 100
170 164 94
174 167 103
175 168 99
166 162 97
169 164 90
156 151 87
172 167 93
160 153 91
160 154 90
161 156 87
162 157 89
165 160 97
168 161 93
221 235 253
221 235 253
219 234 250
221 235 254
220 234 252
221 235 254
221 235 253
221 235 253
222 236 254
222 236 255
221 235 253
222 236 254
219 234 247
220 235 251
221 236 255
219 234 250
219 234 251
220 235 251
218 233 247
218 232 247
217 232 245
220 235 251
218 233 249
217 232 245
220 234 250
220 235 251
217 232 244
216 231 240
217 232 243
219 234 248
219 234 247
216 231 244
219 234 250
218 233 247
219 234 248
219 234 247
218 233 246
219 233 247
218 233 247
219 233 246
218 233 246
219 234 250
219 234 250
218 233 245
221 236 254
220 235 251
217 232 248
215 230 245
220 234 251
219 234 250
214 228 245
218 232 248
215 229 244
216 231 247
215 229 248
215 230 249
215 229 250
210 224 243
213 227 247
214 229 248
212 226 244
215 230 249
211 225 245
216 230 250
215 230 250
208 223 241
216 231 250
210 225 243
213 228 248
212 227 245
215 230 247
215 229 247
212 227 241
218 233 247
218 232 248
215 230 246
215 230 242
218 232 248
217 231 247
214 229 240
221 235 253
218 232 248
220 234 252
219 234 250
219 234 251
220 235 253
219 234 250
221 235 255
220 234 252
218 233 247
219 234 251
219 234 248
217 232 247
217 231 246
217 233 247
217 232 246
217 232 246
219 234 248
219 234 248
218 233 247
218 234 248
217 232 245
216 232 244
217 232 246
218 233 248
216 232 244
217 232 244
219 234 250
217 233 245
218 233 248
218 233 247
219 234 251
214 229 244
217 232 249
212 227 240
213 228 246
214 230 241
212 227 244
204 219 237
207 223 239
208 224 238
212 228 243
212 227 244
212 228 242
208 224 240
213 228 242
210 226 240
207 222 235
214 229 242
209 225 236
211 226 243
207 224 232
212 227 247
209 224 243
209 225 246
208 224 244
210 225 244
180 197 224
79 112 168
102 128 170
206 222 244
212 227 247
210 225 247
212 227 249
208 224 247
208 224 246
217 232 250
222 236 255
222 236 255
101 128 173
70 105 153
68 104 150
70 106 156
69 104 146
70 106 155
68 104 150
68 104 150
70 106 150
69 105 148
69 105 151
70 106 155
68 103 148
70 106 153
69 104 150
69 105 149
70 105 154
69 104 146
70 105 152
69 104 150
69 104 151
69 105 155
70 106 156
70 106 154
70 105 158
69 104 138
70 106 154
68 103 144
70 105 154
70 106 153
69 104 146
70 106 155
68 103 148
69 105 149
69 105 155
69 105 152
69 104 151
70 105 149
70 106 154
68 104 144
69 104 155
70 105 152
69 104 148
70 106 156
70 106 150
69 105 151
69 103 146
69 105 153
69 104 152
70 106 152
70 105 151
69 105 151
70 106 150
69 105 153
69 104 146
69 104 150
68 103 141
68 102 137
67 102 139
70 105 150
68 103 142
69 103 146
68 103 149
70 106 152
68 103 150
69 105 155
70 104 151
70 105 158
68 103 153
70 105 155
69 104 150
69 105 150
70 105 155
69 104 156
70 105 149
69 104 148
69 105 148
69 104 152
67 102 145
67 102 127
68 102 143
67 101 142
67 101 144
67 102 151
67 101 136
66 100 142
66 99 140
68 102 144
67 100 144
66 100 142
67 99 142
65 97 136
66 99 144
66 98 139
66 99 148
62 91 126
64 94 136
63 94 129
64 95 131
61 90 126
60 88 121
69 91 113
180 189 196
98 98 64
74 75 49
94 94 64
78 79 56
76 79 57
81 85 64
88 92 68
79 83 61
86 90 67
87 92 71
91 95 68
91 96 72
93 99 73
106 108 77
107 110 77
105 108 77
101 106 78
118 120 85
113 116 78
113 115 80
116 117 78
117 118 79
127 129 87
123 124 82
132 132 84
140 139 91
142 140 90
144 143 93
142 140 92
154 152 96
148 147 94
153 151 96
151 149 95
147 145 94
151 148 93
156 153 97
157 154 94
157 154 97
154 151 93
161 157 95
156 154 99
162 159 102
153 150 91
163 159 99
163 160 97
168 164 104
162 159 100
161 158 97
165 162 93
165 161 97
170 165 103
171 166 104
172 167 97
170 165 98
169 165 100
172 167 100
173 167 100
177 171 99
175 169 102
175 170 98
170 165 99
177 171 106
176 170 105
174 168 100
172 167 96
179 173 107
175 171 96
174 169 98
176 170 102
177 171 96
174 169 100
171 165 93
176 170 95
174 169 99
175 169 98
179 173 99
175 170 99
177 172 101
178 172 101
177 171 100
176 170 104
173 168 95
178 171 98
177 171 104
178 171 98
177 172 99
178 172 106
175 169 98
176 171 101
180 174 105
180 173 103
175 170 96
176 171 99
173 167 93
180 174 104
179 173 100
174 168 100
179 172 98
175 168 99
172 167 92
175 168 97
172 166 93
170 164 95
177 170 99
174 168 99
175 169 99
174 167 98
174 168 99
177 171 104
175 169 97
171 165 96
177 170 101
172 166 94
172 166 95
175 169 96
169 163 96
178 172 102
172 166 92
171 165 97
172 167 96
165 159 89
169 164 94
179 171 100
168 162 95
177 170 103
173 167 99
168 162 95
168 163 97
175 169 101
166 160 89
173 167 98
173 167 98
165 160 91
173 167 97
172 166 90
165 160 91
169 163 89
166 160 93
165 160 88
171 164 96
167 161 87
170 164 93
166 161 93
166 160 89
173 167 89
172 165 95
164 159 93
166 160 90
222 236 255
222 236 255
222 236 254
222 236 254
222 236 254
222 236 255
222 236 255
221 235 252
221 236 253
221 236 253
221 235 253
221 235 252
222 236 254
221 236 253
222 236 254
220 234 251
222 236 254
220 234 251
220 235 250
216 231 244
220 235 251
219 233 245
220 234 250
217 231 246
217 232 241
218 233 245
220 234 250
218 233 246
219 234 248
217 232 244
219 233 248
218 233 246
220 234 250
219 233 249
220 235 251
220 234 248
219 233 248
218 232 242
219 234 247
220 235 251
220 234 250
217 232 244
219 234 247
219 233 247
220 235 251
219 234 248
221 235 252
219 233 251
219 234 250
219 234 248
220 234 254
218 233 251
217 231 247
218 232 250
216 231 251
213 227 247
216 230 250
216 230 248
218 232 251
216 230 248
218 232 252
216 230 250
220 235 254
218 232 252
212 227 245
214 228 248
211 226 244
215 229 248
213 227 246
215 229 248
214 228 246
212 226 246
214 229 248
218 232 250
220 234 252
217 231 245
218 233 247
215 229 244
217 232 247
217 231 245
217 232 245
219 233 248
220 234 250
219 234 250
219 233 250
219 233 248
219 234 250
221 235 253
219 234 250
217 232 245
219 234 247
220 234 250
218 233 247
220 234 250
218 233 246
218 233 246
216 231 239
217 232 244
216 231 244
218 233 245
220 234 251
219 233 246
219 234 250
218 233 244
219 234 250
219 234 248
218 234 248
220 234 251
219 234 251
218 233 247
217 232 244
216 231 243
215 230 242
211 227 244
214 229 247
217 232 250
215 230 245
205 220 230
213 228 244
212 227 240
210 225 241
212 227 239
209 225 237
211 226 242
211 226 240
215 230 247
213 228 242
209 224 238
209 224 235
210 226 238
211 226 239
214 229 245
213 228 247
207 223 241
205 220 240
212 228 248
212 227 245
208 224 244
87 117 163
85 115 164
153 173 207
212 228 250
213 228 248
209 225 246
210 225 246
199 215 238
211 226 245
222 236 255
216 230 251
68 103 146
68 104 152
69 104 151
70 106 161
69 105 148
68 104 143
68 104 142
69 105 153
69 105 149
70 106 153
69 104 143
68 104 145
69 105 152
69 104 149
69 104 151
68 103 137
69 104 150
68 104 151
68 103 144
69 104 149
69 104 150
68 103 143
71 106 157
69 104 152
70 105 151
70 105 154
69 104 148
69 105 151
69 104 150
69 105 151
69 104 150
70 106 152
69 105 150
69 104 142
69 104 149
70 105 152
70 105 152
68 104 139
68 103 142
69 104 143
69 105 149
69 105 144
70 106 155
70 106 158
69 105 158
68 103 141
67 102 131
69 104 141
70 105 153
69 104 149
70 106 156
67 102 138
68 103 142
68 104 141
69 104 146
71 107 165
69 105 151
70 105 152
69 104 148
69 104 145
69 104 151
68 102 143
69 103 142
69 104 151
69 104 144
70 105 154
68 103 141
68 103 141
69 104 155
69 105 156
67 102 143
68 103 141
68 103 146
68 103 142
69 104 152
68 103 145
68 103 145
68 102 147
68 102 153
68 103 144
69 103 147
68 102 143
67 101 146
67 100 144
66 100 147
68 102 145
67 101 150
66 99 143
67 100 145
66 99 140
65 98 133
68 102 143
67 100 145
65 97 137
65 96 131
64 94 130
66 98 141
64 96 129
62 90 115
61 90 125
61 89 128
57 84 116
154 159 150
109 107 69
93 92 63
83 85 59
84 85 59
78 81 59
72 77 58
74 80 61
64 70 52
65 73 59
82 87 65
78 84 62
86 91 67
96 99 68
94 97 68
108 110 76
109 112 78
107 110 77
107 109 73
114 116 78
113 115 77
122 124 87
122 123 85
131 133 86
125 126 85
139 138 88
128 128 82
139 138 88
132 132 82
143 142 92
138 138 89
139 139 86
145 143 89
148 147 93
147 145 92
149 147 93
149 148 93
154 151 90
156 153 93
164 160 100
163 159 98
157 153 97
161 157 97
165 161 99
165 161 99
158 155 94
165 160 99
160 158 93
170 166 99
172 167 99
172 166 97
170 165 94
169 165 97
166 163 99
173 167 97
170 165 103
170 166 99
174 168 99
171 167 103
172 167 102
176 171 103
178 172 105
173 168 101
178 172 99
177 171 107
174 169 98
176 171 104
175 169 97
175 169 99
176 171 98
178 172 102
174 169 98
172 167 95
177 171 105
174 168 89
181 174 106
178 172 104
174 168 100
175 170 96
177 171 99
178 173 102
179 173 104
180 173 104
172 167 95
177 171 99
179 172 96
176 170 96
177 170 98
177 171 96
180 173 104
178 171 96
179 172 101
173 167 92
178 172 99
175 169 93
178 172 99
176 170 98
178 173 99
174 169 96
179 172 105
179 173 104
175 170 97
173 168 93
173 167 94
171 165 92
178 171 96
175 169 96
178 172 100
175 169 99
177 171 103
174 167 97
175 168 96
172 166 97
173 167 96
174 168 96
168 163 90
177 171 97
177 170 99
177 170 101
168 162 88
168 163 91
175 169 95
168 162 94
179 171 102
171 165 94
169 163 93
172 167 98
170 164 94
155 151 75
165 159 89
167 162 90
165 160 90
172 166 104
170 164 96
177 170 102
172 166 101
168 163 90
164 158 90
178 171 104
171 164 94
168 162 93
172 166 93
166 160 84
161 156 84
165 159 93
163 157 92
163 157 89
164 157 95
168 163 99
222 236 255
222 236 253
222 236 255
221 235 255
222 236 254
223 236 255
221 235 252
222 236 255
221 235 254
222 236 254
222 236 254
222 236 255
221 235 255
222 236 254
222 236 255
221 234 253
222 236 255
222 236 253
221 235 254
220 234 253
221 235 250
220 234 249
220 234 250
218 233 247
217 232 246
218 232 247
220 235 250
219 234 246
218 232 245
220 234 247
219 233 245
217 231 240
221 235 251
220 235 250
219 234 246
219 234 247
221 235 254
218 232 241
220 235 250
220 235 250
220 234 248
221 236 253
218 233 244
220 234 248
215 231 238
219 233 246
219 233 246
218 233 248
220 234 250
219 233 251
217 231 247
219 233 249
214 228 246
210 225 242
217 232 252
217 231 250
216 230 249
212 226 245
212 227 246
215 230 248
216 231 248
221 235 255
217 232 250
216 230 250
218 233 253
218 232 251
214 228 247
215 229 249
213 227 245
218 233 252
218 232 252
218 232 251
218 232 251
215 229 247
215 229 240
220 235 251
220 234 251
219 233 250
219 233 250
220 234 248
217 232 246
217 231 242
220 235 250
217 232 248
219 234 247
220 234 250
219 233 247
220 234 252
220 234 248
217 232 245
220 235 252
219 234 248
218 233 244
219 234 247
220 234 251
218 233 247
218 233 246
219 234 248
220 234 250
219 234 246
217 232 245
220 234 250
219 234 248
218 233 244
221 235 252
220 234 250
220 234 250
219 234 250
220 234 250
220 234 248
220 234 250
216 230 245
214 229 245
217 232 248
212 227 239
218 232 248
215 230 245
206 222 238
211 226 242
204 219 239
209 224 235
209 224 240
206 221 237
210 226 236
212 227 243
215 230 245
216 231 250
214 229 242
209 225 235
211 226 237
212 227 244
216 231 250
210 225 240
214 229 249
211 226 248
213 227 248
217 232 253
213 228 246
121 144 185
74 107 145
135 156 190
219 234 255
213 229 249
209 224 245
208 223 244
211 226 246
208 222 244
222 236 255
200 214 234
67 102 139
70 106 154
69 104 150
69 104 153
69 105 148
70 105 154
70 106 154
69 104 155
69 105 155
70 105 149
69 105 154
69 104 150
69 104 145
69 104 150
70 105 153
68 103 137
69 105 144
69 105 143
67 103 143
69 104 146
68 104 142
69 104 146
69 104 151
69 104 154
69 105 150
69 104 145
69 104 149
70 105 151
69 105 153
69 105 151
69 105 153
69 104 149
69 104 145
70 105 148
69 105 152
69 104 151
67 102 137
69 104 145
70 106 155
70 105 155
69 105 148
70 105 146
69 105 149
68 104 144
70 106 149
68 104 143
69 104 143
70 105 152
70 105 152
69 104 149
68 104 145
70 105 153
68 103 148
68 104 141
68 103 136
70 105 150
68 103 150
69 104 144
69 104 149
68 102 141
68 103 142
70 105 162
70 105 154
69 104 149
68 103 142
67 102 145
69 104 150
68 102 149
68 103 145
68 103 139
68 103 137
69 104 149
67 102 138
69 105 150
68 102 141
70 105 156
68 103 150
68 102 140
68 102 148
68 103 142
68 101 142
68 103 145
68 102 148
68 102 141
66 99 134
68 103 149
67 101 141
67 100 142
66 100 136
66 99 138
67 100 144
67 101 149
66 97 128
66 98 141
65 95 125
63 93 137
66 98 134
62 92 133
62 91 131
63 93 136
59 87 120
57 84 119
100 104 93
92 92 59
94 94 62
71 73 54
73 76 56
63 67 48
68 74 54
67 73 56
57 64 51
77 81 59
75 82 60
89 93 70
86 92 69
74 81 60
75 81 59
90 94 63
102 104 67
106 109 76
109 111 79
105 108 74
120 121 78
125 124 83
126 126 80
129 129 83
129 129 83
130 130 86
117 115 70
139 139 92
133 133 85
138 137 87
141 139 82
139 139 89
139 139 88
140 139 87
148 146 90
154 152 96
158 154 98
144 143 84
162 158 96
153 150 90
152 149 91
154 150 91
161 157 96
162 159 98
162 158 97
165 161 101
165 161 99
170 165 98
158 154 90
165 162 102
169 165 98
165 160 99
166 161 97
169 164 94
174 168 102
170 166 101
172 167 99
172 167 97
170 165 95
172 167 99
170 165 92
173 167 96
176 170 99
173 168 98
175 170 101
177 171 95
171 166 95
170 165 95
173 168 92
178 172 100
177 172 102
174 168 92
176 170 99
177 171 96
177 171 95
177 171 101
173 169 96
176 171 96
171 166 91
176 170 100
180 173 104
178 172 98
177 172 98
179 173 103
179 173 101
179 173 104
175 170 98
178 172 100
178 171 96
176 170 97
177 171 99
174 169 99
176 170 96
172 166 89
175 168 99
180 174 106
177 171 104
177 171 94
177 170 101
175 169 97
174 169 91
172 166 96
177 171 100
174 168 100
175 168 93
174 168 94
175 169 99
175 169 101
170 165 96
178 171 97
172 166 99
175 169 102
166 161 94
173 167 99
171 165 92
172 166 93
174 168 93
173 168 97
174 167 101
170 164 97
175 169 96
168 162 91
170 164 95
170 164 93
173 167 100
170 164 95
171 165 101
165 160 89
171 165 92
172 166 98
169 163 93
173 168 96
170 165 91
168 161 93
164 159 91
167 160 89
169 164 96
168 162 97
173 167 96
166 161 87
169 163 96
168 163 96
164 158 89
164 159 88
168 161 92
165 159 90
166 160 91
170 164 96
165 159 84
223 236 255
223 236 255
222 236 254
223 236 255
223 236 255
223 236 255
223 236 255
223 236 255
223 236 255
223 236 255
223 236 255
222 236 254
223 237 255
223 236 255
223 236 255
223 236 255
223 237 255
221 235 253
223 237 255
222 236 254
223 237 255
222 236 255
222 236 255
223 236 255
220 234 251
219 234 250
221 235 252
219 233 247
221 235 254
220 234 248
222 236 254
219 233 245
218 233 244
219 234 246
221 235 250
221 235 251
219 234 246
218 232 241
219 234 245
218 233 242
220 234 248
221 235 252
217 232 239
219 234 246
221 235 251
218 233 244
222 236 254
220 234 251
220 234 248
218 232 246
214 228 244
219 233 251
220 233 253
214 228 247
211 225 244
216 230 248
218 232 251
218 232 250
218 232 250
218 231 250
216 230 248
214 228 246
218 233 251
217 231 250
219 233 253
217 231 251
217 231 250
217 231 250
215 230 249
211 225 245
218 232 250
216 230 248
212 227 245
217 231 251
218 232 250
219 233 247
216 230 244
220 234 248
221 235 254
220 234 248
218 233 245
219 234 246
219 233 247
219 234 246
220 235 250
219 233 244
219 234 248
219 233 246
219 234 245
218 233 246
220 234 248
218 233 246
220 235 250
218 233 246
221 235 252
219 234 246
219 233 246
218 233 246
218 233 245
219 234 247
219 234 246
219 234 245
220 235 250
220 235 251
218 233 246
219 234 248
220 234 248
218 233 245
217 232 241
218 233 246
219 233 246
215 230 244
217 231 247
212 227 239
215 230 245
214 228 239
210 224 238
205 220 235
213 228 245
213 228 245
218 233 250
214 228 245
211 226 244
211 226 240
213 228 245
204 219 229
211 226 240
212 227 240
210 224 238
208 223 233
213 228 244
213 228 243
217 231 250
219 233 252
212 226 246
215 230 250
213 228 245
208 223 244
148 166 195
84 114 161
79 111 158
207 222 245
214 229 249
214 229 250
210 225 248
212 227 248
202 217 237
221 235 254
191 206 227
68 103 149
68 103 148
68 103 149
68 104 143
69 105 156
68 103 144
68 103 142
69 104 151
68 103 139
68 103 141
69 104 138
70 105 150
69 105 150
70 105 152
70 106 156
68 103 146
68 103 145
68 104 142
70 106 151
70 105 149
67 103 141
69 105 149
69 104 141
70 106 158
70 105 153
69 105 149
69 104 145
70 105 151
68 102 143
68 103 144
70 105 149
69 105 155
69 105 154
69 105 150
68 104 145
69 104 143
70 105 152
68 103 142
70 105 153
68 103 141
70 105 152
70 106 154
69 104 144
69 105 146
68 103 139
69 105 145
71 107 160
69 105 151
68 103 148
68 103 138
69 105 151
67 102 141
69 104 149
69 104 142
69 104 146
68 103 142
69 104 144
68 104 142
69 104 148
70 105 155
70 106 155
68 102 137
69 104 154
68 103 151
69 104 151
69 104 144
69 104 149
67 102 141
68 102 144
67 101 137
69 103 152
69 104 150
68 103 144
69 104 145
68 103 143
70 104 153
67 101 142
67 101 139
69 104 154
68 103 145
67 102 143
69 104 158
69 103 146
67 101 147
67 100 135
68 102 145
69 103 154
67 100 147
65 98 135
67 101 139
68 102 144
66 98 136
65 97 136
66 99 134
66 98 138
66 98 141
63 93 120
64 94 139
61 92 113
63 94 132
56 83 111
60 87 119
87 90 68
97 96 63
87 87 61
71 73 51
67 70 50
65 70 53
68 72 50
46 54 40
55 60 43
61 69 54
67 74 57
80 86 64
80 86 62
83 89 63
85 89 57
99 103 74
94 97 69
99 102 70
100 104 70
109 111 74
112 114 76
114 116 78
125 127 81
119 122 75
124 125 80
135 135 80
135 134 81
135 134 89
133 133 87
140 138 89
131 132 85
141 141 92
147 145 90
146 144 87
141 141 88
152 149 93
154 150 88
153 150 90
153 150 91
159 156 96
149 147 85
153 150 92
160 157 98
162 158 91
159 155 96
164 160 97
155 151 89
159 156 92
162 157 91
167 162 97
163 160 95
160 157 93
169 164 99
172 166 103
174 168 101
170 165 100
168 165 95
174 168 102
171 166 98
165 161 89
169 165 92
169 165 95
169 165 99
174 169 101
179 172 103
170 165 96
168 164 93
174 169 98
180 174 105
174 169 96
173 169 98
175 170 102
175 169 99
178 172 103
179 172 99
177 171 93
178 172 103
177 171 94
175 170 96
175 169 104
178 172 94
178 172 95
177 171 92
178 172 98
175 169 99
172 167 91
175 169 94
174 169 94
175 169 92
178 172 98
174 169 93
173 167 91
178 172 104
175 171 98
178 172 103
178 173 98
175 169 92
173 167 91
176 169 96
174 167 93
177 172 101
172 167 93
181 174 101
169 163 89
171 165 93
175 169 95
172 166 93
170 164 93
178 171 100
175 168 93
176 170 99
170 164 93
170 164 93
177 171 101
169 163 89
175 169 97
178 171 101
177 170 97
174 168 96
170 165 91
169 163 90
171 164 90
173 166 93
171 166 93
170 164 95
170 163 92
168 161 89
168 162 94
169 163 86
169 163 90
173 166 94
168 162 92
171 165 91
170 164 93
169 163 93
177 170 100
166 160 89
165 159 90
164 159 86
167 161 95
172 166 96
162 157 89
171 164 93
164 158 89
163 158 81
167 161 86
164 158 88
167 161 84
166 160 89
223 237 255
223 237 255
223 237 255
223 237 255
223 237 255
223 236 255
223 237 255
223 237 255
223 237 255
222 236 254
223 237 255
222 236 254
222 236 255
223 237 255
222 236 255
223 237 255
222 236 255
222 236 255
223 237 255
223 237 255
222 236 254
223 237 255
223 237 255
223 237 255
223 237 255
221 235 254
223 236 254
223 236 254
222 235 254
221 235 251
222 236 252
222 236 253
221 235 248
220 234 246
221 235 251
221 235 250
220 235 248
221 235 250
221 235 251
219 233 244
221 235 251
220 234 247
221 235 250
220 234 247
222 236 254
220 234 248
220 234 249
217 231 248
216 230 245
217 231 244
216 230 249
213 227 247
218 232 251
219 233 252
215 229 248
215 229 249
214 228 247
218 232 250
211 225 244
214 228 247
215 229 248
221 235 254
217 231 250
218 232 250
213 227 246
213 227 247
216 230 249
216 230 248
216 230 249
217 231 249
217 231 250
217 232 250
212 226 244
220 234 253
216 230 249
220 234 251
220 235 248
219 234 248
220 235 248
219 233 246
220 234 248
219 234 246
219 233 246
221 234 251
219 233 246
217 232 237
221 235 250
220 234 247
220 234 247
221 235 250
219 233 247
220 234 248
218 233 242
219 233 245
220 235 248
221 235 251
218 233 242
218 232 244
220 235 248
219 233 245
220 235 250
220 234 248
221 235 251
220 235 250
221 235 251
220 235 250
221 235 251
221 235 251
221 235 254
217 231 245
220 234 250
217 232 248
214 228 244
214 228 241
216 230 245
210 224 236
209 223 238
209 224 240
211 225 242
212 227 239
212 227 244
217 231 240
211 226 240
216 231 244
213 227 240
212 227 240
212 227 238
217 232 249
209 224 240
217 231 249
215 229 247
215 229 247
214 228 250
219 233 253
213 227 248
213 228 248
212 227 248
212 227 247
146 165 189
74 107 155
80 111 153
184 200 223
214 228 248
213 228 248
213 228 249
212 226 247
206 221 244
215 229 249
179 196 221
69 104 149
67 101 144
68 104 146
66 101 142
68 104 146
69 104 149
67 102 136
68 103 139
67 102 138
68 103 142
69 105 149
70 105 149
69 105 151
68 103 144
70 105 152
70 105 150
69 104 151
70 105 153
68 103 133
69 104 150
69 104 142
69 104 143
69 105 151
69 105 150
68 104 148
68 104 139
70 106 154
68 104 139
69 105 151
69 104 148
69 104 151
69 104 145
68 103 144
68 103 141
68 103 142
68 103 143
67 103 139
70 106 154
69 105 149
70 105 151
70 105 150
69 104 150
70 106 155
68 103 139
68 104 143
70 105 149
68 104 143
68 103 142
69 104 144
69 104 143
69 104 141
69 104 148
68 103 151
68 104 145
68 103 147
69 104 152
70 105 151
70 105 153
68 103 133
68 103 143
67 101 140
69 104 143
68 104 146
67 102 142
66 100 134
68 103 141
70 106 158
68 104 153
69 104 146
69 103 143
67 101 142
68 103 147
67 100 139
67 101 138
68 103 146
65 99 137
68 103 145
69 104 153
67 101 142
68 102 147
67 101 139
66 100 147
68 102 148
63 96 118
68 102 146
66 100 144
68 101 142
67 100 140
66 100 140
65 96 125
64 97 135
65 98 131
66 97 134
64 96 131
66 98 143
65 97 135
64 95 131
65 96 135
62 91 127
63 92 126
60 88 118
57 84 113
78 82 64
96 95 56
62 64 45
72 73 50
67 69 48
70 73 55
74 78 55
66 72 52
65 72 54
79 83 58
71 77 55
80 85 60
83 87 66
85 90 61
92 96 72
97 100 73
102 105 70
97 100 68
101 105 70
113 114 75
119 120 80
120 121 76
115 117 80
122 122 77
123 125 81
120 121 79
129 130 82
140 138 85
135 134 82
136 135 80
144 143 87
145 142 85
146 144 92
148 146 93
149 146 92
153 150 88
153 151 94
150 148 86
152 150 93
150 147 85
154 151 91
156 152 92
158 154 84
169 164 94
158 155 87
156 152 84
154 150 93
164 160 92
163 158 95
168 163 96
165 160 94
162 158 94
166 162 92
168 163 91
167 162 98
174 168 100
171 166 101
170 165 96
172 167 97
172 167 93
176 170 103
172 167 96
173 168 100
173 168 99
177 171 97
171 166 95
174 169 98
175 170 100
176 170 96
179 172 100
179 172 97
179 172 102
175 169 97
178 171 99
180 174 105
181 175 104
178 171 94
170 165 91
176 171 99
174 168 92
172 168 90
177 171 98
174 168 95
174 169 96
177 171 99
177 170 100
175 170 93
175 169 93
177 171 96
180 173 101
178 172 96
175 169 98
173 168 96
174 169 94
172 167 90
178 170 100
174 168 96
174 169 94
170 165 91
174 168 95
179 172 100
172 166 96
177 171 101
171 165 88
175 169 101
175 169 97
173 166 93
177 171 98
170 165 90
171 166 96
177 170 96
171 166 92
175 169 89
173 167 95
172 166 96
173 167 96
173 167 99
171 166 93
173 167 94
170 164 95
163 158 83
172 166 95
170 164 93
172 166 91
179 172 100
171 165 97
160 155 81
171 165 91
168 162 93
172 166 89
167 161 94
166 160 89
167 162 85
168 162 92
162 156 86
160 154 87
168 163 95
165 159 82
173 167 96
171 165 95
168 162 93
167 161 93
168 161 93
161 156 87
165 159 89
167 160 89
167 160 89
165 159 94
163 158 85
223 237 255
223 237 255
223 237 255
223 237 255
223 237 255
223 237 255
223 237 255
223 237 255
222 236 254
223 237 255
223 237 255
223 237 255
222 236 254
223 237 255
222 236 254
222 236 254
223 237 255
223 237 255
221 235 254
223 237 255
222 236 254
223 237 255
222 236 254
223 237 255
223 237 255
222 236 254
223 237 255
223 237 255
222 236 254
223 237 255
223 237 255
223 237 255
223 237 255
223 237 255
223 237 255
223 237 255
223 237 254
223 236 254
223 237 255
223 237 254
223 236 253
221 235 248
223 236 254
223 237 255
221 235 250
222 236 252
218 232 249
217 231 250
217 231 245
219 233 250
215 229 247
219 233 251
209 223 240
217 231 250
219 233 253
216 230 250
213 227 247
219 233 251
216 230 249
221 235 254
220 234 253
218 232 251
216 230 248
215 229 248
216 229 248
213 227 246
213 227 246
216 230 249
214 228 247
214 228 248
218 232 250
213 227 247
218 232 249
219 233 251
214 228 247
221 235 251
221 235 251
222 235 251
220 234 246
220 234 245
222 236 252
222 235 251
222 236 253
221 235 248
221 235 250
220 234 247
219 233 244
218 233 242
220 234 247
221 235 247
219 233 244
220 234 247
221 235 248
220 234 247
220 234 246
221 235 250
220 234 247
222 235 251
221 235 250
219 233 241
220 234 245
220 234 247
221 235 248
219 233 245
220 234 248
222 235 251
220 234 247
222 236 252
216 231 240
220 234 246
218 232 243
217 231 250
213 227 238
211 226 240
214 228 243
217 231 242
213 228 240
209 224 241
213 228 244
212 227 242
211 226 239
213 228 243
214 229 240
210 225 242
211 226 236
215 229 249
216 230 248
218 232 251
214 228 247
216 230 250
211 225 245
215 229 248
217 231 250
217 231 249
218 232 251
212 226 247
213 227 246
214 228 249
165 182 210
80 110 147
74 106 150
164 182 207
214 228 248
217 232 251
213 227 247
202 216 238
206 220 239
209 223 243
178 194 216
68 104 148
69 104 148
69 104 148
69 104 146
68 103 142
67 102 145
68 103 142
67 102 139
69 104 142
70 106 158
69 104 146
69 105 145
70 106 155
69 105 151
69 105 149
69 105 151
69 105 149
69 104 144
69 104 144
69 104 143
69 104 145
68 103 141
68 103 142
68 103 142
69 104 145
70 106 154
69 105 149
70 105 146
69 104 143
68 103 133
68 103 138
69 104 148
70 106 154
69 104 146
69 104 146
69 105 143
69 104 149
68 103 148
69 104 145
70 106 154
68 102 145
71 106 156
69 104 143
69 105 154
68 103 149
69 104 153
69 104 144
69 105 150
69 104 148
69 104 144
69 104 142
69 104 148
68 103 136
68 102 133
70 105 154
69 105 152
69 103 144
69 104 145
68 103 143
69 105 147
68 103 144
68 103 141
69 103 151
68 104 150
68 103 148
69 104 150
68 102 144
67 102 139
70 105 152
68 102 141
68 102 146
67 102 144
66 100 135
68 103 149
69 104 154
67 102 148
68 103 150
69 103 148
69 104 149
69 104 146
66 100 138
66 101 140
66 100 124
68 102 144
67 101 135
67 100 137
66 99 138
67 100 144
67 101 144
67 99 137
65 98 139
65 97 132
67 100 144
67 98 138
64 96 131
66 97 132
65 96 134
62 92 130
62 92 121
63 93 131
60 89 117
57 84 120
86 91 76
90 90 57
71 71 43
59 63 40
45 50 35
56 61 45
54 60 42
55 61 45
71 75 52
69 76 57
74 80 59
72 79 56
78 83 56
87 92 66
89 94 66
97 100 67
101 103 69
103 107 73
88 92 60
112 114 78
112 113 75
118 119 78
124 123 72
114 115 75
124 125 77
124 124 78
118 118 73
138 136 86
124 126 80
132 131 82
130 130 78
140 139 90
132 132 80
141 140 79
144 143 87
150 148 91
146 144 85
153 150 94
152 150 92
143 141 81
152 150 85
160 156 95
159 155 96
156 153 90
154 151 89
156 154 91
162 158 93
164 160 94
158 154 86
167 162 95
165 160 88
161 157 89
167 163 93
168 164 93
167 162 92
170 165 91
170 165 93
169 165 95
167 162 89
169 164 96
176 171 97
170 165 95
172 167 99
176 170 95
173 167 97
173 168 91
174 168 97
173 167 98
175 170 99
178 172 103
176 170 97
173 168 94
177 171 96
176 170 96
174 168 91
170 165 95
177 170 99
176 170 98
175 169 95
177 171 99
172 167 93
177 171 96
176 170 95
174 168 93
175 169 93
174 168 93
174 168 92
177 171 98
176 170 95
175 170 98
177 170 94
179 172 101
174 167 95
182 175 108
177 170 96
170 165 92
167 162 84
180 174 99
177 170 91
180 173 103
177 171 96
172 166 90
177 170 96
180 173 100
176 170 96
176 170 94
171 165 96
173 167 90
173 167 97
176 169 97
170 164 89
168 162 85
170 164 94
170 165 89
170 164 89
169 163 93
177 171 101
166 160 83
168 162 85
168 162 91
171 164 93
169 163 89
166 160 91
168 163 92
170 164 96
165 159 92
176 169 97
164 159 89
164 158 89
169 163 95
167 160 96
167 161 89
166 161 87
169 163 96
165 160 89
166 160 88
170 165 90
159 155 86
170 164 98
166 160 89
171 164 96
151 146 79
169 163 87
165 159 86
169 163 96
164 158 89
166 161 85
166 159 89
164 157 92
224 237 255
223 236 254
223 237 255
223 237 255
224 237 255
224 237 255
224 237 255
224 237 255
224 237 255
224 237 255
224 237 255
224 237 255
223 236 254
224 237 255
224 237 255
223 236 254
224 237 255
223 236 254
224 237 255
223 236 254
224 237 255
224 237 255
224 237 255
224 237 255
223 237 255
224 237 255
223 236 255
224 237 255
224 237 255
224 237 255
223 236 255
224 237 255
224 237 255
224 237 255
224 237 255
224 237 255
224 237 255
224 237 255
224 237 255
224 237 255
224 237 255
224 237 255
224 237 255
224 237 255
224 237 255
223 236 254
219 232 250
219 232 250
220 233 252
223 236 255
218 231 250
215 229 248
216 229 248
213 227 245
217 230 250
212 226 245
217 230 249
222 235 254
217 231 250
211 224 242
219 232 251
217 230 249
219 232 251
217 230 248
218 231 251
220 233 251
217 230 248
217 231 250
218 231 250
219 232 251
213 226 245
220 234 253
220 233 252
219 232 250
214 228 246
216 230 248
220 233 248
222 236 252
222 235 250
221 235 248
221 235 247
222 236 251
222 235 250
222 236 251
221 235 250
222 235 250
223 236 253
222 236 251
221 235 250
222 236 253
222 235 250
222 236 252
222 236 252
222 235 250
223 237 254
222 236 252
221 235 247
221 235 247
222 235 250
221 235 247
221 235 250
223 236 253
223 236 253
223 236 254
221 235 248
222 236 251
222 236 251
222 236 253
221 234 248
219 232 248
221 235 251
219 232 250
216 230 248
220 234 251
216 229 244
215 228 242
216 230 247
216 230 248
215 229 248
220 234 252
217 231 250
215 229 248
219 232 251
217 231 251
212 225 243
218 231 251
216 230 249
214 228 248
217 231 250
216 230 249
220 233 253
217 230 250
217 230 250
217 231 250
219 232 253
213 227 247
216 230 249
213 228 248
189 204 227
71 105 148
75 108 151
126 148 180
214 228 248
214 228 247
209 223 244
211 225 246
209 223 243
210 223 242
167 184 209
70 105 150
68 103 141
69 105 153
69 105 150
69 104 150
69 104 147
69 104 141
68 103 140
69 104 143
70 105 149
68 103 139
70 106 151
69 104 143
69 104 148
70 105 152
68 104 145
69 104 154
69 104 144
69 105 148
68 103 135
70 105 157
69 104 151
68 103 142
68 103 143
68 103 145
68 103 148
67 102 139
69 105 152
68 104 141
69 103 144
68 103 136
70 106 152
69 104 145
69 104 149
69 105 148
69 104 138
69 104 137
68 103 143
69 104 144
69 104 141
68 103 144
68 104 143
68 103 138
69 105 143
69 104 144
67 103 141
67 102 137
68 103 144
68 103 138
69 105 145
68 103 141
68 104 144
70 106 159
68 103 144
69 104 151
68 103 137
69 104 140
68 103 146
69 105 146
68 103 139
68 103 141
68 103 143
69 104 148
68 103 147
67 101 136
68 103 142
70 105 151
68 103 143
67 102 137
67 101 131
67 102 141
68 102 143
68 102 143
69 104 147
68 102 152
67 102 145
68 102 147
67 101 139
67 101 142
68 102 141
65 98 133
67 100 137
68 103 146
68 102 145
69 103 146
67 100 136
68 103 142
67 101 144
66 99 143
64 96 124
68 102 140
65 96 135
66 98 143
63 95 127
65 96 133
63 93 123
63 94 130
64 95 126
61 90 117
60 89 123
56 81 99
56 81 104
71 79 74
80 80 51
72 73 44
61 62 42
47 50 33
53 58 42
56 60 43
60 65 44
66 72 52
73 79 56
72 77 53
75 79 53
78 83 59
89 93 62
83 86 58
101 104 70
100 103 64
93 96 60
104 105 67
104 107 71
108 109 68
107 109 70
119 119 74
111 113 73
125 124 73
132 131 80
132 132 80
134 134 80
134 134 79
134 134 83
133 132 80
140 139 84
135 134 84
140 139 81
138 136 83
154 150 93
156 153 94
153 151 86
160 156 93
147 145 87
160 156 95
161 157 93
158 155 85
147 145 86
159 155 88
163 158 95
163 158 88
166 162 98
163 159 87
162 159 92
162 159 99
166 161 93
171 166 93
165 161 92
169 164 92
174 168 99
173 168 101
170 165 98
170 166 97
174 169 97
171 166 95
174 168 100
170 164 90
175 170 101
176 170 100
170 165 91
172 167 90
172 167 95
176 170 96
172 167 95
177 170 97
174 168 98
175 170 96
172 167 92
176 170 98
178 172 100
177 171 96
178 171 98
176 170 97
180 173 98
177 171 98
176 169 91
179 172 99
179 172 104
180 173 102
171 166 90
177 170 96
178 171 101
179 172 95
180 172 100
180 173 100
179 173 101
174 168 90
175 169 93
176 170 97
170 164 91
172 166 90
175 169 93
176 169 96
177 170 99
176 170 95
171 166 93
172 165 92
173 166 89
178 171 100
174 167 90
176 171 98
170 165 84
173 166 94
173 167 93
174 169 93
172 166 96
172 166 97
171 166 89
177 171 96
168 163 89
170 165 93
174 168 94
174 168 93
176 169 99
174 167 91
172 166 93
178 171 98
171 165 89
171 164 90
171 165 93
173 166 93
177 171 95
170 164 93
169 162 91
171 164 93
170 163 94
161 156 87
168 161 93
169 164 88
165 160 91
172 166 92
164 158 90
173 166 93
167 160 86
161 155 90
163 158 87
166 160 91
165 159 87
162 157 87
168 161 96
165 159 80
159 152 86
161 155 90
224 237 255
224 237 255
224 237 255
224 237 255
224 237 255
223 236 255
224 237 255
224 237 255
224 237 255
224 237 255
224 237 255
224 237 255
223 236 255
224 237 255
223 236 255
223 236 254
224 237 255
224 237 255
223 236 254
223 236 254
224 237 255
224 237 255
223 236 254
223 236 255
223 236 254
223 236 255
223 236 255
222 235 254
223 236 255
224 237 255
224 237 255
224 237 255
224 237 255
223 236 255
224 237 255
224 237 255
224 237 255
224 237 255
224 237 255
224 237 255
224 237 255
224 237 255
224 237 255
224 237 255
224 237 255
222 235 254
223 236 254
221 234 253
220 233 253
221 234 253
217 231 249
217 231 251
218 232 251
220 233 253
216 230 248
216 229 247
224 237 255
218 232 251
220 233 253
214 228 245
220 233 252
219 232 252
219 233 251
219 232 251
216 230 248
219 233 252
220 233 253
217 231 250
220 233 253
221 234 253
217 230 248
222 235 254
220 233 251
220 233 253
219 232 250
219 233 251
222 235 254
224 237 255
224 237 255
224 237 255
224 237 255
223 236 255
224 237 255
224 237 255
224 237 254
224 237 255
224 237 255
224 237 255
224 237 255
224 237 255
223 237 254
224 237 255
224 237 255
224 237 255
224 237 255
224 237 255
224 237 255
224 237 255
224 237 255
224 237 255
224 237 255
224 237 255
224 237 255
224 237 255
224 237 254
224 237 255
224 237 255
224 237 255
224 237 255
222 235 251
223 236 254
221 234 253
222 235 254
218 232 250
220 232 249
218 231 248
216 230 250
214 228 247
212 226 246
220 234 253
218 232 251
218 232 251
217 231 248
219 233 251
217 231 249
218 232 250
217 230 249
216 230 250
215 229 249
216 230 248
214 228 246
209 223 244
214 228 247
217 231 250
215 229 248
212 226 245
215 229 247
214 227 246
179 195 219
75 108 158
83 112 155
128 149 180
213 227 245
215 229 248
215 228 247
210 223 244
209 223 244
208 222 243
156 173 195
68 104 146
67 102 137
69 105 152
68 103 142
69 104 151
68 104 145
67 102 135
67 102 131
69 105 143
68 103 138
68 103 138
68 103 137
67 102 129
68 103 137
68 103 135
69 104 145
70 105 150
67 102 137
68 103 143
68 103 143
67 101 129
68 104 142
68 103 143
68 104 146
70 105 149
68 103 139
70 105 150
68 104 146
68 103 138
68 103 141
69 104 152
69 105 148
67 101 131
69 104 145
68 103 142
70 106 152
67 102 136
68 103 138
66 100 125
67 102 131
68 103 142
68 103 149
70 104 146
69 104 136
67 102 135
70 105 151
68 103 142
68 102 137
68 102 139
68 103 136
68 103 144
69 104 141
68 103 139
67 101 137
68 103 143
69 105 148
68 103 148
69 105 156
68 103 144
67 102 137
68 103 138
68 103 149
68 103 143
66 100 128
71 106 157
68 103 147
68 103 142
68 103 136
67 101 132
67 101 142
68 104 150
68 103 145
69 104 139
68 103 140
69 105 156
69 103 147
68 102 139
66 100 131
67 101 142
67 101 141
66 98 132
69 103 145
68 103 142
68 102 143
65 98 135
67 102 150
65 98 135
66 99 136
65 97 138
67 101 144
67 100 139
65 96 132
65 97 139
65 97 131
65 96 127
66 99 140
62 93 122
64 96 131
62 92 122
62 91 125
60 89 116
56 81 99
66 78 83
70 70 46
56 56 32
69 69 45
47 54 40
56 61 45
48 54 36
58 63 42
66 72 48
58 65 47
69 76 58
79 83 56
73 81 57
74 79 52
94 98 69
86 90 62
99 102 64
98 100 60
106 108 70
105 106 70
115 116 71
113 115 68
116 117 72
134 133 85
122 123 80
134 134 76
134 133 84
132 131 80
118 118 69
139 137 84
144 142 86
145 143 87
146 144 84
151 147 85
152 150 89
151 149 92
149 146 89
154 150 82
150 147 81
151 148 94
158 154 88
155 152 88
158 154 87
146 143 81
155 152 88
150 148 81
168 162 96
164 159 92
167 162 95
159 156 85
165 160 99
161 158 93
172 167 95
164 159 92
161 158 84
168 162 88
162 158 85
170 164 91
170 164 94
166 162 85
173 167 92
173 167 94
173 166 88
170 164 93
177 171 98
171 166 91
170 165 93
172 166 88
171 165 85
175 169 93
178 172 96
175 169 89
176 171 101
176 170 95
176 170 95
173 167 93
172 166 86
176 170 93
175 169 91
177 171 94
176 170 97
176 170 93
175 169 95
176 170 93
179 173 99
178 172 100
170 164 88
176 171 92
172 167 89
175 169 93
176 170 96
177 170 99
173 167 93
170 165 88
174 168 92
175 169 97
170 164 85
174 168 89
173 169 91
174 167 96
175 169 98
173 168 96
174 168 93
174 168 93
170 165 93
172 166 90
171 165 92
175 168 93
173 167 92
176 170 99
173 166 89
174 168 96
173 166 94
173 166 94
170 164 89
168 162 93
174 168 101
173 167 91
171 165 88
174 168 99
170 163 85
169 162 93
173 168 96
160 155 79
167 161 91
172 165 97
171 165 89
167 162 89
173 166 92
168 162 90
170 164 87
173 168 93
166 160 95
160 154 89
165 159 89
170 164 91
164 158 94
169 163 93
174 167 96
169 163 93
166 160 94
164 159 88
166 160 91
160 155 87
165 160 91
163 157 83
160 155 89
165 159 88
164 158 89
224 237 255
224 237 255
223 236 254
224 237 255
224 237 255
224 237 255
224 237 255
224 237 255
224 237 255
224 237 255
224 237 255
224 237 255
224 237 255
222 235 254
224 237 255
224 237 255
224 237 255
224 237 255
224 237 255
224 237 255
223 236 255
223 236 255
224 237 255
222 235 254
224 237 255
223 236 255
223 236 254
223 236 254
223 236 255
224 237 255
224 237 255
224 237 255
224 237 255
224 237 255
224 237 255
224 237 255
224 237 255
224 237 255
224 237 255
224 237 255
224 237 255
224 237 255
224 237 255
224 237 255
224 237 255
221 234 253
220 234 253
220 233 251
220 234 252
217 231 251
216 230 249
212 226 247
220 234 252
220 234 252
221 234 252
218 232 250
217 231 250
217 231 248
214 227 247
219 233 251
212 226 244
219 233 250
219 233 251
222 235 254
220 234 252
215 229 248
216 230 249
220 234 253
220 233 252
221 235 254
215 229 248
211 225 245
217 231 249
221 234 253
220 233 251
219 233 252
220 234 253
223 236 254
224 237 255
223 236 255
224 237 255
224 237 255
224 237 255
224 237 255
224 237 255
224 237 255
224 237 255
224 237 255
224 237 255
224 237 255
224 237 255
224 237 255
224 237 255
224 237 255
224 237 255
224 237 255
224 237 255
224 237 255
224 237 255
224 237 255
224 237 255
224 237 255
224 237 255
224 237 255
224 237 255
224 237 255
223 236 255
223 236 255
223 236 254
224 237 255
221 234 250
220 234 252
222 235 254
220 233 250
219 232 249
219 232 249
211 225 242
220 234 252
218 232 250
221 235 254
214 227 247
217 231 251
218 232 250
217 231 248
215 229 248
215 229 248
219 233 252
210 224 244
215 229 248
215 229 248
217 231 249
217 231 250
209 223 242
214 228 248
216 230 249
220 234 253
218 232 249
213 227 247
186 201 222
75 107 149
74 106 146
134 154 178
218 232 250
217 231 248
216 230 250
210 224 242
206 220 242
205 220 241
162 179 205
69 104 149
68 103 139
66 100 136
69 105 147
68 103 138
68 103 144
68 104 144
68 103 148
68 104 148
68 103 131
68 103 145
68 103 136
68 104 135
68 103 139
70 106 150
69 104 143
69 104 144
67 103 132
70 105 142
67 102 142
68 103 137
69 104 146
69 104 148
69 104 139
69 104 145
68 103 141
67 102 136
68 104 142
67 102 138
68 103 137
70 105 149
68 103 141
68 103 142
68 103 139
69 104 148
69 104 146
69 104 141
69 104 154
70 106 155
66 100 125
68 103 135
68 103 142
69 104 143
68 104 143
69 104 151
68 104 143
69 104 146
69 104 149
68 104 143
69 103 142
68 103 137
68 102 141
68 103 140
68 102 132
69 105 152
68 102 132
68 103 140
67 102 141
68 102 137
68 102 135
69 103 142
68 103 141
68 103 143
67 102 133
68 102 145
67 102 142
69 103 144
66 100 138
68 102 139
67 101 141
67 101 140
69 103 140
69 104 147
69 103 146
68 103 149
66 100 142
68 102 148
67 101 142
66 99 132
67 101 139
68 102 145
67 101 139
67 100 130
67 100 142
66 99 137
67 101 139
67 101 141
66 98 139
66 99 133
66 98 136
66 100 143
65 97 135
65 96 140
65 96 135
63 94 123
63 92 118
63 93 116
62 93 123
62 92 124
60 89 113
60 89 114
57 83 116
66 77 82
67 69 36
67 66 41
53 56 36
52 56 38
45 51 32
49 54 34
55 62 39
47 54 39
51 61 47
59 66 44
69 75 49
62 68 46
83 86 56
81 87 62
93 95 60
89 94 64
99 102 65
110 111 71
102 104 65
113 114 66
117 118 70
118 120 78
115 116 69
118 119 74
131 130 72
130 130 77
122 123 73
126 126 77
138 137 80
136 135 82
146 144 81
147 144 89
131 130 71
137 134 74
142 140 80
135 135 77
147 145 84
149 147 89
153 151 91
152 149 87
145 142 77
149 146 82
162 158 90
157 155 81
158 155 84
160 156 89
158 154 81
166 162 93
168 163 91
160 156 90
166 161 90
164 160 89
166 162 90
167 163 90
164 159 86
161 157 88
170 165 89
171 165 93
167 163 94
174 168 93
170 165 92
167 162 91
174 169 92
176 170 99
169 164 90
174 168 99
172 167 91
169 165 89
172 166 83
174 169 92
174 168 95
172 167 95
176 170 93
172 167 89
172 167 95
168 163 84
170 165 91
170 164 83
173 168 87
173 168 96
174 168 95
177 170 96
176 169 95
170 164 86
174 168 93
177 170 96
179 172 98
172 167 89
172 167 88
171 164 91
172 166 90
178 172 96
176 170 89
179 172 99
178 171 96
176 171 99
173 167 91
176 170 94
169 164 87
177 169 98
171 165 81
172 165 91
178 172 95
173 166 93
170 164 89
175 169 96
174 168 93
171 165 90
177 170 99
178 171 97
173 167 92
171 166 90
172 166 90
169 164 87
177 171 96
174 167 93
166 161 93
170 164 93
177 169 99
167 162 92
167 161 89
168 163 89
169 163 87
170 163 89
169 163 96
165 159 82
166 160 82
166 161 88
176 169 94
168 162 89
165 159 91
161 155 89
165 160 83
167 161 85
170 163 92
164 159 89
171 164 93
165 160 82
166 159 82
170 163 98
170 164 91
166 161 89
173 166 97
160 155 82
164 159 83
165 159 86
166 160 86
166 160 89
224 237 255
224 237 255
224 237 255
224 237 255
224 237 255
224 237 255
224 237 255
224 237 255
224 237 255
224 237 255
223 237 255
224 237 255
224 237 255
224 237 255
223 237 255
223 237 255
224 237 255
223 236 254
224 237 255
224 237 255
223 237 255
224 237 255
224 237 255
224 237 255
224 237 255
224 237 255
222 236 254
224 237 255
224 237 255
224 237 255
224 237 255
224 237 255
224 237 255
224 237 255
224 237 255
224 237 255
224 237 255
224 237 255
224 237 255
224 237 255
224 237 255
224 237 255
224 237 255
224 237 255
224 237 255
221 235 253
220 233 251
221 234 251
223 236 254
222 235 253
219 232 250
219 232 250
218 231 248
214 227 247
221 234 253
219 232 251
217 230 249
217 230 249
215 228 247
221 234 251
219 232 250
217 230 249
219 232 251
220 233 250
213 226 245
222 235 253
221 234 253
220 233 251
217 230 249
216 229 249
224 237 255
219 232 251
220 233 251
218 231 249
213 226 246
222 235 253
223 236 254
224 237 255
224 237 255
224 237 255
224 237 255
224 237 255
224 237 255
224 237 255
224 237 255
224 237 255
224 237 255
224 237 255
224 237 255
224 237 254
224 237 255
224 237 255
224 237 255
224 237 255
224 237 255
224 237 255
224 237 255
224 237 255
224 237 255
224 237 255
224 237 255
224 237 254
224 237 254
224 237 255
224 237 255
224 237 255
224 237 255
224 237 255
223 236 254
222 235 252
222 235 252
217 231 250
221 234 252
221 234 252
214 226 243
220 232 249
220 233 252
210 224 242
216 229 248
214 227 247
215 228 247
211 224 244
217 230 249
218 231 250
218 231 250
219 232 250
218 231 248
218 231 250
217 230 247
211 225 246
216 229 246
219 232 251
217 230 248
217 230 249
215 228 245
221 234 252
214 227 246
214 227 247
192 207 228
76 106 133
77 108 142
126 147 170
209 222 241
222 235 252
214 227 246
213 226 246
207 220 240
202 216 234
159 177 203
66 100 139
68 103 138
68 103 139
68 103 148
69 105 149
69 104 145
69 104 150
68 104 143
68 103 138
68 103 138
68 103 148
69 104 142
69 104 144
69 104 144
69 104 149
69 104 148
68 103 137
69 104 146
68 103 145
69 105 151
69 104 145
69 104 141
67 102 141
69 105 148
69 104 143
68 103 136
68 102 138
69 104 141
69 104 142
69 104 151
68 102 137
68 103 144
68 103 146
69 104 146
67 102 138
69 104 149
69 104 143
70 106 151
68 102 145
71 106 154
69 104 144
68 103 143
67 102 145
69 104 143
69 104 148
67 101 135
68 103 135
68 104 144
70 105 153
69 104 139
67 101 136
68 103 148
65 99 125
70 105 154
68 104 139
68 103 143
68 103 133
67 102 139
67 101 143
68 103 144
68 103 139
68 102 135
67 102 143
69 104 151
69 104 145
67 101 142
68 103 137
68 103 138
67 101 137
68 103 139
70 105 149
68 103 147
67 101 134
67 101 140
67 102 139
68 103 148
67 101 140
68 102 145
68 103 147
67 101 137
66 99 126
66 100 136
68 102 142
67 100 132
67 100 139
65 98 132
67 101 135
66 99 138
66 98 134
66 99 141
64 96 125
65 98 139
65 98 126
66 97 132
62 92 123
64 95 131
63 94 129
61 91 129
61 91 115
58 86 106
57 83 99
52 76 102
64 78 81
81 81 45
72 72 37
60 61 37
54 57 33
56 60 43
51 56 35
54 59 36
57 65 44
65 71 47
61 69 48
66 72 46
76 82 54
76 82 58
81 85 57
80 85 51
92 97 63
110 110 68
103 106 65
112 114 72
93 96 60
103 105 63
111 111 63
123 123 75
126 127 75
130 129 76
127 126 75
133 132 77
144 141 83
139 137 77
137 135 74
140 138 78
132 132 77
145 143 77
142 140 79
151 148 82
144 142 82
148 145 78
145 143 80
153 150 86
158 155 89
157 154 89
159 154 89
152 149 80
163 157 85
159 155 83
162 158 86
165 160 92
159 156 84
160 156 82
162 158 87
173 166 98
167 162 91
171 165 95
166 161 86
162 158 83
167 162 86
173 167 90
167 161 92
173 168 95
169 164 89
172 167 91
167 161 85
168 162 89
170 164 91
166 163 84
174 169 89
173 167 86
170 164 88
173 167 94
171 166 92
175 169 95
176 169 90
168 163 89
175 169 95
176 170 98
173 167 90
176 170 93
175 168 89
173 167 89
178 172 96
173 167 93
174 168 91
176 169 93
175 169 92
173 168 89
173 167 84
172 166 87
178 172 100
172 166 91
178 172 99
178 170 95
176 169 87
175 169 94
179 172 93
171 166 83
176 169 99
173 168 91
173 167 95
175 169 94
171 165 93
176 169 95
167 161 88
171 166 85
174 167 97
170 164 89
174 167 92
178 171 95
175 168 93
172 164 88
171 166 89
174 167 90
174 167 91
174 168 89
176 169 96
171 164 92
173 166 91
173 166 89
169 163 91
167 162 91
173 167 89
171 164 94
173 167 95
172 167 96
164 159 85
166 161 84
166 160 83
163 157 84
168 162 85
170 164 91
169 163 88
166 159 90
169 162 90
169 162 89
172 165 93
159 154 85
162 156 78
164 158 86
168 162 90
166 160 90
162 157 84
164 158 83
162 156 85
165 159 93
163 157 87
158 153 82
164 159 88
166 160 85
168 162 88
225 238 255
225 238 255
225 238 255
225 238 255
225 238 255
225 238 255
225 238 255
225 238 255
225 238 255
225 238 255
224 237 255
225 238 255
225 238 255
225 238 255
225 238 255
225 238 255
222 235 253
225 238 255
222 235 253
225 238 255
224 237 254
224 237 255
225 238 255
225 238 255
224 237 255
225 238 255
225 238 255
225 238 255
224 237 255
223 236 254
224 237 255
225 238 255
225 237 255
225 238 255
225 238 255
225 238 255
225 238 255
225 238 255
225 238 255
225 237 255
225 237 255
225 238 255
225 238 255
225 238 255
225 238 255
225 238 255
222 235 253
220 233 251
222 235 254
220 233 252
213 226 245
220 233 250
219 232 250
217 230 248
221 234 252
218 231 249
212 225 245
220 233 251
221 234 252
217 230 249
218 231 250
216 230 248
220 233 251
218 231 251
219 232 250
222 235 253
222 235 254
215 228 247
218 231 249
220 233 250
219 232 250
217 230 248
214 228 247
216 229 247
220 233 250
221 234 250
224 237 254
224 237 252
224 237 252
225 238 255
224 237 254
224 237 254
225 238 255
224 237 255
225 238 255
224 237 254
225 238 255
224 237 254
224 237 254
225 238 255
225 238 255
225 238 255
224 237 254
224 237 253
224 237 255
225 238 255
225 238 255
225 237 254
224 237 254
225 238 255
224 237 253
224 237 254
224 237 254
225 238 255
224 237 254
224 237 254
224 237 254
223 236 254
225 238 255
224 237 255
220 233 252
224 237 255
223 236 254
223 236 253
216 229 246
217 230 246
213 226 244
220 233 251
218 231 247
219 232 251
221 234 252
220 233 252
214 227 247
221 234 253
219 232 251
217 230 249
220 233 252
218 231 250
217 230 248
214 227 245
219 232 251
217 230 248
217 230 250
221 234 253
214 227 244
214 227 244
213 226 244
216 230 248
173 188 206
76 105 135
89 116 144
146 164 184
219 231 250
218 231 249
218 231 248
212 225 244
207 220 240
214 227 246
162 178 201
68 103 141
67 102 138
68 103 145
67 102 136
68 103 136
69 104 146
67 102 145
67 102 138
69 105 149
68 103 141
68 103 144
67 102 131
67 102 131
68 104 144
68 104 143
68 103 141
68 103 145
69 105 151
67 102 128
69 104 145
68 104 145
69 104 142
69 104 145
69 104 150
69 103 137
69 104 139
69 105 151
67 101 136
69 104 142
67 102 139
69 104 142
70 105 153
69 104 141
68 103 146
68 103 138
69 104 148
67 101 129
67 101 135
69 104 141
69 104 148
67 101 136
69 104 145
69 104 143
68 103 136
69 104 146
68 104 145
68 103 149
68 104 143
69 104 148
69 105 154
68 103 141
68 103 153
68 103 141
67 101 133
68 104 146
67 101 133
70 105 152
69 104 144
68 103 138
69 104 148
68 102 143
69 104 148
68 103 141
68 102 146
68 103 141
68 103 142
67 102 135
68 103 139
66 101 134
67 101 143
68 103 146
68 102 143
65 99 131
64 96 126
68 102 141
66 100 141
67 101 137
69 103 142
67 102 136
69 103 145
66 99 126
66 99 133
67 101 145
66 100 130
68 102 150
65 98 119
67 100 134
66 100 133
64 97 126
65 97 136
65 97 124
63 94 124
67 100 141
65 97 119
66 98 129
63 94 119
63 93 125
62 93 119
59 86 109
62 91 120
61 89 112
58 86 118
64 74 75
81 81 48
66 66 29
66 67 41
51 55 33
54 59 36
57 60 41
57 63 40
50 58 43
55 61 35
62 68 45
64 72 46
57 64 45
74 80 49
91 94 54
93 97 61
86 91 61
86 91 61
104 105 64
106 108 66
102 104 64
123 122 73
115 115 71
121 121 72
131 130 78
121 121 72
130 128 76
125 124 74
127 126 72
139 137 81
143 140 83
135 134 73
129 129 73
134 133 69
138 137 80
143 141 79
145 143 82
144 141 82
150 147 81
152 150 82
151 147 84
147 145 82
161 156 86
148 145 80
153 150 84
157 154 83
161 156 90
167 161 98
154 151 89
164 160 87
159 156 83
168 163 89
163 158 87
163 158 91
160 157 86
168 163 86
166 161 88
167 162 86
168 162 88
169 164 90
167 161 87
174 168 93
171 166 91
174 168 91
172 166 93
171 165 90
170 165 87
168 162 84
174 168 95
172 166 91
171 166 92
172 167 87
170 165 81
171 165 88
172 166 91
174 169 93
172 166 89
173 167 88
178 171 97
174 169 91
172 167 86
173 168 92
174 168 90
176 169 90
180 173 101
176 170 93
179 172 96
176 170 97
177 171 95
174 168 90
179 172 97
176 169 94
176 170 94
173 167 90
173 167 86
172 165 89
174 169 93
176 170 92
176 170 90
171 165 87
174 168 91
174 168 88
168 161 81
171 165 90
174 168 91
174 168 89
177 170 96
175 168 98
172 166 87
174 168 89
177 171 96
175 169 93
166 160 86
171 165 85
171 164 90
166 161 83
166 161 81
170 165 89
167 162 83
166 160 83
168 163 89
171 165 92
164 159 88
169 163 87
169 164 86
169 164 83
164 159 92
168 162 90
175 168 96
166 160 86
168 162 91
168 162 90
159 154 83
168 161 93
162 156 85
169 163 86
165 157 85
165 160 87
164 158 84
167 161 92
161 156 85
166 160 88
169 162 90
160 155 81
171 166 87
163 157 87
159 152 85
159 153 83
166 160 85
224 237 254
225 238 255
224 237 255
225 238 255
225 238 255
225 238 255
225 238 255
225 238 255
225 238 255
224 237 254
225 238 255
225 238 255
225 238 255
225 238 255
225 238 255
224 237 254
224 237 255
225 238 255
224 237 255
224 237 254
224 237 255
225 238 255
223 236 254
225 238 255
225 238 255
225 238 255
222 235 253
224 237 254
224 237 254
225 238 255
225 238 255
225 238 255
225 238 255
225 238 255
225 238 255
225 238 255
225 238 255
225 238 255
225 238 255
225 238 255
225 238 255
225 238 255
225 238 255
225 238 255
225 238 255
225 238 255
221 234 252
222 235 254
223 236 254
222 235 253
217 230 250
216 229 249
221 234 251
216 230 249
217 230 247
215 228 247
221 234 253
219 232 248
216 230 248
216 229 247
215 229 247
221 234 251
219 232 251
216 230 247
215 229 248
220 233 250
222 235 251
220 234 250
219 232 246
216 229 244
215 229 247
222 235 253
220 233 251
219 232 246
216 229 247
219 233 247
224 237 253
223 236 251
224 237 254
223 236 251
223 236 250
224 237 252
224 237 252
223 236 250
224 237 253
222 235 247
224 237 252
220 234 242
222 235 247
223 236 250
223 236 250
222 236 250
223 236 250
223 236 250
223 236 250
222 236 248
223 236 251
221 234 245
224 237 252
223 236 250
223 236 250
223 236 251
223 236 251
221 235 246
222 236 250
223 236 250
223 236 248
223 236 251
222 236 250
221 235 245
221 235 247
221 235 251
219 233 248
220 234 250
221 233 250
218 231 248
219 232 250
219 232 250
215 228 247
217 231 249
216 229 249
218 231 248
216 229 247
218 231 250
211 224 242
220 233 251
218 231 249
216 229 247
220 232 249
218 231 249
219 232 251
218 230 247
219 231 250
212 225 241
219 231 249
219 232 249
214 227 244
213 226 245
173 188 208
83 111 136
70 102 134
163 180 199
220 233 251
211 224 242
221 234 251
206 220 237
204 218 237
218 231 251
166 182 203
67 102 139
68 103 136
69 105 146
68 103 141
68 103 143
68 103 141
68 104 142
67 102 137
68 103 143
69 104 149
67 101 137
66 101 128
68 103 144
69 104 145
69 105 150
68 103 138
67 101 138
67 102 144
69 104 148
68 103 139
68 103 143
68 103 138
66 101 131
68 103 131
67 102 135
68 103 135
69 104 143
68 103 141
68 103 145
67 102 141
69 104 141
68 103 142
69 104 146
66 101 131
69 104 143
68 102 135
69 103 146
68 102 143
69 104 145
69 104 139
68 103 135
67 102 135
69 105 146
70 105 158
69 104 142
67 101 136
66 100 129
68 104 143
70 106 152
68 104 141
69 104 141
68 102 136
69 104 143
69 104 142
69 105 150
68 103 143
68 103 146
68 104 145
66 101 129
68 103 139
67 101 129
67 101 135
67 100 134
70 105 150
68 102 140
68 102 133
68 103 138
67 101 135
68 103 135
68 103 148
67 101 133
68 102 146
67 101 138
67 101 138
66 100 130
69 103 150
67 101 134
67 101 127
66 100 137
68 102 139
66 99 123
66 100 128
67 100 137
66 99 126
67 101 137
66 100 133
67 101 143
65 97 125
65 98 135
66 97 131
63 95 123
64 96 131
64 95 124
64 95 123
63 93 127
64 96 130
63 94 130
64 95 128
61 91 126
57 84 113
53 78 96
57 83 96
62 71 57
87 86 50
55 56 33
47 49 26
48 54 31
41 49 28
63 68 34
51 56 33
37 47 34
47 55 36
58 64 40
64 70 38
77 80 48
64 70 49
75 80 47
81 84 55
95 99 64
99 101 64
98 101 56
84 89 56
108 109 65
107 109 61
113 114 64
118 119 68
110 111 63
124 123 70
133 131 67
127 127 72
133 131 76
134 132 76
133 132 77
136 135 77
142 139 83
143 140 79
139 138 74
149 146 84
146 144 82
138 136 80
151 148 88
149 146 81
151 148 79
156 152 87
154 151 79
155 151 78
159 155 82
159 155 90
159 155 79
156 152 90
159 155 86
161 156 85
164 159 93
164 159 90
160 156 84
162 157 86
164 160 91
170 165 87
165 161 90
166 162 86
165 161 80
167 162 88
172 166 89
169 163 89
167 162 91
167 163 86
176 170 96
179 172 96
167 163 82
175 169 89
172 166 90
173 167 92
169 164 91
173 166 92
174 168 92
174 169 94
175 169 92
174 168 94
174 168 93
177 170 91
168 163 83
175 169 92
173 167 83
177 170 93
176 170 91
175 170 89
170 165 87
169 165 88
176 169 88
177 171 94
178 172 96
174 168 91
177 170 101
173 167 83
169 164 83
174 167 89
175 167 91
175 168 92
172 166 86
177 171 93
178 171 90
174 169 94
169 163 84
174 168 91
171 166 90
170 164 87
172 166 92
175 168 88
170 164 87
169 163 91
173 167 94
172 167 91
174 169 93
172 166 91
169 163 87
167 162 83
166 162 80
176 170 100
173 166 95
170 163 87
168 161 89
166 159 85
172 165 88
173 166 89
173 167 91
172 165 87
166 160 88
163 158 82
168 162 88
166 161 90
168 162 86
165 159 89
174 167 89
170 164 89
165 160 87
164 158 83
166 160 90
167 161 91
164 158 89
161 155 82
168 162 88
167 161 90
162 156 89
163 158 83
163 157 83
160 154 83
162 156 85
156 152 80
159 153 87
161 156 87
160 155 77
225 238 255
225 238 255
225 238 255
225 238 255
225 238 255
225 238 255
225 238 255
224 237 254
225 238 255
225 238 255
225 238 255
225 238 255
224 237 255
225 238 255
224 237 254
223 236 254
224 237 255
225 238 255
225 238 255
224 237 254
225 238 255
225 238 255
225 238 255
224 237 255
223 236 254
225 238 255
225 238 255
225 238 255
224 237 254
225 238 255
225 238 255
225 238 255
224 237 255
225 238 255
225 238 254
225 237 254
225 238 255
224 237 254
224 237 254
224 237 253
225 238 254
224 237 252
225 238 254
223 236 251
225 238 254
224 237 253
224 237 254
218 231 245
223 236 250
220 233 247
218 231 247
214 228 245
216 229 244
215 229 240
217 230 244
217 230 244
212 226 235
217 230 247
217 231 242
219 232 245
218 231 248
213 227 235
213 226 236
218 232 244
216 229 240
213 226 243
215 229 238
219 233 244
217 230 247
219 232 248
219 232 245
218 232 246
215 229 242
214 227 239
210 224 238
222 235 246
220 234 244
222 236 248
221 234 244
223 236 251
223 237 252
222 236 250
224 237 254
222 235 247
221 235 245
222 235 247
222 236 250
221 235 244
221 235 245
221 235 244
223 236 250
221 235 245
220 234 242
223 236 250
223 236 248
221 234 244
219 233 236
220 234 242
222 235 248
220 234 244
222 235 245
223 236 248
223 236 247
223 236 250
222 235 246
221 234 244
222 235 247
223 237 251
223 236 251
221 235 245
222 235 250
215 229 244
218 231 244
219 232 247
221 233 251
218 231 247
213 227 245
218 231 249
220 232 250
218 230 248
218 231 250
216 229 247
221 233 251
221 234 252
219 232 249
220 232 250
217 230 247
224 236 254
215 228 247
220 233 250
220 233 250
224 236 253
219 232 249
220 233 250
220 233 250
222 235 251
219 232 250
214 227 239
152 170 181
76 106 131
71 104 136
181 197 206
218 230 247
218 230 247
216 229 245
214 227 244
207 220 240
220 233 251
180 195 212
66 100 135
68 103 142
67 102 138
67 102 135
68 103 141
69 104 143
67 102 131
67 103 138
68 103 137
68 103 140
68 103 133
68 103 137
68 103 141
69 105 150
68 103 139
68 103 138
68 103 133
67 101 137
68 103 138
68 102 139
67 102 132
68 103 142
68 103 145
66 101 136
68 103 137
68 102 145
69 104 138
69 104 145
67 102 139
67 102 132
67 101 138
69 105 142
68 103 142
67 102 138
68 103 139
68 103 143
66 101 132
68 102 143
69 105 151
68 103 146
68 103 139
68 102 135
67 102 142
68 103 148
67 102 131
69 104 151
68 103 138
67 102 132
68 103 145
67 102 132
69 104 143
69 104 151
69 104 150
69 104 150
67 101 135
70 106 153
67 101 131
67 102 137
68 102 142
69 104 148
69 103 143
68 104 145
67 102 144
68 103 138
69 104 142
68 102 141
68 103 138
69 103 142
68 102 139
67 101 136
68 103 139
66 100 134
69 103 142
68 103 142
66 100 138
66 100 134
65 99 136
67 100 139
68 103 139
67 102 133
68 103 146
67 101 142
67 101 136
68 103 137
63 96 126
68 102 139
66 99 140
65 98 134
65 98 132
64 96 128
64 96 133
64 96 124
64 95 120
63 95 116
66 98 126
63 94 122
63 94 123
64 94 127
62 92 119
62 91 116
58 85 112
54 80 101
81 85 64
78 75 44
63 62 33
54 57 28
55 55 23
44 49 23
55 57 23
38 45 31
49 56 37
60 64 32
54 61 38
58 64 42
63 67 37
72 78 47
77 83 56
85 88 47
79 84 53
102 103 60
95 98 54
104 105 57
105 108 69
105 107 62
112 114 65
118 119 70
117 118 67
123 123 69
127 127 67
123 124 59
130 129 73
134 132 77
126 127 69
135 134 75
126 126 68
140 137 80
144 141 80
149 146 79
150 146 81
145 142 81
147 144 77
155 151 87
159 154 83
153 150 83
155 151 80
154 151 80
153 150 77
156 152 86
158 155 88
160 156 91
149 146 70
159 156 92
160 156 88
159 154 81
166 161 91
164 160 87
160 155 84
171 165 86
168 162 86
165 160 91
164 160 88
161 155 85
169 163 83
169 164 86
169 164 87
169 164 87
168 163 83
167 162 86
172 166 92
172 165 91
168 163 83
169 165 87
173 167 86
170 164 86
176 170 96
173 167 84
176 169 95
175 169 89
173 167 88
176 170 97
175 168 91
175 169 95
175 169 88
174 167 89
175 168 90
177 171 92
175 168 87
172 167 89
174 169 95
177 170 90
172 166 84
178 171 96
175 169 85
171 165 86
167 161 85
173 166 89
173 167 88
175 169 90
172 167 86
172 165 86
175 169 94
171 165 85
172 166 86
170 163 83
174 169 88
175 168 93
172 166 85
175 168 92
167 162 83
169 164 81
166 160 83
173 167 89
173 166 93
174 167 91
166 160 83
171 164 89
173 167 92
175 168 93
171 165 90
175 169 93
170 165 94
175 168 96
171 164 90
171 165 83
168 162 84
165 159 74
163 158 79
164 159 84
168 163 86
169 163 89
169 163 84
168 162 87
166 160 83
170 163 89
174 167 87
164 158 80
170 165 94
167 161 83
167 161 85
168 162 90
169 163 89
159 154 79
165 159 86
163 157 82
159 153 80
159 153 83
161 155 82
164 158 78
151 146 76
162 157 89
162 157 81
226 238 255
226 238 255
226 238 255
226 238 255
226 238 255
226 238 255
226 238 255
225 237 255
226 238 255
226 238 255
226 238 255
225 238 255
225 237 255
225 238 255
225 238 255
226 238 255
225 238 254
224 237 253
224 237 254
223 236 254
223 236 251
223 236 254
223 236 248
225 237 253
225 237 253
225 238 254
224 237 252
224 237 253
223 236 250
223 236 250
223 236 250
222 235 247
223 236 248
221 235 244
223 236 247
224 237 251
222 236 247
224 237 252
224 237 251
223 236 251
221 235 244
223 236 248
223 236 248
222 235 245
222 235 247
224 237 251
221 234 242
220 233 245
220 233 247
220 233 247
219 233 240
220 233 245
217 230 241
216 229 240
217 231 241
216 230 244
217 230 237
212 226 239
219 233 244
217 230 244
208 221 234
220 233 245
217 231 242
220 233 248
215 228 240
214 227 236
220 233 245
218 231 241
220 233 245
211 225 237
214 228 242
215 229 239
214 228 239
217 231 239
220 233 244
222 235 245
225 237 254
222 235 246
220 234 242
219 233 240
221 234 241
223 236 251
222 235 246
222 235 246
221 234 244
222 236 246
222 235 246
223 236 250
222 235 247
222 235 246
221 235 245
219 233 241
220 234 242
220 234 242
223 236 251
223 236 250
222 236 248
222 235 247
222 236 248
223 236 250
221 234 244
223 236 250
223 236 248
222 236 247
223 236 250
222 236 247
223 236 250
222 235 250
222 235 248
221 234 246
219 233 241
219 232 248
217 230 242
219 232 245
223 236 251
220 232 248
219 232 250
218 230 249
214 228 245
222 235 253
219 232 249
221 234 251
220 233 250
217 230 248
219 232 250
216 229 247
217 230 247
217 230 248
218 231 248
217 230 245
220 233 249
219 232 250
219 232 248
220 232 250
220 232 245
209 223 219
199 216 184
195 212 172
123 145 136
76 108 136
76 106 129
172 194 73
185 204 130
195 211 187
212 224 240
205 218 237
208 220 238
224 237 253
194 208 227
67 102 136
67 102 138
67 101 127
69 104 151
68 104 137
66 101 124
67 102 136
68 103 138
68 103 135
68 104 143
67 101 138
68 103 146
69 104 136
68 103 137
69 104 149
68 103 138
68 102 136
68 103 133
70 105 151
68 103 144
66 100 120
67 102 135
68 103 144
66 100 129
67 102 143
68 103 144
68 103 132
67 101 132
68 102 138
68 103 146
67 102 137
68 104 142
67 101 137
67 102 129
68 103 149
68 103 143
68 104 143
67 102 132
68 103 144
67 102 137
69 104 145
68 103 136
68 103 132
70 105 142
69 104 135
68 103 140
69 103 142
67 102 136
67 101 133
68 102 138
67 102 135
68 103 136
69 103 147
69 104 141
67 102 142
66 100 136
67 102 127
67 101 127
68 103 132
67 102 142
68 102 136
69 104 142
67 101 135
66 100 128
68 102 146
68 103 136
67 101 131
67 101 139
67 101 135
67 101 141
67 101 134
66 101 133
68 102 141
68 103 143
68 102 135
66 100 136
63 95 120
68 102 146
66 100 135
65 99 130
67 101 141
67 101 132
67 101 135
67 100 132
67 100 142
66 99 129
67 100 136
67 100 133
67 100 139
65 98 127
64 96 134
63 94 119
63 94 129
66 98 132
64 95 125
63 94 125
63 93 120
60 89 112
63 92 119
59 87 105
56 82 95
52 76 92
81 83 49
88 86 44
41 44 22
62 64 35
52 54 27
48 53 34
46 52 26
38 46 27
54 62 39
51 59 33
66 71 37
58 66 43
68 75 41
70 75 45
88 91 57
87 90 50
85 90 48
91 94 64
105 105 60
109 110 59
96 99 61
110 112 60
109 110 63
112 112 56
124 123 68
119 120 66
124 123 65
125 124 70
123 122 63
130 128 72
126 126 69
131 130 75
125 125 71
137 135 70
141 138 73
144 141 81
147 145 80
139 137 70
146 144 85
151 148 85
152 148 83
149 147 73
147 144 77
154 151 80
151 148 77
149 146 77
155 152 85
163 159 82
154 150 78
159 155 86
159 154 78
166 160 89
154 152 84
161 156 87
159 155 81
167 162 92
167 162 86
170 164 91
173 167 89
161 157 76
171 166 97
167 162 81
163 158 84
173 167 93
174 167 92
170 164 85
168 163 87
167 162 84
169 164 85
175 168 91
170 164 88
174 168 90
168 164 84
169 163 84
170 164 83
170 164 85
170 164 82
175 169 91
174 168 90
173 167 89
171 165 86
172 166 87
175 168 91
175 169 94
178 171 93
177 170 94
176 169 91
170 165 84
172 166 91
173 166 88
170 164 83
174 167 88
175 168 87
170 164 86
173 167 88
176 169 91
170 165 86
173 167 87
168 162 89
172 166 89
172 166 90
173 167 87
171 165 87
173 166 91
174 167 96
173 166 90
174 167 89
172 166 87
173 167 89
173 166 91
172 166 89
168 162 88
165 159 80
168 162 85
175 168 95
172 166 88
169 163 83
176 169 91
166 161 85
168 162 83
167 162 79
167 161 82
173 166 95
171 164 91
165 160 82
168 161 89
163 158 83
165 160 85
176 168 92
171 164 93
167 161 85
164 159 80
162 156 79
164 158 85
165 159 87
165 159 79
153 148 71
165 159 85
161 156 88
170 164 89
166 160 84
156 152 78
166 160 85
161 155 82
161 155 79
165 159 85
162 156 87
162 157 85
165 160 85
226 238 255
226 238 255
225 237 254
226 238 255
225 237 255
226 238 254
224 237 252
225 237 252
224 237 252
225 237 252
224 237 250
225 238 254
225 237 253
221 234 244
222 235 245
223 236 250
222 235 247
222 236 247
223 236 247
223 236 247
221 234 244
221 234 243
222 235 245
223 236 250
221 234 245
223 236 248
220 234 240
223 236 247
223 236 250
221 234 242
223 236 248
223 236 250
222 235 246
222 235 245
221 235 244
222 235 246
224 237 252
223 236 250
223 236 250
223 236 247
224 236 250
222 236 246
222 235 246
221 234 241
221 234 242
222 235 247
221 234 242
222 235 251
219 232 245
222 235 248
221 234 245
218 232 242
213 227 234
218 231 243
214 228 233
216 229 243
217 230 240
219 232 244
215 228 239
219 232 247
218 231 242
218 231 247
213 227 235
216 230 242
214 228 237
216 229 240
216 229 245
220 233 245
218 231 241
216 229 242
210 223 237
216 229 244
213 226 239
222 235 246
220 233 239
224 237 251
223 236 250
222 235 245
222 235 246
223 236 250
219 233 237
223 236 247
220 234 241
222 236 247
220 233 241
222 235 246
221 234 244
222 235 247
223 236 248
220 234 242
220 234 241
223 236 250
223 236 248
221 234 242
223 236 250
221 235 245
220 234 241
222 235 245
223 236 248
221 234 244
220 234 242
219 233 239
218 232 236
222 235 244
220 234 241
222 234 245
221 234 244
222 235 247
221 235 244
223 236 248
223 236 248
224 236 248
222 234 246
218 231 248
221 234 250
222 234 250
221 234 251
222 235 251
218 231 248
222 234 251
217 230 247
220 233 250
217 229 247
219 232 250
223 236 253
221 234 250
216 228 245
221 233 250
220 232 249
222 234 250
218 230 243
199 214 204
200 216 188
185 204 133
186 206 129
181 201 112
187 206 157
194 212 161
112 135 118
74 106 139
105 131 112
183 204 76
179 200 52
174 197 47
193 210 159
208 221 237
204 218 230
220 234 239
207 220 235
67 102 142
68 102 135
67 101 136
68 103 138
69 104 143
68 103 137
66 101 121
68 103 145
69 104 144
69 104 142
67 102 135
69 105 150
68 103 136
69 104 148
69 104 141
68 103 135
67 102 133
69 104 149
67 102 137
67 102 136
69 104 149
68 103 144
66 99 133
70 105 150
68 103 142
67 102 125
68 103 143
67 102 131
68 103 137
68 104 146
67 102 131
68 102 133
68 103 144
69 104 143
68 103 142
68 103 136
67 102 138
68 103 138
68 104 143
68 102 142
68 103 139
68 102 142
68 103 135
68 103 135
69 104 142
69 104 139
68 103 137
68 104 148
68 103 138
68 103 133
67 101 135
68 103 148
69 104 144
67 102 135
67 102 142
67 102 135
69 105 146
68 103 133
68 103 142
69 104 150
68 103 144
67 102 143
67 101 138
67 101 139
67 102 141
68 102 140
66 100 135
68 102 145
68 103 139
68 102 137
68 102 135
68 103 137
66 101 131
68 103 145
66 101 129
65 98 127
67 102 137
65 99 125
68 103 146
66 99 130
65 98 125
67 100 133
66 100 129
67 101 136
66 99 127
66 99 127
67 100 136
66 98 136
64 97 126
65 97 124
66 98 138
64 95 122
64 96 134
65 96 121
66 98 138
65 96 133
64 94 116
61 91 115
61 90 110
58 85 95
59 87 110
55 81 103
94 97 77
74 74 37
82 81 37
61 62 26
66 67 28
42 48 20
42 47 27
52 58 34
54 59 33
51 58 30
65 69 37
54 62 36
66 71 42
76 80 46
71 76 44
87 90 47
90 93 49
104 105 57
89 93 60
92 94 54
105 107 54
107 107 59
109 110 56
120 119 63
119 120 59
115 115 65
123 121 67
117 117 58
127 126 70
138 137 73
125 125 62
126 125 70
128 128 69
139 137 78
142 138 74
132 130 65
139 137 74
144 142 78
139 137 73
147 145 79
153 150 80
148 145 83
149 146 80
149 146 69
146 145 79
156 152 91
158 154 84
158 154 81
158 153 77
162 158 84
154 150 81
160 155 88
161 156 83
159 155 81
164 159 82
163 158 82
170 164 88
169 164 86
171 165 89
167 162 82
162 158 83
167 161 83
171 165 90
168 163 83
173 167 81
164 160 83
171 165 86
168 163 91
172 166 87
172 166 85
169 163 79
169 163 84
169 163 86
172 166 87
174 168 90
171 166 86
172 166 86
170 165 86
172 166 87
174 168 85
169 164 80
172 166 85
171 166 86
177 170 95
172 166 90
173 167 85
172 166 85
173 166 85
175 169 89
178 171 97
175 168 89
172 166 83
171 165 88
175 168 90
174 167 88
173 167 84
171 165 86
177 170 96
165 161 83
173 166 90
173 167 88
173 167 89
167 162 83
174 168 85
174 168 86
168 162 86
166 160 86
174 168 91
167 161 86
169 163 83
175 168 94
172 166 87
170 164 87
172 167 88
166 160 81
164 158 79
169 163 88
166 161 73
172 165 91
170 164 91
165 158 83
163 158 78
167 161 78
165 160 83
163 158 77
165 159 78
166 160 86
173 167 85
165 160 81
168 161 84
162 158 77
171 165 89
166 160 84
167 161 83
165 159 82
166 160 85
166 161 79
159 154 86
161 155 86
166 161 92
162 156 77
160 155 81
165 159 85
159 153 80
168 161 91
157 151 76
162 156 78
166 159 87
170 163 93
223 236 246
223 236 246
225 237 252
222 235 245
222 235 245
223 236 249
223 236 246
223 236 247
221 234 244
222 235 244
223 236 245
221 235 244
221 234 242
225 237 252
223 236 246
222 235 247
221 234 244
223 236 246
223 236 248
224 236 250
221 234 246
219 232 235
223 236 246
224 236 248
224 237 250
220 233 240
223 236 250
223 236 246
221 234 244
221 234 245
224 237 250
223 236 247
221 234 242
223 236 247
222 235 245
222 236 247
224 237 250
221 235 242
222 235 246
223 236 248
222 235 244
222 235 244
223 236 248
224 237 251
221 234 241
220 233 239
223 236 250
221 235 244
221 234 244
219 232 244
221 235 246
215 229 235
223 236 248
216 229 239
221 234 244
218 231 244
224 237 251
218 232 242
221 234 250
216 230 241
215 228 242
216 230 244
218 231 242
215 229 236
220 233 247
215 228 244
217 230 244
221 234 244
219 232 244
216 229 240
220 232 247
215 229 239
219 232 243
222 235 245
222 235 246
222 236 250
223 236 248
223 236 248
223 236 246
223 236 250
223 236 247
222 235 244
223 236 247
222 236 246
222 235 246
223 236 247
221 234 241
223 236 248
223 236 250
222 235 246
219 232 240
222 235 245
222 235 246
219 233 239
222 235 241
221 234 246
221 235 244
224 236 250
222 235 247
222 235 245
221 235 245
222 235 247
223 236 247
223 235 250
221 234 242
221 234 245
223 236 250
223 236 246
221 234 242
225 237 253
222 235 248
221 233 248
218 231 245
219 232 246
221 234 251
218 231 247
222 235 251
222 234 251
218 231 247
221 234 251
217 230 247
215 227 246
223 235 252
213 226 244
218 231 241
211 226 221
206 221 206
201 217 189
194 212 165
185 205 128
176 197 95
176 197 83
180 201 87
185 205 120
184 205 127
185 204 148
191 209 156
185 204 139
85 114 123
82 112 129
143 166 83
174 196 31
178 200 68
181 202 71
176 197 68
191 207 188
214 227 235
207 224 199
212 226 238
64 98 128
69 104 136
67 101 138
68 102 136
67 102 134
68 103 133
69 103 140
67 102 131
67 102 135
67 102 129
69 104 136
68 102 136
67 102 128
66 101 135
67 102 129
68 103 143
67 102 141
66 101 128
67 102 128
67 101 131
67 102 129
67 102 135
68 103 138
67 102 143
68 103 133
68 103 138
68 103 139
67 102 132
67 102 128
68 103 142
69 104 146
68 103 135
68 102 141
68 103 135
69 104 142
67 101 127
69 104 144
68 103 139
66 100 137
68 102 137
67 102 131
68 104 143
69 105 150
69 104 143
67 102 132
68 103 144
66 101 129
68 102 138
67 100 135
68 103 138
68 103 141
69 104 144
68 103 135
68 103 139
68 102 136
68 103 144
68 102 137
67 101 136
68 102 137
69 103 141
67 102 131
69 104 142
69 103 146
68 102 133
68 102 136
67 102 126
69 103 140
68 103 141
68 102 142
66 99 124
67 101 141
67 102 136
67 100 134
66 99 127
68 102 142
67 101 133
68 102 145
66 99 138
66 99 125
64 97 113
68 102 143
67 101 132
67 101 145
65 98 119
68 101 145
65 98 132
66 98 132
65 97 124
64 95 128
65 97 122
65 98 125
66 97 132
63 95 110
63 93 126
65 97 132
59 88 111
62 91 113
58 87 111
60 89 111
59 88 110
56 83 105
56 83 111
149 154 148
88 87 45
63 64 34
48 50 17
54 57 26
49 53 20
66 69 31
59 63 28
52 58 29
61 64 28
48 55 25
64 69 39
65 71 42
68 73 40
80 84 52
92 94 49
83 89 48
91 92 43
104 106 55
104 105 61
95 99 57
109 110 57
115 115 64
107 109 60
117 117 68
125 124 69
122 121 58
116 116 65
130 128 68
125 124 72
129 128 74
134 132 66
131 130 70
133 132 70
147 143 74
137 136 76
143 140 71
147 144 69
149 146 78
149 146 81
152 149 80
146 143 82
156 152 87
152 149 73
150 147 70
150 147 82
161 156 88
153 149 79
162 157 81
161 156 82
155 151 80
155 151 74
158 154 75
157 154 82
158 153 79
164 160 83
168 163 91
165 159 83
167 161 82
171 165 91
170 164 82
162 158 79
166 162 81
168 163 86
169 164 86
168 162 81
167 162 83
170 164 87
165 161 81
169 164 78
169 164 85
175 168 89
173 167 88
166 161 82
174 167 86
171 164 84
175 169 92
170 164 82
169 164 80
174 167 87
169 164 86
175 169 89
171 164 85
172 166 85
173 166 83
171 165 85
166 161 79
172 166 84
170 163 93
173 166 85
177 170 90
171 165 84
173 166 89
170 164 82
178 172 94
172 166 87
168 162 90
172 167 83
172 166 90
171 164 89
175 169 90
173 165 86
174 167 87
174 168 88
174 167 92
161 156 79
166 161 77
170 164 86
171 165 83
171 164 89
171 165 83
170 164 83
170 164 82
172 166 89
174 167 92
173 167 95
173 168 91
167 161 84
167 161 85
162 157 74
165 159 82
170 163 87
171 165 90
167 162 85
166 159 79
168 163 85
171 165 88
173 166 93
165 159 75
167 162 83
163 157 84
168 162 90
167 161 84
164 157 76
161 155 80
163 157 76
164 158 80
164 158 81
168 162 86
163 157 88
162 157 83
167 161 84
162 157 81
163 158 81
163 157 80
163 158 88
158 152 81
160 155 81
166 159 86
221 234 242
223 236 246
221 234 243
224 237 250
223 236 246
225 237 251
223 236 245
222 235 242
222 235 241
223 235 244
223 236 247
224 236 248
223 236 248
223 236 249
223 236 247
223 236 246
225 237 252
221 234 241
225 238 253
221 234 242
224 237 251
220 234 240
225 238 254
221 234 242
217 231 237
222 235 245
223 236 246
224 237 250
223 236 246
222 235 245
222 235 242
221 235 244
224 237 250
223 236 250
221 234 241
225 237 252
223 236 247
223 236 247
222 235 244
222 235 245
223 236 248
223 236 247
221 234 241
223 236 247
221 235 242
222 235 245
223 236 247
222 235 245
221 234 242
222 235 244
219 232 240
221 234 250
223 236 250
222 235 248
217 230 237
216 229 238
214 228 237
216 229 238
220 233 245
220 233 248
210 224 237
215 228 239
215 228 243
213 226 237
214 228 240
215 228 235
219 232 243
215 228 241
215 229 234
220 233 246
218 231 244
219 231 245
223 236 248
222 235 245
221 235 245
225 237 252
222 235 245
223 236 245
223 236 246
223 236 247
223 236 248
221 235 245
222 236 247
222 235 246
221 234 245
222 235 245
223 236 248
224 237 251
223 236 247
223 236 247
223 236 247
223 236 250
222 235 246
220 233 241
222 235 245
221 234 244
224 237 250
223 236 247
222 235 247
221 234 245
221 234 244
221 234 241
223 236 246
223 235 247
222 234 245
222 235 247
223 235 248
222 235 245
223 235 247
220 233 242
219 232 244
220 233 246
220 233 245
223 235 250
219 232 247
217 229 236
217 231 235
208 223 224
205 220 196
201 217 195
198 215 167
195 213 165
185 204 133
180 201 104
177 198 85
179 200 81
176 198 47
180 201 118
175 196 106
183 204 91
175 197 83
178 199 65
178 199 95
183 204 108
184 204 112
186 206 131
185 205 127
168 188 144
78 108 123
90 118 106
173 195 37
178 200 37
178 199 68
175 196 78
177 198 83
170 192 83
209 222 222
211 226 207
219 232 233
86 115 148
67 101 136
66 100 135
68 102 141
69 104 144
66 101 124
66 100 136
66 101 129
68 104 137
68 102 131
67 102 144
68 103 141
67 103 131
69 104 141
67 101 139
68 103 139
68 103 135
66 100 125
67 102 137
67 101 125
68 103 142
68 103 135
68 103 142
67 102 127
68 103 138
67 102 133
66 101 121
66 101 125
68 104 141
67 102 129
66 100 124
67 102 131
67 101 136
68 103 137
67 101 137
68 103 131
69 104 143
68 104 145
66 100 129
68 104 136
68 103 139
68 103 142
68 102 133
67 102 128
68 102 142
67 102 132
67 102 131
67 101 127
67 101 135
67 102 131
67 101 131
68 103 135
68 103 137
68 103 135
69 104 148
66 100 141
68 103 134
67 101 125
68 102 141
67 101 134
67 101 136
68 102 139
68 102 139
68 102 133
66 100 137
67 101 138
66 99 125
67 101 133
67 100 142
67 101 139
68 103 148
68 102 143
66 99 136
68 102 141
66 99 125
67 101 136
65 98 127
66 100 135
65 99 127
68 102 142
67 102 143
68 102 145
66 99 133
65 98 129
66 100 129
66 99 131
64 96 121
65 98 128
65 97 121
64 95 128
65 97 127
65 97 130
64 95 124
64 96 122
66 98 130
64 94 122
61 91 121
61 91 112
60 90 114
60 87 111
56 82 90
79 97 105
185 194 200
91 89 39
87 84 42
65 68 30
68 70 27
46 51 21
51 54 15
48 52 24
58 63 28
62 67 29
56 62 34
72 76 34
59 65 36
63 68 38
81 84 41
72 76 44
82 86 47
91 93 50
95 97 53
98 99 49
109 109 62
101 102 49
106 107 54
109 109 62
121 120 66
110 109 52
119 119 62
127 127 70
125 124 70
137 135 73
131 129 69
139 136 70
133 132 74
138 136 64
132 132 60
142 139 74
146 144 74
133 131 67
135 134 68
154 150 77
158 154 81
148 145 74
155 150 78
147 145 69
151 148 74
154 150 78
154 151 85
161 156 82
155 151 75
162 156 78
155 151 81
161 156 84
166 160 81
159 153 74
163 158 83
166 161 83
166 160 82
169 164 79
159 155 77
169 164 80
163 158 83
169 164 83
167 162 77
167 161 77
172 166 92
169 164 86
168 163 80
163 158 76
171 163 82
170 165 86
172 165 86
166 162 83
171 166 84
170 164 83
171 166 92
173 166 87
175 168 86
167 162 84
164 159 74
170 165 84
172 166 84
171 166 82
173 167 84
177 170 89
168 162 78
170 164 83
175 168 89
170 164 89
175 169 84
175 168 90
169 162 82
172 166 84
163 158 77
171 166 83
174 168 88
171 165 83
171 165 85
172 165 88
167 162 81
174 167 88
166 161 79
169 163 82
167 161 83
174 167 91
170 164 82
168 163 83
167 162 84
172 165 88
170 163 88
173 167 87
169 162 83
172 166 84
164 159 83
164 159 77
168 160 83
170 164 85
167 162 84
167 161 79
170 163 87
165 160 82
169 162 86
162 157 75
168 163 77
163 158 77
168 163 86
169 163 83
167 161 92
166 161 80
167 160 84
167 161 85
163 158 80
166 160 88
166 159 84
167 160 83
160 154 76
163 157 80
168 162 83
167 161 86
162 156 77
168 162 82
161 155 81
162 156 79
169 162 84
161 155 80
159 154 76
160 154 81
167 161 86
159 153 83
164 158 81
217 231 228
223 236 246
222 235 244
222 235 245
221 235 241
223 236 246
223 236 245
224 237 248
224 237 250
224 236 248
224 237 248
223 236 245
223 236 247
222 235 245
223 236 247
221 234 241
220 234 237
222 235 242
224 236 247
222 235 247
224 236 247
221 234 243
223 236 248
221 235 242
223 235 248
221 234 240
221 234 241
221 234 242
222 235 245
221 234 240
224 236 247
223 236 248
223 236 247
224 236 248
222 235 244
224 236 250
222 236 246
222 235 244
221 235 244
223 236 248
223 236 246
221 234 241
224 236 250
222 235 245
223 236 246
224 237 251
222 235 245
223 236 248
222 235 244
225 237 253
222 235 244
221 234 247
219 232 241
221 234 240
215 228 240
220 233 245
217 230 235
219 231 244
214 228 240
220 233 243
217 230 243
215 228 239
216 229 243
211 225 233
219 232 243
215 228 238
221 233 247
213 227 236
215 228 240
216 230 240
224 236 251
220 234 240
223 236 247
221 234 242
221 235 244
223 236 248
222 235 245
221 235 246
222 235 246
221 235 244
220 233 240
224 237 250
223 236 248
223 236 248
222 236 247
224 237 251
221 234 244
220 233 242
221 234 244
221 234 245
223 236 248
222 235 247
221 235 246
222 235 248
220 233 244
225 238 254
220 233 241
224 236 250
222 235 246
221 233 244
224 237 252
221 235 246
223 235 248
223 236 247
215 229 224
216 230 228
214 228 220
214 228 225
208 223 201
205 221 191
197 214 176
195 213 148
194 211 157
187 206 142
183 204 95
184 205 89
179 201 91
175 198 76
177 198 95
171 193 65
174 196 76
179 201 95
178 199 91
177 199 73
171 193 76
181 203 68
178 199 81
177 199 87
182 203 87
178 199 76
178 199 85
184 205 109
182 202 106
180 201 106
177 198 111
190 209 148
184 204 121
128 151 117
72 103 124
147 169 87
172 194 43
178 200 31
171 193 43
173 195 73
175 196 81
169 191 78
219 232 232
210 225 208
222 235 241
123 143 164
67 102 128
68 102 139
68 102 141
66 100 131
65 99 132
66 101 127
68 104 137
67 101 129
68 103 137
68 103 142
66 101 124
67 101 129
67 101 129
67 102 138
67 101 125
69 104 138
67 101 136
68 103 132
68 103 138
67 102 132
68 102 136
69 104 142
67 102 141
68 103 131
67 102 135
68 103 136
68 102 139
68 104 138
68 104 139
68 103 137
67 102 132
68 103 139
67 101 137
65 100 125
68 103 136
66 101 127
68 102 143
68 103 138
68 103 142
68 102 136
66 100 129
66 101 132
67 102 137
68 102 139
68 103 146
67 101 127
67 102 132
68 104 140
68 102 133
67 101 133
69 104 148
67 101 136
68 103 136
69 103 144
68 102 133
66 101 128
69 105 148
68 102 136
67 101 137
69 104 141
68 102 137
66 99 121
67 101 133
69 103 142
69 104 144
69 104 145
68 103 147
67 101 136
68 103 136
68 101 141
67 101 132
69 103 145
64 96 123
67 100 129
67 101 125
65 97 125
65 99 131
65 99 129
66 99 135
67 101 142
64 97 123
68 102 138
63 95 129
65 98 128
68 101 138
65 97 136
66 100 132
66 99 133
65 97 121
63 94 120
65 98 133
65 97 126
64 95 137
64 96 122
63 93 110
60 88 110
60 89 114
60 88 112
57 83 95
56 82 95
121 136 155
203 213 223
94 92 41
79 78 35
62 64 14
65 65 20
57 61 18
62 65 21
52 54 17
59 63 34
55 61 32
58 63 30
71 73 36
75 78 39
74 77 46
68 73 39
69 74 37
86 89 41
94 95 49
90 91 41
97 99 56
110 111 59
97 99 55
100 103 58
110 110 53
109 109 55
117 117 59
121 121 55
118 117 65
129 127 67
120 119 60
129 127 69
139 137 73
129 126 64
136 133 75
133 131 71
143 140 74
143 140 72
136 134 65
130 129 59
148 145 81
156 151 76
147 144 76
151 147 72
158 153 78
144 141 75
158 153 75
152 149 83
153 148 71
155 152 70
149 147 73
164 158 77
157 153 85
159 154 79
163 159 81
160 156 78
157 153 80
163 159 77
162 157 77
162 158 73
161 156 83
163 159 84
162 158 78
164 159 77
168 162 83
166 160 79
167 162 86
172 166 86
172 166 81
160 156 72
173 167 89
162 157 83
165 160 77
171 165 86
166 161 81
173 167 86
167 162 77
172 166 85
167 161 84
167 162 75
174 168 91
169 164 82
170 165 87
170 164 85
171 164 81
168 163 83
175 168 93
169 163 72
165 160 77
170 164 86
172 167 87
167 161 85
173 166 84
174 168 89
174 168 89
178 171 93
168 163 83
170 164 83
172 165 87
168 162 82
173 166 89
171 165 86
177 170 90
168 161 81
168 162 81
171 165 78
170 164 83
167 161 80
167 161 77
164 158 80
170 163 88
169 162 83
173 166 84
170 164 87
167 161 82
169 163 86
162 157 78
166 161 77
168 161 83
166 160 77
167 162 76
171 164 87
168 162 86
170 164 86
168 161 83
164 158 86
167 162 82
164 158 85
167 161 81
160 155 78
161 156 80
170 164 89
167 161 87
170 164 89
167 161 88
169 162 91
164 158 85
161 157 78
164 158 87
165 158 83
170 164 88
162 157 77
159 153 82
162 155 84
162 155 79
166 160 83
157 152 78
169 162 83
164 158 84
160 154 78
196 214 148
191 211 131
194 213 143
199 217 164
199 217 162
209 224 198
212 227 211
213 228 214
216 230 223
222 235 242
224 236 246
224 237 248
226 238 253
224 236 247
222 235 242
224 237 247
223 236 248
223 235 247
222 235 241
224 236 247
224 237 250
222 235 242
223 236 245
222 235 244
223 235 245
223 236 247
226 238 253
224 236 247
224 236 249
223 236 247
224 236 247
222 235 244
222 235 244
223 236 247
222 236 247
222 235 245
223 236 246
222 235 245
224 236 247
223 236 248
223 235 244
222 235 244
222 235 242
222 235 246
221 234 240
222 235 245
220 234 241
222 234 241
222 235 245
222 235 245
224 237 251
225 237 251
222 235 245
222 235 244
218 231 238
221 234 242
217 230 245
217 231 240
216 229 243
217 231 237
220 233 245
217 230 240
220 233 244
217 230 237
218 231 242
220 233 245
216 229 244
221 234 247
219 233 238
223 236 247
220 234 242
224 237 250
223 236 247
221 235 242
224 237 251
222 235 245
222 235 245
219 233 240
223 236 247
221 234 240
224 236 247
223 235 247
222 235 246
224 236 247
224 237 248
219 233 239
222 235 244
220 234 241
217 230 235
216 230 232
211 226 211
210 225 210
207 223 196
207 223 196
206 223 196
202 219 178
202 220 186
196 215 154
197 215 158
197 215 156
189 210 125
187 208 111
182 204 85
182 204 81
178 199 76
184 205 81
182 204 81
181 202 76
181 203 71
184 206 89
182 204 85
180 201 73
178 201 47
175 197 62
178 200 83
177 199 43
182 203 97
182 202 87
180 202 85
179 202 89
178 200 65
178 200 89
181 202 103
176 199 71
175 197 71
173 195 85
176 198 83
176 197 73
177 198 103
177 199 83
177 198 95
181 203 99
181 202 111
180 200 117
180 201 109
180 200 135
177 198 95
109 133 108
90 118 108
173 196 37
170 192 37
167 189 47
169 192 43
172 194 65
169 191 37
170 192 67
209 224 201
204 221 186
226 238 254
162 177 194
67 101 141
65 100 130
68 104 145
67 101 142
67 101 125
67 102 129
69 104 143
67 102 127
67 102 128
67 101 135
67 101 132
69 103 141
66 100 137
68 103 143
67 101 125
66 101 131
68 103 131
66 100 131
67 101 135
66 100 138
66 100 127
69 104 144
68 103 143
68 103 137
68 104 142
67 102 137
67 102 132
68 102 133
66 101 132
68 102 138
68 103 137
68 103 141
67 102 129
68 103 145
67 101 133
66 100 127
67 102 129
68 102 144
69 103 135
68 102 132
66 101 123
67 102 135
69 104 138
68 103 138
69 104 143
68 102 142
67 102 139
66 100 124
68 103 131
67 101 135
66 99 111
66 101 129
67 102 137
69 104 148
66 101 123
66 101 129
66 100 137
69 104 150
67 101 136
68 103 139
69 104 142
68 103 137
69 104 146
67 101 139
68 102 139
68 102 141
67 100 135
67 102 141
66 100 126
66 99 123
68 102 134
69 103 146
67 101 137
66 100 141
66 100 124
65 98 125
64 97 128
65 99 130
65 98 124
66 99 132
65 97 137
64 98 113
65 99 139
66 100 127
65 97 126
66 99 139
64 95 121
64 96 125
64 97 125
64 95 121
65 97 122
63 94 117
62 93 126
63 94 120
64 95 124
61 90 116
59 88 108
58 86 106
55 81 96
56 81 96
148 159 169
225 237 252
87 86 41
69 68 30
68 69 30
54 55 21
60 61 21
47 51 18
71 73 22
59 62 28
57 63 26
58 63 30
64 67 23
67 72 41
81 82 22
70 75 36
81 83 42
86 90 48
93 93 47
84 89 43
97 99 54
106 106 48
100 101 43
112 112 53
114 112 60
114 113 53
122 121 59
132 129 67
117 117 59
129 127 66
126 125 67
129 127 66
132 130 66
129 127 63
130 129 63
130 128 67
139 137 66
140 137 68
136 134 69
141 138 70
138 136 72
140 138 69
140 138 73
149 146 77
151 147 68
147 144 74
163 157 81
150 147 69
157 153 72
152 147 78
161 156 81
148 144 65
157 152 73
164 159 81
160 155 80
160 155 68
153 149 75
164 157 80
167 162 81
162 156 74
156 152 71
161 156 80
170 164 92
161 156 75
163 158 76
164 160 80
168 162 75
166 161 74
170 164 82
169 163 85
172 166 83
168 163 84
162 158 77
168 163 78
165 159 79
168 163 78
171 164 78
169 163 84
171 165 85
170 164 81
170 164 82
166 160 80
174 168 83
173 167 87
170 164 81
171 164 84
168 162 80
172 165 80
171 165 76
174 168 88
170 163 79
168 163 76
163 158 76
179 171 94
166 161 78
174 168 83
170 164 80
170 164 83
172 166 86
169 162 83
171 164 87
168 162 83
171 165 83
170 164 81
170 164 82
172 165 83
167 162 80
172 166 85
168 163 75
167 160 82
171 164 84
168 162 83
166 160 83
170 164 83
165 160 82
170 164 89
170 164 83
169 163 86
169 163 85
169 163 81
162 157 78
173 167 89
168 161 85
170 165 89
161 156 81
164 158 81
168 161 79
164 159 82
167 160 85
170 164 83
169 164 86
166 160 83
162 155 79
168 162 84
168 162 82
165 159 81
165 159 86
162 156 75
163 157 83
159 153 83
164 158 83
159 155 76
156 150 75
157 153 77
159 153 79
163 156 85
159 153 79
165 160 82
157 151 78
161 155 85
194 213 141
191 211 131
189 209 114
187 207 97
188 208 108
186 207 101
189 210 123
184 205 85
187 207 115
189 209 117
186 206 103
193 212 138
197 215 156
195 213 148
194 213 141
203 220 183
201 218 174
203 220 190
208 224 201
209 225 201
213 228 218
215 229 225
216 230 224
217 231 229
214 229 221
220 233 242
222 235 242
221 234 242
223 235 244
220 234 239
224 236 248
225 237 250
224 236 246
222 235 241
222 235 244
222 235 246
222 235 244
223 236 247
226 238 253
224 236 250
224 237 247
225 238 253
223 236 246
224 237 248
222 235 242
224 237 251
221 233 239
222 235 244
225 238 252
226 238 253
223 236 245
225 238 252
224 236 247
222 235 244
221 234 240
221 234 243
223 235 244
218 232 242
220 233 243
221 234 241
220 233 244
220 233 244
218 231 234
214 228 228
216 230 233
213 227 219
214 229 220
215 230 225
211 226 211
210 225 206
204 220 185
210 225 207
208 224 201
206 222 190
205 222 191
203 220 179
196 215 152
194 212 145
200 217 174
195 214 152
190 211 141
190 210 131
192 211 138
188 209 117
185 206 93
181 204 81
181 203 76
183 205 76
183 205 81
182 204 93
183 205 85
182 204 76
184 206 101
182 204 85
182 204 76
183 205 93
180 202 85
181 203 65
182 204 81
182 204 76
182 203 52
180 201 65
184 205 81
182 204 71
181 203 89
177 198 31
180 202 59
181 202 81
185 206 104
180 202 65
185 206 81
182 203 85
181 202 65
177 199 71
180 201 55
177 199 89
180 201 83
180 202 85
178 200 81
180 202 83
177 198 89
176 198 78
175 197 62
174 196 71
182 203 97
178 199 69
179 201 99
178 199 99
179 199 111
182 203 87
176 197 91
177 198 91
180 201 97
182 203 104
183 202 132
183 202 129
176 197 133
88 117 110
155 177 62
177 200 37
173 194 23
172 195 55
173 195 52
171 194 71
171 192 73
178 200 31
205 221 185
204 221 185
222 234 240
177 192 199
67 102 129
67 101 131
67 101 133
66 101 131
65 99 120
67 101 127
65 99 120
67 101 129
66 100 127
67 101 135
69 104 146
67 101 125
67 102 132
67 102 135
68 103 139
67 102 138
67 102 141
66 100 131
68 103 136
68 103 142
66 100 128
67 102 133
68 104 138
66 101 128
67 102 129
68 102 133
67 102 133
69 104 135
67 101 127
67 101 132
68 103 139
68 102 125
68 103 136
68 103 131
66 101 124
67 102 135
66 101 129
68 103 139
67 102 127
67 101 127
67 101 120
67 101 129
69 103 135
67 101 133
67 101 138
67 101 127
69 103 142
67 102 137
68 103 142
68 103 141
68 102 128
65 98 125
69 104 148
66 100 123
68 102 139
70 104 146
69 103 146
67 102 134
67 102 132
67 102 131
67 102 131
68 102 141
66 100 131
66 101 128
67 101 140
66 99 118
66 99 130
65 99 130
67 101 133
67 102 145
67 101 132
67 102 135
64 97 118
67 100 132
67 101 137
68 103 150
67 101 136
64 97 128
65 97 133
68 102 134
65 96 118
65 98 121
66 99 124
65 98 121
67 100 138
65 97 129
62 93 122
64 96 118
65 97 132
64 96 120
65 97 127
63 94 126
62 93 117
61 90 108
63 93 123
61 90 110
61 89 104
60 89 111
61 89 103
53 78 77
169 183 170
223 235 242
136 138 104
90 89 41
76 76 25
66 65 28
63 65 10
57 57 22
61 64 23
68 71 22
65 69 26
71 73 32
78 80 29
70 74 30
81 83 38
79 84 37
83 85 42
86 88 42
90 92 49
90 94 38
91 93 49
111 111 52
111 111 47
114 112 56
105 106 47
108 109 55
109 108 49
103 105 57
122 122 56
120 119 61
122 122 62
120 121 56
125 124 57
133 131 65
128 127 63
138 135 68
131 129 68
137 135 72
140 137 70
142 139 75
146 142 70
142 139 64
143 140 70
154 149 78
153 149 74
151 147 72
153 148 74
153 149 77
156 151 83
153 149 72
154 151 73
159 154 78
166 160 78
163 158 78
158 153 79
159 154 74
160 156 75
160 155 82
167 161 77
162 157 75
166 160 83
165 160 83
167 162 82
159 156 78
166 162 84
166 160 81
166 161 79
167 161 79
165 159 81
168 162 80
169 163 76
169 163 82
164 158 75
171 164 85
165 160 77
163 159 74
171 164 82
170 165 81
170 164 83
172 166 88
173 166 85
168 161 78
173 166 83
162 157 72
174 168 89
168 162 80
171 164 89
172 166 85
168 162 79
168 162 82
171 165 82
169 163 83
174 167 85
166 160 81
172 166 85
166 160 77
170 164 87
170 164 84
171 165 80
174 168 86
170 164 77
171 165 79
170 164 79
170 163 79
171 163 79
167 161 79
168 162 81
168 162 87
172 165 83
168 163 81
160 154 69
170 165 84
166 160 79
169 163 87
166 160 77
170 164 83
165 160 80
166 159 78
169 164 83
170 163 85
171 163 84
168 162 89
165 159 83
166 161 83
162 156 71
166 159 91
162 157 77
164 158 79
166 160 86
164 157 83
163 157 78
165 159 77
166 160 80
163 156 79
168 162 83
158 153 74
162 158 80
162 156 80
163 158 82
162 156 79
168 161 91
160 153 83
161 155 84
161 157 81
160 154 80
158 152 78
163 158 83
153 147 72
158 152 78
158 153 78
195 214 156
191 210 129
190 210 123
190 209 114
190 210 128
188 208 111
191 210 120
185 206 93
184 205 89
187 207 101
185 206 93
186 207 97
186 207 93
185 206 93
185 206 81
183 205 76
183 205 89
185 206 81
187 208 112
185 206 97
182 204 76
186 207 93
183 205 93
184 205 83
182 204 52
182 204 76
183 205 85
185 206 106
185 206 89
184 206 85
183 204 104
185 206 106
186 207 104
188 209 120
191 211 136
190 210 124
194 213 138
195 213 148
188 208 114
194 213 145
188 208 104
189 209 120
191 211 131
184 206 97
193 212 141
195 213 143
193 213 150
192 212 138
190 210 120
192 211 133
190 210 131
186 207 101
188 208 117
187 207 108
182 203 43
184 205 93
183 204 59
181 203 65
182 204 76
183 205 76
184 205 81
182 204 71
183 204 71
182 204 65
183 205 89
182 204 85
183 204 52
182 204 71
183 205 76
180 203 59
182 204 76
183 204 76
182 204 71
182 204 71
181 203 52
181 204 89
182 204 85
183 204 89
182 204 85
182 204 71
183 205 85
183 204 65
182 204 65
181 203 59
180 202 43
184 205 85
181 203 59
183 204 81
183 204 81
182 204 93
181 204 93
182 203 76
183 205 81
183 205 81
182 204 65
181 203 59
183 205 81
178 200 59
183 204 71
182 203 93
180 202 52
181 203 65
181 203 65
179 202 65
181 203 85
182 204 65
181 203 81
179 202 76
175 197 65
182 204 85
179 201 85
180 202 76
181 203 59
178 199 31
180 202 112
178 200 76
178 200 81
180 202 83
175 196 68
178 200 87
177 199 85
175 197 68
173 195 73
176 198 73
183 204 104
176 198 85
175 197 89
179 200 99
176 197 101
178 199 99
178 199 81
182 203 111
176 197 95
179 200 99
181 202 129
182 201 129
135 157 108
143 166 77
172 194 31
168 191 49
169 191 47
171 193 49
169 190 0
172 193 73
176 197 65
179 202 31
210 226 207
187 207 104
181 203 0
169 190 62
67 102 129
66 100 133
64 98 121
67 101 131
66 100 132
66 100 131
67 101 125
65 100 128
66 101 136
67 102 137
68 102 132
68 103 137
67 102 131
67 102 127
67 102 132
65 100 128
67 102 139
67 102 136
66 101 133
67 102 135
69 103 136
68 102 137
66 100 124
68 102 129
68 103 133
68 103 138
67 102 128
67 102 132
68 102 137
65 99 123
67 101 127
67 101 133
68 102 131
67 102 138
67 101 123
66 99 124
68 103 138
67 101 129
68 103 139
67 101 135
68 102 143
68 102 135
68 103 136
67 102 136
67 102 132
68 102 131
67 102 127
66 101 133
66 100 123
68 102 138
68 103 131
66 100 132
68 102 141
68 103 137
67 101 127
67 101 133
67 102 138
67 101 128
66 100 137
67 101 132
67 101 137
68 102 137
66 101 133
65 99 124
67 101 125
67 101 126
66 100 138
65 99 118
69 104 147
67 101 137
69 104 144
66 100 133
66 99 124
67 102 136
66 99 132
66 100 133
67 101 138
67 102 133
67 100 137
65 97 128
66 99 122
67 100 138
63 94 109
63 94 115
63 96 124
67 99 135
64 95 122
63 94 108
63 95 118
62 91 116
64 96 116
64 96 124
64 95 114
62 92 110
61 91 107
59 88 110
61 90 110
59 87 106
57 84 94
52 76 76
168 189 47
180 202 0
141 153 39
81 79 43
75 74 36
68 67 23
65 67 22
66 68 22
77 79 16
67 69 24
73 75 24
68 70 24
60 65 32
74 77 32
73 74 32
73 77 39
78 83 41
78 80 32
90 91 43
87 92 47
97 99 51
98 100 44
103 104 45
98 100 46
110 110 53
104 106 49
113 114 56
134 132 69
119 119 61
121 120 59
115 115 54
130 129 65
131 130 64
136 134 57
131 129 62
132 130 70
130 128 58
145 142 72
146 143 68
142 139 68
138 135 65
144 140 71
141 137 63
142 139 64
155 151 72
152 148 76
151 146 63
152 148 77
153 150 70
155 151 76
153 150 73
158 153 77
142 139 63
154 150 65
157 152 75
160 155 74
155 150 74
161 156 72
157 152 71
161 156 76
165 159 77
162 157 72
158 154 71
161 156 78
167 161 81
161 157 63
171 166 85
167 161 86
160 156 70
161 156 73
166 160 77
167 162 71
170 163 84
168 162 82
174 167 83
170 163 82
166 161 74
169 163 80
175 168 85
168 162 80
163 158 70
170 164 80
168 162 74
167 162 81
169 162 81
172 166 78
170 164 78
170 163 81
171 166 80
171 164 81
160 155 75
175 168 83
170 163 79
165 159 71
170 164 79
164 158 70
165 158 82
169 163 81
168 162 78
173 167 84
166 161 82
173 167 83
171 164 83
163 158 74
166 161 80
169 162 82
171 165 84
164 159 78
168 162 84
166 160 80
171 165 86
166 161 75
166 160 83
168 162 86
169 162 83
169 164 83
166 160 83
168 162 77
164 159 80
171 164 84
166 160 81
166 160 72
169 163 84
172 165 86
174 167 88
168 161 78
166 160 86
160 154 77
167 161 83
167 161 78
169 163 83
166 160 77
157 151 77
166 159 80
169 163 87
160 153 79
162 156 82
166 158 83
164 158 78
160 154 78
162 157 80
164 158 75
162 155 83
160 155 71
164 158 83
170 164 85
161 155 77
158 152 70
151 145 71
153 146 76
196 215 150
193 212 138
194 213 145
188 208 115
188 209 120
190 210 120
186 207 97
187 207 101
188 209 117
189 209 111
186 207 101
182 204 85
186 207 104
183 205 71
183 205 76
184 206 89
184 206 85
183 204 83
184 205 71
181 203 52
184 205 81
182 204 81
181 202 97
187 208 104
184 205 95
182 204 65
183 204 59
183 204 82
182 203 87
184 205 76
182 204 71
182 204 65
185 206 93
184 205 71
183 205 76
184 205 81
184 205 85
183 204 65
182 204 52
183 204 65
182 204 65
184 205 85
184 205 76
183 204 76
182 204 59
183 204 65
183 205 81
180 202 52
183 205 81
182 204 65
184 205 71
184 205 85
181 203 31
181 203 71
180 202 52
185 206 89
183 205 85
183 204 65
182 204 71
180 202 65
182 204 71
184 205 89
184 205 81
182 204 65
183 205 76
181 204 76
184 206 104
183 204 71
182 204 81
183 205 93
183 205 89
181 203 59
182 204 81
181 203 76
184 206 93
183 205 93
180 203 76
183 204 81
181 203 71
183 205 85
180 203 65
184 205 76
181 203 71
180 202 71
182 204 71
181 203 43
181 203 59
184 206 85
182 203 65
183 206 101
182 204 71
181 203 76
182 204 59
181 202 71
183 205 85
180 202 81
181 204 81
182 204 81
181 202 59
181 203 71
183 204 81
183 205 81
182 204 85
181 203 71
180 202 59
181 202 52
181 203 81
179 201 71
179 201 89
181 202 65
179 202 43
181 203 81
177 200 65
180 201 93
178 199 65
178 199 59
178 199 78
181 203 71
178 200 68
180 202 91
175 197 81
179 201 76
180 202 111
177 198 81
174 196 68
171 194 59
174 196 71
171 193 91
177 198 85
178 199 85
177 199 101
173 194 108
178 200 95
184 204 137
180 199 108
183 203 114
152 174 62
171 193 31
170 192 0
172 194 43
169 190 55
174 196 23
170 192 43
177 198 89
181 202 59
187 207 93
206 222 195
183 205 71
179 202 0
179 202 0
86 115 115
66 100 124
67 101 135
66 101 132
67 102 132
66 101 125
67 102 134
66 101 129
67 102 128
67 102 133
66 100 127
68 103 136
68 103 136
66 100 132
69 104 141
65 99 128
67 102 131
68 103 142
67 101 131
67 101 132
67 102 125
67 102 128
67 102 132
67 101 135
66 100 125
68 103 137
67 101 128
66 101 131
67 102 123
68 102 137
66 100 124
67 101 131
69 104 138
67 102 131
68 102 138
66 100 136
65 99 123
67 101 133
68 102 128
67 101 133
66 99 125
67 101 138
68 102 137
69 104 144
68 103 145
65 99 123
66 100 123
69 104 144
67 102 132
67 101 127
67 101 129
68 102 138
67 102 134
67 102 125
67 101 125
67 102 123
67 101 135
68 102 132
68 102 131
66 101 128
66 99 123
66 100 125
66 100 120
67 100 124
69 104 139
65 98 121
68 102 135
66 100 123
68 101 134
66 100 135
65 99 122
67 101 132
66 100 129
68 102 135
66 100 131
64 97 130
64 97 124
65 98 128
66 99 128
65 98 130
65 98 116
65 98 130
66 100 133
67 99 132
65 97 124
66 99 133
65 97 128
65 98 125
64 95 119
64 95 129
60 91 102
63 94 121
62 91 109
60 89 108
62 92 116
62 92 124
60 89 117
57 85 110
58 85 104
74 94 74
181 203 0
183 204 0
172 191 20
106 103 52
78 76 36
81 81 39
71 71 21
57 60 21
67 69 14
57 62 27
58 61 28
66 69 23
63 66 26
73 77 27
72 75 31
86 88 33
82 83 42
78 80 24
83 86 32
89 91 41
95 97 40
113 113 49
98 99 45
111 111 52
103 102 45
103 103 46
103 103 46
121 119 56
122 121 54
123 122 53
117 117 54
115 114 53
143 140 69
116 116 61
137 134 69
129 127 55
135 133 64
131 129 64
128 126 60
143 139 64
142 138 66
157 152 76
138 136 58
148 144 70
153 149 68
138 136 56
153 149 66
149 145 70
150 146 68
155 150 73
155 150 68
153 148 74
150 146 72
154 149 62
158 153 70
153 148 78
155 151 71
163 158 83
163 158 81
159 155 74
159 155 70
156 152 67
164 159 77
161 156 73
165 159 70
162 157 74
163 158 78
157 153 66
165 159 73
169 164 78
167 161 79
170 163 83
164 158 73
163 157 73
164 158 77
169 164 78
165 159 77
167 161 77
171 166 83
171 165 82
173 166 86
170 164 78
165 159 72
170 164 82
167 161 79
170 163 83
172 166 83
164 159 75
167 161 76
172 166 82
170 164 74
170 165 83
161 156 70
171 165 83
169 163 78
165 159 75
168 161 77
166 160 74
169 163 82
169 161 81
171 165 80
168 161 77
171 166 83
168 162 80
173 166 88
165 160 79
170 164 90
169 163 82
162 158 75
172 166 86
171 165 82
167 161 76
166 160 74
166 160 77
164 158 81
170 163 83
164 158 78
166 160 76
166 160 80
165 159 78
168 162 77
164 159 81
167 162 83
171 164 84
167 159 88
163 158 74
162 157 79
167 161 82
168 161 75
169 163 81
164 157 80
165 159 81
166 159 79
165 159 83
170 163 85
167 160 83
164 158 81
161 154 80
157 151 75
165 159 77
158 153 74
162 157 81
162 157 75
162 157 70
153 148 64
155 148 77
160 154 73
158 151 71
157 151 79
159 154 74
194 213 145
193 212 138
189 209 120
193 212 136
189 210 125
187 208 118
190 210 117
188 208 108
189 209 120
184 205 93
186 207 101
187 207 104
183 205 76
185 206 97
186 207 104
184 205 81
186 207 93
183 204 71
182 204 65
182 204 76
182 204 81
184 205 85
183 204 89
183 204 76
185 206 85
184 205 65
185 206 93
182 204 81
185 206 93
182 204 71
183 204 73
183 204 93
180 202 59
182 204 71
184 205 89
183 205 85
182 204 76
185 206 93
184 206 93
184 205 81
183 205 81
185 206 97
183 204 71
183 204 65
183 204 76
182 204 81
184 206 97
182 204 81
184 205 85
181 204 71
182 204 59
184 206 89
184 205 85
183 204 71
182 204 101
180 202 76
183 205 93
183 205 89
182 203 65
181 203 76
182 204 71
183 204 65
182 203 65
181 203 59
183 205 89
181 204 76
182 204 76
181 203 71
182 204 71
181 203 76
182 204 89
183 205 71
181 203 59
182 204 59
182 204 85
181 203 59
182 203 71
183 205 71
180 202 65
181 203 76
182 205 97
183 205 81
179 202 71
180 203 85
180 203 85
179 201 59
179 202 71
181 203 76
179 202 52
180 203 81
181 202 81
183 204 76
180 202 52
181 203 76
183 204 85
180 202 52
184 205 81
182 203 65
181 203 71
181 204 76
180 201 71
180 202 76
183 204 71
182 203 71
180 202 71
180 201 71
177 199 59
180 202 85
181 203 65
180 202 85
179 201 81
181 202 71
180 202 89
180 202 85
176 198 76
179 201 71
177 198 91
177 199 52
173 195 78
177 199 85
177 198 83
175 197 71
176 198 87
177 199 81
180 202 91
173 195 91
177 198 103
173 194 78
180 201 89
177 198 85
179 201 112
174 195 106
181 201 108
181 201 128
179 200 104
177 197 97
167 188 23
160 181 23
162 185 43
170 192 62
172 194 31
168 191 43
166 187 65
175 197 47
179 201 43
188 208 108
198 216 162
179 202 0
179 201 0
181 203 0
126 151 103
67 102 133
67 102 137
66 100 118
66 100 130
67 102 131
66 100 123
65 100 123
66 100 128
67 101 132
67 101 129
68 103 137
66 100 132
68 102 131
66 100 127
67 102 128
68 103 133
68 102 128
68 103 131
67 102 135
67 102 125
67 102 133
66 100 131
67 102 142
66 100 129
67 102 136
67 102 133
67 101 135
68 102 131
67 101 132
67 101 123
65 99 124
68 103 133
69 104 137
66 100 137
65 100 121
67 101 136
69 104 137
68 103 138
65 99 121
67 101 127
68 104 139
67 101 129
67 101 128
66 100 125
68 103 137
68 103 131
65 99 123
67 101 123
67 101 143
66 100 132
68 103 138
65 100 121
66 100 123
67 101 135
65 99 128
67 102 133
69 104 145
64 97 123
67 101 129
65 99 125
68 103 143
66 99 127
67 100 131
67 101 132
66 99 131
64 97 120
66 100 125
67 101 132
67 101 136
69 103 139
66 99 125
68 102 138
67 100 135
67 100 130
64 96 111
63 95 119
65 98 125
66 99 129
66 99 131
63 95 103
64 96 124
65 97 127
64 96 118
65 98 122
64 96 132
61 92 107
63 95 113
65 97 120
62 94 119
63 94 119
64 96 119
61 91 121
61 92 102
61 91 106
61 91 113
61 89 104
58 84 88
56 82 87
129 148 39
180 202 0
181 203 0
180 202 0
112 116 32
94 92 37
74 74 24
81 80 21
73 75 26
74 73 25
65 68 13
68 71 25
75 78 26
73 76 28
76 79 27
77 78 28
67 72 34
80 81 34
80 84 32
97 97 46
87 88 39
89 90 37
99 99 32
96 96 45
103 105 46
112 110 43
108 107 51
103 105 48
120 118 51
114 114 47
126 123 58
122 121 61
124 122 57
114 114 52
126 124 58
137 134 69
135 132 53
138 135 55
135 133 66
136 134 63
140 137 63
140 135 66
139 136 64
152 149 63
141 137 63
142 140 73
139 136 62
155 150 72
147 143 65
152 149 67
146 142 67
154 150 74
158 153 73
153 148 79
153 149 70
158 154 74
156 152 63
153 149 72
156 151 66
165 159 83
159 154 76
164 159 80
162 157 70
167 160 80
164 159 74
164 158 77
166 160 75
164 158 73
163 157 74
162 157 69
166 160 78
170 164 86
161 156 73
162 156 78
160 156 73
165 160 74
167 160 80
165 161 76
166 161 81
168 163 73
171 164 81
169 163 82
165 159 72
169 163 76
169 163 74
165 158 80
164 159 77
166 160 76
162 156 72
170 163 76
170 163 79
171 164 84
169 163 83
170 164 80
169 162 80
168 163 78
171 165 82
171 164 84
167 161 70
167 160 81
165 159 76
165 159 74
166 160 78
167 161 80
158 151 74
167 162 78
164 158 72
170 163 83
173 167 85
170 163 83
162 157 74
161 155 77
168 162 80
164 158 72
167 161 80
169 163 82
168 162 76
166 159 82
169 162 84
167 161 77
164 158 74
167 160 82
167 161 77
160 155 73
161 155 76
171 165 84
162 155 78
168 161 83
168 162 82
164 159 83
159 153 79
167 161 83
162 156 72
159 153 70
164 157 81
161 155 78
168 162 78
167 161 79
167 161 82
162 157 78
161 156 77
154 149 75
161 154 82
160 154 78
162 156 82
156 151 72
160 155 79
158 153 71
156 151 72
154 148 72
154 148 69
195 213 141
193 212 136
194 213 143
191 211 125
191 211 128
190 210 123
185 207 104
183 205 97
187 207 101
188 208 111
186 207 97
183 205 81
183 205 95
186 207 104
184 205 76
185 206 97
186 206 81
183 204 71
186 207 104
183 204 65
185 206 106
183 205 76
184 206 89
185 206 85
184 206 93
179 201 62
185 205 76
182 204 71
182 204 76
181 202 62
183 204 65
183 204 71
182 204 71
183 205 81
184 205 89
183 204 59
183 205 81
183 204 59
185 206 101
184 205 93
181 203 71
185 206 89
184 205 71
181 203 65
183 205 101
183 205 93
182 204 65
182 204 59
182 204 71
182 204 71
182 204 71
185 206 93
182 204 76
182 204 65
181 203 65
182 204 71
182 204 59
184 205 85
181 203 71
183 204 76
182 204 93
183 205 76
182 204 76
181 202 71
181 204 81
184 205 89
181 203 59
181 203 85
182 204 85
180 202 59
180 202 71
180 202 52
181 203 71
182 203 85
181 203 59
181 203 76
182 204 81
181 203 52
182 204 81
180 203 65
181 203 59
184 205 89
182 204 85
181 203 71
179 202 71
181 203 43
183 204 71
180 203 76
180 202 65
180 202 76
181 202 65
181 203 65
182 203 85
181 203 65
182 204 85
182 204 81
181 203 71
181 202 71
179 200 52
179 201 81
183 204 52
180 203 89
179 201 59
181 204 76
179 200 59
184 205 81
179 200 52
179 201 71
178 200 65
175 198 65
177 198 59
179 201 52
180 201 76
183 204 71
176 198 71
180 201 89
177 198 37
181 203 91
182 203 59
178 200 83
179 200 89
180 202 68
177 198 89
178 199 101
176 198 81
176 198 62
173 195 89
180 201 97
181 202 101
176 197 89
169 191 91
178 198 111
175 197 112
178 198 117
182 202 120
160 182 23
159 182 31
166 188 31
165 187 0
169 191 37
167 189 31
173 195 43
174 196 62
181 202 52
179 201 59
198 216 158
189 209 111
181 203 0
180 201 0
181 203 0
152 174 68
65 99 123
66 101 125
65 99 114
67 100 125
67 102 127
65 99 124
66 100 124
67 101 132
69 104 138
64 98 114
66 100 117
66 101 132
67 101 131
67 101 137
68 103 125
66 100 127
66 101 125
69 104 135
65 100 120
67 101 129
67 102 128
66 100 132
67 102 131
67 102 129
66 100 124
67 101 133
67 102 128
67 101 131
65 99 121
67 101 139
65 99 124
66 101 125
67 102 128
68 102 135
68 103 136
66 100 129
66 100 125
67 102 129
67 101 131
67 102 139
66 100 131
67 101 128
66 100 133
68 103 138
67 102 141
66 100 128
68 104 138
65 99 127
67 101 133
66 100 132
68 103 137
67 102 137
65 99 127
67 101 125
66 99 128
67 101 128
68 102 139
68 103 139
66 100 123
67 100 128
66 101 135
66 99 128
65 99 123
67 101 131
65 99 127
68 103 136
66 99 120
66 100 129
67 102 142
68 102 139
65 98 123
67 101 133
69 103 146
68 102 136
63 95 115
66 99 137
66 99 122
66 99 123
64 96 117
63 96 125
66 99 129
63 94 115
64 95 125
65 98 122
67 100 140
63 94 109
64 96 117
64 96 121
64 95 130
64 96 112
61 91 107
63 94 121
58 87 104
59 87 120
57 85 105
61 91 113
56 83 102
56 82 91
155 175 34
178 201 0
180 202 0
180 202 0
155 169 20
95 94 34
77 77 22
79 78 26
68 69 16
71 71 22
70 70 13
62 66 22
69 70 26
80 82 23
68 71 25
71 74 28
89 90 28
83 86 37
83 84 27
71 75 32
92 94 34
88 91 40
88 90 49
94 96 48
104 106 45
111 110 46
102 104 40
118 116 51
104 104 40
114 113 53
115 113 49
119 117 54
137 134 62
125 123 50
124 123 57
126 125 58
139 135 72
132 130 62
135 133 56
129 126 54
136 133 65
137 135 57
133 130 63
142 139 66
151 147 68
156 151 71
149 145 61
142 139 66
144 140 62
139 136 60
156 152 74
151 147 72
150 146 74
152 148 68
155 152 70
154 150 69
161 156 70
159 155 72
158 154 69
168 163 78
159 155 68
164 158 71
161 156 70
153 150 68
163 158 72
167 161 79
170 163 83
163 157 77
160 154 81
162 157 65
168 161 76
162 157 76
162 157 79
170 164 82
169 163 81
169 163 78
162 157 65
166 161 74
168 162 81
160 154 75
166 161 66
164 159 73
168 162 76
166 159 77
169 162 76
171 164 87
168 162 76
168 162 78
165 160 73
174 167 83
170 164 81
163 159 72
165 159 71
161 157 73
170 164 81
171 165 80
161 156 66
168 161 81
169 162 86
176 169 87
164 158 65
170 164 78
165 159 73
166 161 76
165 159 77
170 163 84
165 159 71
166 160 77
167 161 78
171 163 83
166 161 72
163 158 73
166 160 77
163 158 73
171 164 81
169 163 80
166 160 76
164 157 73
165 159 81
165 159 84
161 156 82
168 162 77
164 158 75
159 153 73
169 162 81
163 156 77
163 157 76
162 156 75
161 156 71
156 151 67
165 159 82
160 155 76
163 157 78
167 162 81
160 154 74
166 160 77
167 159 85
162 156 82
161 155 71
161 156 77
161 154 75
164 158 79
164 157 83
160 155 76
165 159 82
158 152 75
160 156 67
168 161 83
154 149 76
161 156 76
165 158 83
184 206 89
193 212 141
191 211 131
193 213 145
190 210 125
190 210 128
187 207 114
184 206 99
185 206 93
186 207 104
185 206 89
187 207 104
187 208 104
185 207 101
186 207 108
188 208 111
183 204 78
183 205 85
181 203 65
184 206 93
186 206 89
184 205 73
183 204 83
181 203 83
181 203 68
186 206 93
182 204 71
183 204 89
182 204 87
184 205 76
183 205 81
183 205 81
183 205 81
184 205 93
181 203 62
185 207 111
183 205 89
181 203 52
182 204 71
183 204 65
182 204 65
183 204 76
183 205 81
183 204 81
182 203 43
184 205 71
183 205 76
181 203 59
182 204 59
181 203 52
180 202 52
183 205 76
183 205 71
181 203 76
182 204 71
181 203 59
181 204 65
183 206 101
182 203 65
182 204 71
182 205 89
181 203 65
182 203 89
182 204 85
181 203 85
181 203 52
182 204 93
181 204 85
183 205 85
182 204 76
179 202 59
182 204 81
180 203 65
180 202 76
182 204 93
179 202 85
181 203 65
180 202 59
182 204 93
183 205 85
182 205 101
182 204 71
181 204 81
182 204 89
180 202 52
181 203 76
181 203 89
181 203 65
181 203 97
180 202 71
181 204 97
180 202 52
181 203 59
181 204 108
180 203 76
178 201 81
178 200 81
179 200 59
178 201 81
180 202 71
181 203 101
177 199 59
178 199 59
178 200 43
179 201 71
181 203 65
181 202 65
178 200 85
178 200 81
181 203 76
178 200 81
184 205 101
179 201 89
180 202 71
179 201 71
180 202 59
178 199 76
178 199 71
175 196 71
178 200 89
180 201 89
178 199 99
176 198 78
176 197 71
178 200 83
177 199 91
176 198 81
173 195 62
178 200 78
178 199 85
175 197 93
182 201 123
176 196 106
177 199 81
168 189 78
153 174 31
165 186 31
166 188 23
165 186 23
167 190 37
164 186 43
174 196 31
180 201 43
179 200 31
180 201 0
200 217 172
182 204 59
180 202 0
181 203 0
180 202 0
174 196 37
73 104 115
65 99 111
66 101 118
66 100 125
65 99 118
67 101 129
66 100 117
66 100 124
66 99 123
67 101 127
65 99 118
68 103 132
65 99 127
65 99 121
68 103 136
65 98 130
66 101 124
66 101 125
67 101 123
65 99 121
68 103 144
68 103 136
67 102 124
66 100 128
68 103 135
66 100 127
67 102 133
67 102 121
68 103 139
66 101 128
68 103 127
67 101 124
67 101 129
68 103 131
66 100 127
66 101 131
69 104 135
66 100 123
65 99 125
66 100 123
65 99 127
67 102 133
65 99 118
67 102 133
67 102 128
67 102 133
66 101 129
66 100 125
66 99 117
66 100 121
68 103 138
66 100 127
65 99 112
67 101 133
65 99 127
66 101 128
66 100 131
66 99 123
67 102 132
66 99 132
65 99 123
64 97 124
66 100 131
66 100 135
66 100 128
66 100 132
68 102 133
65 98 122
65 98 117
66 99 126
66 99 120
66 99 118
65 97 127
66 100 125
65 98 120
65 98 120
67 101 137
64 96 128
67 100 131
64 97 125
65 98 122
65 98 133
64 97 125
64 96 123
65 97 134
61 92 122
63 95 113
63 94 109
62 93 113
63 94 119
62 93 114
60 89 102
62 92 115
62 90 108
57 84 86
58 85 89
55 81 87
59 82 81
178 199 26
181 202 0
180 202 0
179 201 0
171 191 23
100 98 43
84 83 27
76 76 30
79 79 16
67 68 23
86 86 19
75 74 21
69 72 28
74 76 8
75 78 29
65 70 26
93 94 32
82 84 24
80 82 34
87 90 31
85 88 33
86 87 26
94 96 39
90 92 28
111 111 33
99 100 38
109 110 44
109 110 46
114 113 44
115 115 51
124 121 51
121 119 52
125 122 55
132 129 63
130 128 57
127 126 59
127 124 52
145 141 64
135 132 61
136 133 53
138 134 64
139 136 62
135 133 53
141 138 58
141 138 56
149 145 67
151 146 65
149 146 64
155 150 74
160 153 73
141 139 61
145 141 68
157 152 71
150 146 59
148 144 68
152 148 60
156 151 70
155 151 67
159 153 71
157 152 74
160 156 67
161 155 73
156 152 72
161 155 75
167 162 71
153 148 61
161 156 68
159 154 73
166 160 76
163 157 65
159 153 70
165 159 73
161 156 70
166 160 71
166 161 79
164 159 69
169 162 77
164 157 78
167 160 73
165 159 83
172 165 75
161 156 71
170 165 76
154 148 71
169 163 76
167 162 75
170 164 77
166 161 75
165 160 66
170 163 81
165 159 75
170 164 80
174 167 86
165 160 72
165 159 71
167 161 70
171 165 77
168 162 78
163 157 75
162 157 74
164 158 76
168 162 83
172 165 80
161 156 67
166 160 75
171 165 81
168 162 73
169 162 87
163 157 74
172 165 87
164 159 72
167 161 83
165 159 78
163 157 78
166 160 80
162 156 76
166 160 78
162 157 70
165 159 72
160 154 80
163 158 80
164 160 76
168 161 82
168 161 78
173 165 88
166 160 85
155 150 67
164 158 67
164 158 81
161 155 72
161 155 74
161 155 79
152 147 76
162 156 75
161 156 80
167 161 83
162 157 76
163 156 75
158 153 70
156 150 69
159 154 72
157 151 72
165 159 76
162 156 79
165 158 77
165 159 76
163 157 79
163 157 78
163 157 79
159 154 79
156 151 79
186 207 108
192 211 133
193 212 141
194 213 143
193 213 145
193 212 136
194 213 138
189 209 123
186 207 112
185 206 89
189 209 117
183 204 65
183 205 89
190 209 114
186 207 97
189 209 114
185 206 89
182 204 71
185 206 93
186 206 85
185 205 71
187 207 104
180 203 73
187 207 112
182 204 68
183 205 85
182 204 76
182 204 59
183 204 59
180 202 59
184 205 95
182 204 65
179 202 76
183 204 78
183 205 95
180 202 65
181 204 71
183 204 83
180 202 55
183 205 97
184 205 76
181 203 59
184 205 85
184 205 76
185 206 97
183 204 65
183 204 76
180 203 71
181 203 65
183 205 76
183 204 71
183 204 65
182 204 85
181 203 71
183 204 65
182 204 65
182 204 65
183 205 97
182 204 43
183 205 85
182 204 65
179 202 65
181 203 52
181 203 71
179 202 59
179 201 43
182 204 89
185 206 97
182 205 85
180 202 65
181 203 76
181 203 76
182 204 59
180 202 76
183 204 71
182 204 93
183 205 89
181 203 52
182 203 65
183 204 89
181 203 76
180 203 76
181 204 81
183 204 81
182 204 97
180 203 81
179 201 65
181 203 89
181 204 89
181 204 93
180 202 59
180 202 71
182 204 85
180 203 76
179 201 65
181 204 76
180 202 71
182 204 89
180 202 52
180 202 71
182 204 93
177 200 52
178 201 59
180 201 65
178 200 81
182 203 65
180 202 85
179 201 65
178 201 59
179 201 59
179 201 59
178 200 52
181 202 81
180 201 81
177 199 71
175 197 76
177 198 71
177 198 52
179 200 71
176 197 89
177 198 65
174 197 78
177 199 89
175 197 106
177 199 68
176 198 68
172 194 76
175 197 85
178 199 106
179 200 106
181 201 112
182 202 132
176 197 99
179 200 106
157 178 43
149 171 47
161 182 0
167 188 23
168 190 0
166 188 31
175 197 0
175 197 31
178 200 59
182 204 71
184 205 76
197 215 160
179 201 0
181 203 0
180 202 0
180 202 0
178 201 0
109 134 110
65 99 124
67 101 123
67 102 128
64 97 114
67 102 136
66 100 114
65 99 123
67 102 136
67 101 132
66 100 124
67 101 125
67 101 125
66 100 127
66 100 128
67 102 132
68 102 132
67 101 129
66 100 117
67 101 131
66 99 118
67 102 118
67 102 128
67 101 133
68 102 125
66 101 131
68 103 136
67 102 129
66 100 123
68 103 132
67 101 128
67 101 120
68 103 136
68 103 138
67 102 133
67 101 129
65 99 124
66 100 131
66 101 135
67 101 129
67 102 133
67 102 136
66 100 132
68 102 133
67 101 139
65 99 120
65 99 120
65 98 124
69 103 137
67 102 127
67 101 132
66 100 132
68 102 131
65 99 125
66 100 124
65 99 118
66 100 131
68 103 132
68 102 127
66 100 120
66 100 124
66 100 126
66 100 123
67 101 135
66 100 130
67 100 120
66 100 128
67 101 131
66 99 128
66 99 125
64 97 119
64 96 120
65 98 122
66 99 114
65 98 137
65 98 124
65 99 122
66 100 123
64 96 117
63 95 115
65 98 124
65 97 122
64 95 117
61 92 108
63 93 115
64 96 125
63 93 112
61 91 104
63 95 116
62 92 106
63 95 130
60 89 110
60 90 105
59 88 94
58 87 105
60 89 103
54 79 85
125 144 59
180 202 0
181 202 0
181 203 0
180 202 0
181 203 0
127 135 36
97 94 36
79 78 30
83 82 29
80 79 23
70 72 22
68 70 25
69 71 14
79 80 33
70 73 21
76 77 20
83 81 14
70 74 27
89 88 26
92 93 29
92 93 38
78 80 30
88 90 38
95 97 38
101 103 41
102 103 49
115 113 50
102 103 47
118 116 50
112 110 41
120 119 44
118 118 47
124 121 50
126 124 51
125 123 60
124 123 53
123 121 58
135 131 49
137 135 60
131 129 60
132 130 55
142 139 63
142 138 54
136 133 57
137 136 57
139 135 64
143 140 61
150 145 63
151 146 64
146 142 61
156 151 73
158 153 71
155 151 60
154 149 67
155 151 70
152 148 66
156 152 72
158 152 67
160 155 73
162 156 67
155 151 68
155 150 70
162 157 72
157 152 68
161 156 74
167 161 75
165 160 79
160 154 61
160 154 69
156 152 61
156 152 76
160 155 65
169 163 82
168 162 70
163 156 75
160 155 62
167 161 77
165 160 77
167 161 81
159 154 69
170 163 76
166 161 72
166 160 77
163 158 73
169 163 78
170 164 73
165 158 69
163 158 65
167 161 70
170 164 78
162 156 75
170 163 76
166 159 76
161 155 70
165 161 71
163 157 74
164 157 78
168 162 78
166 160 74
167 160 72
172 166 83
166 160 74
165 159 77
166 161 72
168 162 82
170 163 78
163 158 75
162 157 74
170 163 80
169 163 81
173 166 78
167 161 82
166 161 76
164 158 78
160 154 70
164 158 71
173 166 82
165 159 69
167 161 80
163 156 73
157 152 71
164 158 75
166 159 79
168 161 80
173 166 82
157 152 70
165 159 79
160 155 74
163 157 65
166 160 78
165 158 78
157 152 79
162 157 74
165 160 74
157 151 74
163 157 83
168 162 79
162 156 76
160 155 67
166 159 82
161 155 72
165 159 83
160 153 69
159 154 73
161 155 76
160 154 78
159 153 77
155 149 75
158 153 70
161 154 76
160 154 77
190 210 123
187 207 101
189 209 125
192 211 136
194 213 138
190 210 125
191 211 131
188 208 101
191 210 123
186 207 93
186 207 106
185 206 97
184 206 89
185 206 89
186 207 108
183 205 85
183 205 76
184 205 85
187 207 93
182 204 71
185 206 89
183 205 81
182 204 76
182 204 65
182 204 78
185 206 97
183 205 95
183 204 81
182 204 76
183 205 85
182 203 71
184 205 81
183 205 85
183 204 71
180 202 62
181 203 87
184 206 97
183 204 76
182 204 71
182 204 76
183 205 81
182 203 65
182 204 65
180 202 59
182 204 76
182 204 76
182 204 76
182 204 93
184 205 85
184 205 76
183 205 89
183 205 81
181 203 71
181 203 59
180 203 76
183 205 76
180 203 52
183 205 81
183 205 89
180 203 81
180 202 52
181 203 71
181 203 76
180 202 65
184 206 89
181 203 65
181 203 71
182 205 101
179 202 65
180 203 71
182 204 97
181 203 81
181 204 89
181 203 65
181 203 71
180 202 71
180 203 81
181 203 52
182 203 43
180 202 52
179 202 81
179 202 59
180 202 65
180 203 81
181 202 52
180 203 59
182 204 81
180 202 65
181 204 85
180 202 59
181 203 89
179 202 71
179 201 59
182 204 76
182 204 81
180 202 76
177 200 43
179 200 52
181 203 85
180 202 93
178 200 65
180 202 71
179 202 76
181 203 71
178 200 65
181 203 71
180 202 52
180 202 76
181 203 89
178 200 71
180 202 85
178 200 65
177 199 59
174 197 76
177 198 65
179 200 65
175 197 65
175 197 65
178 199 65
178 199 89
180 201 71
179 200 97
173 194 59
175 196 89
176 197 91
177 198 89
174 196 78
176 197 85
171 192 89
179 200 112
176 197 104
179 199 112
174 195 81
167 187 76
150 170 23
161 183 23
161 183 23
155 176 43
166 186 52
173 195 37
174 196 0
178 200 52
177 199 43
182 203 31
191 210 133
186 207 93
180 202 0
180 202 0
180 202 0
180 202 0
179 201 0
151 173 71
65 99 118
66 100 121
65 99 120
66 100 128
66 100 124
64 98 112
66 100 121
65 99 123
68 102 124
66 101 123
66 100 123
67 101 124
66 100 124
67 101 124
66 100 131
66 100 121
66 101 127
67 101 124
66 100 121
67 102 127
65 99 120
64 98 123
66 100 127
67 101 131
66 100 125
66 100 115
67 101 127
66 101 125
67 101 135
65 100 118
66 99 125
65 98 125
67 101 133
65 99 127
68 102 133
67 101 132
67 102 129
65 98 117
66 101 131
67 102 137
69 103 135
67 101 131
66 100 123
66 100 129
67 101 133
67 102 133
66 100 123
67 102 136
67 101 131
66 100 131
67 100 128
65 99 125
67 101 137
65 100 127
67 102 131
67 101 139
66 101 124
67 100 124
66 100 120
65 99 126
66 100 130
65 99 131
65 99 126
64 97 119
67 100 131
65 98 127
66 101 126
65 98 120
67 101 129
66 99 128
65 98 121
67 101 127
68 101 137
64 97 120
66 99 132
65 98 123
67 101 134
66 99 133
66 99 130
65 97 129
64 97 125
65 99 125
63 94 115
63 95 108
65 97 124
62 94 106
66 99 121
64 95 117
61 91 104
61 90 94
60 90 114
58 87 87
60 89 96
60 88 98
57 84 101
53 78 92
151 172 63
179 202 0
178 200 0
181 203 0
181 202 0
179 202 0
160 175 39
92 89 37
80 80 22
83 82 21
69 70 12
90 88 21
74 74 23
79 79 21
76 78 24
65 66 27
71 72 12
76 78 30
77 80 19
78 80 22
92 93 34
87 90 29
93 93 32
88 90 38
90 92 36
97 98 34
108 108 43
105 104 48
105 105 39
116 115 44
124 121 46
127 125 44
120 118 47
110 109 43
118 116 44
115 114 53
117 116 45
125 122 50
125 124 51
130 127 58
134 131 43
141 137 58
134 132 60
136 132 54
134 131 60
137 134 62
144 140 66
142 139 59
148 142 63
146 142 60
152 148 63
148 144 63
149 146 59
154 148 66
142 139 60
149 145 65
155 150 66
162 157 66
158 153 65
159 155 67
154 150 64
158 153 62
157 152 63
158 153 65
152 147 61
158 154 63
159 155 67
163 158 65
165 158 75
161 156 66
170 163 78
163 158 69
164 158 71
163 157 73
164 158 73
160 155 70
163 157 76
164 159 67
163 156 76
163 158 71
164 159 72
161 155 71
170 165 65
166 161 72
171 164 77
163 158 74
167 162 81
168 161 79
166 161 78
165 160 70
164 159 72
166 160 75
164 157 70
164 159 70
165 159 71
164 159 78
171 164 83
170 163 84
166 160 75
162 157 75
169 163 80
171 165 81
166 161 72
160 154 70
163 157 72
162 156 66
165 159 69
165 160 76
167 161 77
166 161 75
163 156 67
162 156 72
165 159 70
161 156 66
165 158 76
164 158 76
161 155 74
159 153 70
161 156 66
158 153 64
163 157 74
156 150 74
161 155 72
161 154 72
164 158 75
161 155 72
168 161 80
166 160 78
166 159 76
162 156 73
154 149 69
165 159 79
161 155 69
165 159 80
160 155 69
154 148 61
150 145 69
165 159 82
162 156 79
166 159 78
163 157 69
160 154 74
159 153 74
159 153 74
155 150 67
162 155 78
155 149 71
160 154 77
162 156 79
156 150 76
157 151 70
158 153 77
187 208 104
188 209 114
184 205 89
186 207 104
195 214 145
190 210 128
189 209 125
191 211 131
189 209 120
185 206 99
186 207 121
187 208 104
189 209 123
187 207 104
185 206 89
184 205 81
184 206 85
186 206 93
184 205 85
183 205 103
183 204 76
185 206 99
185 206 104
185 206 93
181 203 43
186 207 108
184 205 89
181 203 73
183 205 91
183 204 97
182 204 83
184 205 76
182 203 68
180 202 71
182 204 81
182 204 65
182 204 59
183 204 71
183 205 85
181 203 59
182 204 85
183 204 85
181 203 59
182 203 59
182 204 65
181 203 81
183 205 81
183 205 97
183 205 71
183 204 43
181 203 65
181 203 59
183 205 81
183 205 76
181 204 76
181 203 59
181 203 81
180 203 71
183 205 97
180 202 76
181 204 71
181 203 59
180 202 76
181 203 65
182 204 85
180 203 81
181 203 65
182 203 59
182 204 85
180 203 85
183 204 59
180 203 71
181 203 76
182 204 81
181 204 81
182 204 76
183 205 85
183 204 65
179 202 71
179 202 85
178 200 71
180 202 76
183 205 111
181 203 76
181 203 81
181 204 97
182 204 81
182 204 101
180 202 59
180 202 71
181 203 76
179 201 43
181 204 81
178 201 85
179 202 65
179 201 71
177 200 65
178 201 71
180 203 76
179 201 76
181 202 81
177 199 65
179 201 31
175 197 71
178 200 71
179 202 89
178 201 93
180 203 65
180 202 76
178 200 81
177 199 71
181 203 71
178 200 71
179 201 97
180 202 89
178 200 97
179 200 89
177 199 81
176 198 65
180 202 101
175 197 76
173 194 81
173 195 89
175 197 71
172 194 73
174 195 93
177 198 114
181 202 101
180 200 93
176 197 117
177 197 112
172 194 68
172 192 97
152 172 47
153 174 23
149 170 23
154 176 45
162 185 0
168 190 37
175 197 31
175 197 31
174 196 0
177 199 52
181 202 52
195 213 154
181 203 0
180 202 0
180 202 0
180 202 0
181 203 0
177 200 0
177 199 0
74 105 122
64 98 118
66 99 129
65 99 118
63 96 115
66 100 123
66 100 129
65 99 131
64 98 111
66 101 123
67 101 121
66 101 125
68 102 136
66 101 128
65 100 115
66 100 128
65 99 121
67 102 133
67 102 133
67 102 129
65 98 112
67 102 132
66 101 118
65 99 115
64 98 121
66 101 125
68 103 133
67 102 135
68 102 127
66 101 131
67 101 127
65 99 120
66 100 131
66 100 120
68 102 128
66 101 131
66 100 128
67 101 128
64 98 121
67 101 133
67 102 125
66 100 121
65 99 114
68 103 139
65 100 123
66 101 125
65 99 125
65 99 123
66 99 117
66 100 120
65 99 120
67 101 129
64 97 115
64 97 124
68 102 133
65 99 124
66 99 125
66 99 123
66 100 128
66 100 118
66 99 126
65 98 132
66 100 127
67 101 131
67 101 123
66 100 126
64 96 118
64 98 111
66 100 120
66 99 126
66 98 122
67 100 130
64 97 116
63 95 119
66 99 118
66 99 123
66 99 126
63 95 118
64 97 116
65 97 122
65 97 117
63 96 121
63 94 127
62 93 113
62 93 116
62 93 117
62 92 116
64 95 123
62 93 115
59 88 102
60 89 104
60 90 113
62 92 116
57 84 89
56 82 79
75 97 82
180 201 0
179 201 0
179 201 0
178 201 0
179 201 0
179 201 0
178 201 0
110 114 31
107 104 44
76 77 23
90 89 24
77 79 11
67 67 12
77 77 18
88 89 32
90 90 12
73 75 15
77 78 15
76 79 20
95 95 21
85 85 27
78 80 30
87 89 29
91 93 29
98 97 33
96 97 31
101 101 35
104 104 41
100 102 47
105 105 46
121 120 48
107 106 52
121 119 45
120 119 45
115 113 45
124 122 49
127 124 52
126 126 44
129 127 61
131 127 51
131 128 55
127 125 50
144 140 67
137 134 51
142 138 56
137 134 56
146 142 65
145 142 60
140 137 57
150 145 59
151 146 64
141 137 62
147 143 52
145 142 59
152 146 75
152 149 58
151 147 66
164 158 71
146 142 66
162 156 69
162 156 70
148 144 57
158 154 67
151 147 59
166 160 71
152 146 62
157 152 64
159 154 62
157 153 61
162 156 72
159 154 70
158 153 63
157 152 67
169 163 78
159 152 63
167 162 67
167 162 76
161 155 64
164 158 73
168 161 88
165 160 70
164 157 67
163 158 71
163 157 67
165 159 74
171 164 75
159 154 63
161 156 70
167 162 70
167 161 74
165 160 72
159 155 65
166 159 79
157 150 65
165 159 67
163 157 67
160 155 72
166 160 79
165 159 76
168 162 78
162 156 70
167 161 77
169 164 74
164 158 72
168 161 77
165 160 75
163 158 74
162 156 70
160 154 67
163 158 61
162 156 71
164 158 67
160 155 72
166 158 79
153 148 70
157 152 69
163 157 75
163 157 79
157 151 75
162 156 74
167 161 76
159 153 73
157 151 70
158 153 66
159 153 79
166 159 79
165 159 74
164 159 79
164 157 74
163 157 71
158 153 66
163 156 77
158 154 67
168 161 77
162 157 76
156 151 70
156 151 69
160 155 69
159 152 76
156 150 63
159 153 79
161 155 77
164 158 79
159 153 67
156 150 72
158 153 72
162 156 71
159 154 74
155 148 67
159 154 76
161 154 84
159 154 74
186 206 93
187 208 111
185 206 93
188 208 111
187 207 104
190 210 128
187 208 121
194 213 138
192 212 136
188 209 125
186 207 89
185 206 97
187 208 104
183 205 71
186 206 89
185 206 89
187 207 104
186 207 104
183 205 76
183 204 81
185 206 95
182 204 65
184 206 89
184 205 85
185 206 81
182 204 59
182 204 87
182 204 81
183 204 76
181 203 47
182 204 81
182 204 76
180 202 55
184 205 81
183 204 106
181 203 65
181 203 62
182 204 81
182 204 71
182 204 76
182 204 65
182 204 76
181 203 65
181 203 76
181 203 65
183 205 93
181 203 43
182 204 85
184 205 76
183 205 93
184 206 101
182 204 85
182 204 59
182 204 85
182 204 65
181 203 93
181 204 71
184 205 85
182 204 85
181 203 71
180 202 71
184 205 85
179 202 81
182 204 85
177 200 43
182 204 71
180 203 65
181 203 81
180 202 71
181 203 85
181 204 85
182 204 65
181 203 65
180 203 59
177 199 71
181 204 85
182 203 81
179 201 76
181 203 59
181 203 65
181 202 59
179 202 65
181 203 71
181 203 76
182 204 76
179 201 52
181 203 89
180 202 65
181 203 81
180 203 65
180 203 81
180 202 81
180 202 71
180 203 97
181 203 76
178 201 85
180 202 81
181 203 85
178 200 65
175 196 43
177 200 81
177 199 59
177 199 52
178 200 43
177 199 71
178 201 76
175 196 76
179 201 65
180 202 85
178 201 93
177 200 85
175 197 85
178 201 85
174 196 71
176 198 93
178 200 59
183 203 93
175 197 65
178 200 81
179 201 81
177 199 81
171 192 43
176 198 93
174 196 65
177 199 71
177 198 109
177 198 104
172 193 99
181 201 114
176 196 117
172 193 93
180 199 97
156 177 76
151 172 31
155 176 0
156 177 23
168 189 0
162 183 0
172 193 0
169 191 0
173 196 0
181 202 59
181 203 71
188 208 117
184 204 97
179 201 0
179 202 0
179 202 0
180 202 0
181 202 0
181 202 0
179 201 0
135 158 85
66 99 112
65 99 111
66 100 120
68 103 124
67 102 128
66 100 118
66 100 120
68 102 133
66 100 121
65 99 118
66 100 118
66 101 133
68 102 131
66 101 118
66 100 118
67 102 135
64 97 114
63 96 117
67 101 128
67 102 127
66 99 120
65 99 118
66 100 123
65 99 121
67 101 135
65 98 115
67 101 124
65 98 123
65 99 118
67 101 131
65 99 121
67 101 125
66 101 123
66 100 129
66 101 131
66 100 125
67 102 132
65 98 115
65 99 123
68 102 138
68 103 137
64 97 121
65 99 120
65 99 123
65 99 117
67 101 127
67 101 127
67 101 133
66 99 128
67 101 129
64 97 123
67 101 128
66 100 125
64 97 111
64 97 120
66 100 123
67 100 131
66 100 123
65 98 123
65 98 118
66 100 132
66 99 122
65 98 123
66 99 131
65 98 120
66 99 129
65 98 120
64 97 123
64 97 115
66 100 129
66 100 122
66 99 131
64 97 125
64 96 108
64 96 106
63 95 122
64 97 126
64 96 116
65 97 122
65 97 129
64 95 115
63 94 113
63 95 112
62 94 121
60 90 95
63 94 108
62 93 111
62 92 116
61 90 113
60 88 110
60 90 101
58 86 87
57 85 97
52 76 86
129 150 73
178 200 0
179 200 0
180 202 0
179 201 0
178 200 0
178 201 0
179 201 0
157 171 39
104 100 39
74 73 26
89 87 21
78 76 23
77 77 25
91 91 30
73 74 16
72 74 24
79 81 23
91 90 24
87 85 22
75 77 16
97 96 38
92 91 23
83 84 27
91 93 35
114 112 36
92 93 30
103 102 35
104 102 45
110 109 35
109 108 38
101 102 30
108 108 42
114 113 35
122 119 51
128 124 57
123 122 52
126 124 57
128 124 51
122 120 49
128 125 51
123 120 54
138 134 60
145 141 61
135 133 54
141 137 65
149 144 57
143 141 55
147 142 63
151 145 67
147 142 62
140 136 52
143 140 49
156 152 61
151 147 58
143 140 59
150 144 70
151 147 63
153 148 64
155 150 68
159 154 67
154 150 61
164 158 75
151 146 57
156 151 67
155 151 70
161 156 67
160 155 71
153 149 64
159 153 71
160 153 73
161 156 57
167 161 66
160 155 70
161 156 61
155 150 64
158 153 56
166 160 79
156 151 70
164 158 72
166 160 81
160 155 67
168 162 75
161 156 59
162 157 67
164 158 71
169 160 78
162 157 72
167 161 71
165 160 65
163 158 65
155 151 62
164 158 70
155 150 64
159 153 59
165 160 69
165 159 73
160 156 63
161 155 71
167 162 72
164 158 77
161 157 67
164 158 70
165 159 71
167 160 76
160 155 69
165 158 75
165 158 73
164 157 79
163 158 71
165 160 69
164 158 70
162 156 71
163 157 71
157 151 69
165 158 72
169 161 85
160 154 72
157 151 71
162 156 74
163 156 73
159 153 66
157 151 65
161 155 67
163 158 75
165 159 75
161 156 73
161 156 73
170 162 83
160 154 76
159 153 75
164 157 81
161 154 74
162 154 78
161 154 77
160 154 75
160 154 70
158 152 69
162 155 69
158 152 73
159 152 72
159 153 71
163 156 81
164 158 80
158 152 76
157 151 76
164 158 75
158 152 73
157 151 72
160 154 73
153 148 66
158 152 71
155 150 69
183 204 76
187 208 101
187 207 93
188 209 114
183 204 76
188 209 114
189 209 117
191 211 131
188 208 114
190 210 128
192 211 136
188 208 117
186 207 101
186 207 89
184 205 85
182 204 71
184 205 76
189 209 117
185 206 101
184 205 81
185 206 93
185 206 103
182 204 76
184 205 85
185 206 85
182 204 81
181 203 52
180 202 52
184 205 76
184 206 106
184 205 91
183 204 81
181 203 59
181 204 81
183 205 85
182 204 76
181 203 81
179 201 65
183 205 89
179 201 81
184 206 85
183 204 85
182 205 89
180 203 85
182 204 71
182 205 93
183 205 85
182 204 81
184 205 81
181 203 52
183 204 65
180 203 71
180 203 76
182 204 65
183 205 93
181 204 71
181 203 71
183 204 65
179 201 43
182 204 76
180 202 59
181 203 81
181 203 65
181 204 93
182 204 89
180 203 76
182 204 71
181 203 71
180 201 81
180 203 85
181 203 76
179 202 65
181 203 76
181 203 59
180 203 59
180 202 65
181 203 71
182 204 71
176 198 52
180 203 85
181 203 81
180 203 81
181 204 89
178 202 85
178 202 97
181 203 71
178 201 71
180 202 71
179 202 71
180 203 89
179 202 81
179 202 76
178 200 71
179 201 43
181 204 71
179 202 65
179 202 76
177 200 76
181 203 81
179 201 59
180 201 76
180 202 71
177 200 81
176 199 71
179 202 59
178 201 43
178 200 59
178 200 52
178 200 76
178 199 71
177 199 76
180 202 101
178 200 59
180 202 76
172 194 81
177 199 52
178 199 81
175 196 71
176 197 81
176 198 89
176 198 89
177 199 93
176 197 93
175 197 93
178 199 93
170 191 81
176 197 97
181 201 93
181 201 123
169 190 99
177 198 118
167 188 68
146 167 0
154 174 0
160 182 0
164 185 0
160 181 0
163 185 0
169 190 0
168 190 0
174 195 43
175 197 31
179 200 43
188 208 133
180 202 0
180 201 0
180 201 0
178 201 0
178 200 0
179 201 0
180 201 0
180 202 0
174 195 37
70 102 115
62 95 96
67 102 120
65 99 112
66 100 120
65 99 120
66 100 121
65 99 121
64 97 111
66 101 118
66 100 121
68 102 137
65 99 121
66 100 124
66 100 123
66 100 123
66 100 117
67 101 124
68 102 128
66 99 133
66 100 118
68 103 138
67 102 128
66 100 124
66 100 131
65 99 117
66 100 131
65 98 120
67 102 135
65 99 120
67 102 133
67 101 128
65 99 118
68 102 133
66 100 123
67 101 124
66 99 124
67 101 128
66 100 127
66 100 120
66 100 131
64 97 128
66 100 124
68 103 138
66 100 132
65 98 118
66 100 123
66 100 124
66 100 124
65 99 120
63 97 111
64 97 114
67 101 135
66 100 127
65 98 124
65 98 118
66 100 132
67 102 135
66 100 123
65 99 123
64 97 122
64 98 118
66 100 131
67 101 128
66 99 124
64 96 116
64 97 120
65 98 123
66 100 123
64 97 124
65 98 124
64 97 123
65 98 122
61 94 111
62 94 113
63 95 110
66 99 131
63 95 118
65 98 124
65 97 118
63 94 112
64 95 127
64 95 116
64 95 118
60 89 102
62 93 108
61 90 106
60 90 105
62 92 104
59 89 91
57 84 99
59 87 113
55 81 88
61 85 91
169 190 11
179 201 0
177 199 0
180 202 0
181 202 0
179 200 0
179 200 0
180 202 0
176 197 0
111 115 25
97 94 43
88 87 31
78 78 6
81 80 20
78 78 21
71 72 12
89 88 24
74 73 18
85 84 21
79 80 27
83 83 12
93 94 25
87 89 27
84 86 29
101 102 38
91 93 27
105 105 35
114 111 41
106 104 39
107 107 38
105 104 33
115 114 47
122 120 44
116 113 27
115 114 52
116 116 37
131 129 48
117 115 46
128 124 56
137 134 47
135 131 55
136 133 48
132 127 50
144 140 57
127 124 47
132 129 46
134 132 56
143 140 66
144 139 62
140 138 48
136 133 52
143 139 52
144 139 55
149 145 60
148 143 61
140 138 58
154 149 61
152 148 64
146 142 47
161 155 71
157 153 67
159 153 65
155 151 64
161 155 70
153 149 63
145 142 55
154 150 60
156 151 60
155 150 67
159 153 63
159 153 67
152 148 60
157 153 63
162 155 64
159 153 64
162 157 67
166 160 72
158 153 61
162 156 71
159 153 69
165 159 74
161 155 69
161 154 66
164 158 75
167 161 71
165 159 74
160 155 61
164 159 64
168 161 75
168 161 76
160 155 73
164 158 70
157 152 73
164 157 73
166 160 73
156 152 63
161 156 72
161 155 64
163 156 69
164 159 70
163 157 75
164 157 71
166 159 72
159 154 65
165 159 67
167 160 80
157 152 56
167 161 80
159 153 73
162 156 72
163 158 71
165 157 76
163 157 71
168 161 79
151 146 65
154 149 60
167 160 78
157 150 78
153 148 65
158 152 69
165 158 71
164 158 69
166 160 78
164 157 74
164 157 71
159 153 67
164 159 73
158 153 66
155 149 66
157 152 76
158 153 66
158 153 74
162 155 72
157 151 67
159 154 72
163 157 75
156 150 67
159 153 75
156 150 77
156 150 71
160 153 74
156 150 69
158 152 71
154 149 72
159 154 78
152 147 72
161 156 78
162 156 80
158 152 71
157 151 76
161 154 74
158 152 71
152 146 76
180 201 43
186 207 104
184 206 85
188 207 108
188 208 108
185 206 97
189 209 108
193 212 138
194 213 148
189 209 114
189 209 123
185 206 104
188 208 114
184 206 89
185 206 99
184 205 89
186 207 111
188 209 117
187 208 115
185 206 89
184 205 93
182 204 76
184 205 89
183 205 76
185 206 85
185 206 89
180 203 76
183 204 83
181 203 78
183 204 59
183 204 76
183 204 78
181 203 76
181 203 62
183 205 76
183 205 83
184 205 108
181 203 76
182 204 81
182 204 65
184 205 85
182 204 81
182 204 59
179 202 59
182 204 81
181 203 59
180 203 81
183 204 81
183 204 65
183 205 85
183 204 65
182 204 81
183 204 65
180 203 76
180 203 81
182 204 71
181 203 59
181 202 65
182 203 59
180 202 71
181 204 89
182 204 89
183 204 81
179 202 76
180 202 43
182 204 85
181 203 85
183 205 97
184 205 93
182 204 85
180 203 85
178 201 59
179 202 81
182 205 93
181 204 97
182 204 93
180 202 52
182 204 76
180 203 85
181 203 81
181 203 81
178 201 71
181 202 76
179 201 59
180 203 81
181 203 93
179 201 71
179 202 76
180 202 59
181 203 65
179 202 85
179 202 52
178 201 71
180 202 65
179 201 81
180 203 76
176 198 65
181 203 89
176 199 52
181 203 71
177 200 43
174 197 76
180 202 81
178 200 59
175 197 71
177 201 101
176 198 65
180 201 76
180 202 76
179 201 81
179 201 76
179 202 76
176 198 59
177 199 65
177 199 76
176 198 85
179 201 97
174 196 93
177 200 81
176 198 81
174 196 71
181 203 111
177 198 85
176 198 81
172 193 76
180 201 111
175 196 97
184 204 133
175 195 111
164 185 76
173 192 101
153 172 31
152 172 0
153 173 0
162 183 0
163 185 0
162 184 0
162 183 0
174 196 0
178 199 31
180 201 65
175 198 0
190 209 128
186 206 114
177 199 0
179 201 0
179 201 0
179 201 0
180 202 0
180 202 0
180 202 0
179 201 0
179 201 0
125 149 89
64 97 111
64 97 109
63 97 115
65 99 123
65 99 114
66 100 125
64 98 115
65 99 120
63 96 112
66 100 124
64 98 117
65 98 118
65 99 115
66 100 132
64 97 112
64 97 125
65 98 114
67 101 121
66 100 118
65 98 118
67 101 127
66 100 121
67 101 121
66 100 127
65 99 117
66 100 125
64 98 111
67 101 125
67 101 120
65 98 124
66 101 131
67 101 123
67 101 129
67 102 128
67 101 133
66 100 124
66 100 131
66 101 120
65 99 120
66 101 123
67 101 132
66 101 125
66 101 124
67 101 135
66 100 129
66 101 131
68 103 137
66 100 125
65 100 124
66 100 125
65 98 129
67 101 135
65 99 113
65 98 123
66 100 121
67 102 132
66 101 127
64 97 115
66 100 132
65 99 127
67 101 123
67 101 124
64 97 123
65 98 124
64 96 117
65 98 131
66 100 125
67 101 131
65 98 114
67 100 128
65 97 115
65 98 118
65 97 118
64 96 127
64 97 114
61 92 110
65 98 124
63 94 123
62 94 110
63 95 112
62 93 114
63 95 114
63 93 114
61 91 111
62 92 107
60 90 92
59 88 98
59 88 101
61 91 111
58 85 98
58 86 93
57 83 86
127 146 61
179 201 0
180 201 0
178 200 0
175 196 0
177 200 0
179 201 0
177 199 0
178 200 0
179 201 0
150 163 34
103 100 37
101 98 41
83 82 27
90 88 25
88 87 23
79 80 18
95 92 14
82 82 12
81 82 22
79 80 16
90 89 26
89 88 23
83 85 33
106 105 32
97 97 35
92 92 28
102 101 39
103 103 37
109 108 36
109 107 41
101 99 37
120 117 39
112 110 41
121 118 37
124 122 48
114 113 44
123 120 31
124 122 52
132 128 44
122 121 48
133 130 61
124 121 37
121 120 40
144 140 60
142 138 52
141 137 59
135 132 50
136 133 53
150 146 46
135 131 56
136 133 54
146 142 59
143 139 48
149 146 56
148 143 64
153 148 63
143 139 56
145 141 48
150 146 59
149 145 50
149 143 59
157 151 64
150 145 70
152 147 60
157 152 63
151 147 57
158 152 52
153 148 63
156 151 64
159 152 64
160 154 66
160 155 64
156 151 59
155 150 60
158 153 64
161 155 69
160 153 69
157 151 64
163 157 75
162 157 61
159 154 59
163 156 70
159 155 61
156 151 61
160 154 66
157 153 60
166 160 61
163 157 65
163 158 64
164 158 69
165 159 69
159 153 65
161 156 65
160 155 60
161 155 65
162 157 63
167 160 72
161 155 72
162 156 71
157 152 57
157 150 71
165 159 74
163 156 70
163 158 63
164 157 72
160 153 66
157 152 65
166 160 65
161 155 73
168 161 71
160 155 65
159 154 61
165 158 71
166 159 78
158 152 65
161 155 67
161 156 70
168 162 77
165 159 78
169 162 81
158 152 69
159 154 61
157 152 63
161 156 65
154 148 66
157 152 69
162 157 61
168 162 78
163 156 76
159 153 71
162 155 78
159 153 60
156 150 71
152 147 61
164 158 82
160 154 75
164 158 73
156 150 69
155 150 64
162 156 73
164 158 70
161 155 72
160 152 73
154 149 75
159 153 80
153 147 66
162 154 75
160 154 72
154 149 65
156 151 66
156 150 70
155 150 66
152 147 69
180 202 0
181 203 43
185 206 93
186 207 108
187 208 111
188 208 108
187 207 109
191 211 131
194 213 145
188 208 111
188 208 108
187 208 104
188 209 114
186 207 108
187 208 108
187 208 111
188 208 101
182 203 65
183 204 71
182 204 85
183 205 85
184 206 104
182 204 71
182 204 89
182 204 71
186 206 101
183 204 87
182 204 71
181 203 76
182 204 76
178 200 73
184 205 71
182 204 65
183 205 76
182 204 97
182 204 59
181 202 73
181 203 65
182 204 65
182 203 73
181 203 85
183 204 91
181 203 59
181 203 76
182 204 97
184 206 89
182 204 81
180 203 65
180 202 71
181 203 65
184 205 85
182 204 85
180 202 65
183 204 97
181 203 76
182 204 76
181 204 85
183 205 76
182 204 81
181 202 65
181 203 65
181 204 85
180 202 43
181 203 65
181 204 81
179 202 76
179 201 76
181 204 81
180 203 81
179 202 71
178 200 59
182 204 81
180 202 52
181 203 76
180 202 76
179 202 76
179 203 97
180 202 89
179 202 89
182 204 93
180 203 65
180 202 59
180 203 76
179 202 81
179 201 71
180 202 65
178 201 76
179 202 81
179 201 71
179 202 71
180 203 81
180 202 81
178 201 81
178 201 76
180 203 81
180 201 59
180 203 76
179 202 59
179 201 65
179 202 76
178 201 85
180 203 81
178 200 65
178 200 65
180 202 59
179 202 59
176 198 71
178 201 65
176 198 59
177 199 65
175 197 93
175 197 65
179 200 31
175 197 71
174 196 71
179 200 104
177 200 81
176 197 76
174 195 59
177 198 65
172 194 81
173 195 76
176 198 59
177 199 97
177 199 108
182 202 97
179 200 123
171 191 93
167 188 71
170 190 81
146 166 43
156 175 0
157 177 0
151 172 0
164 185 0
168 190 0
169 190 0
167 189 0
169 191 31
176 197 59
177 199 52
178 200 65
187 206 123
179 201 0
177 200 0
179 201 0
179 201 0
178 200 0
179 202 0
179 201 0
179 201 0
178 200 0
179 201 0
163 185 37
63 96 108
63 96 96
64 97 108
64 97 112
63 96 108
66 99 121
65 99 118
63 96 112
65 98 117
65 99 121
64 98 106
64 97 109
66 100 117
65 98 120
66 100 125
64 97 111
65 98 117
65 98 120
66 99 120
66 100 125
67 101 123
65 99 120
67 102 128
67 101 129
65 99 115
65 99 124
66 100 127
67 102 129
66 100 118
66 99 128
67 102 135
66 100 124
66 100 123
66 100 125
68 103 131
66 101 136
65 98 115
66 100 118
66 99 123
66 100 124
64 97 114
66 100 123
65 98 121
67 101 129
63 96 114
67 101 129
66 101 132
67 100 131
65 98 128
66 100 125
66 99 124
65 99 124
66 100 119
66 100 118
66 100 124
67 101 125
66 100 129
67 101 128
66 99 110
64 97 120
65 97 108
64 97 120
66 99 125
65 98 117
65 98 132
66 100 129
64 97 121
65 98 114
66 99 127
66 99 121
64 96 114
63 94 115
65 97 120
63 95 111
63 95 107
64 97 117
63 94 104
60 89 99
63 95 119
62 94 107
62 92 106
62 92 95
62 91 107
61 91 105
62 92 103
61 92 102
58 87 91
59 88 97
57 85 91
60 89 106
56 83 98
53 78 80
166 187 31
176 197 0
176 197 0
178 199 0
179 201 0
177 199 0
179 199 0
178 199 0
178 199 0
179 200 0
178 200 0
132 136 39
102 100 37
95 93 30
83 83 28
82 81 5
82 81 20
86 84 26
78 77 29
89 86 7
75 78 21
92 92 8
80 79 16
97 95 21
96 96 27
88 88 21
98 97 28
104 103 18
94 94 28
108 107 34
102 102 36
106 105 39
111 109 36
114 113 33
116 114 37
123 120 49
110 108 39
124 121 51
126 123 39
127 125 48
128 127 40
126 123 46
138 135 52
126 124 50
130 127 47
129 127 50
135 132 47
132 129 52
139 136 49
137 132 54
135 131 46
140 135 49
142 139 55
138 134 45
140 136 59
148 144 64
147 143 55
149 144 52
152 148 50
149 145 63
149 144 53
149 145 47
156 151 60
150 144 63
149 145 61
159 154 61
154 148 63
160 154 59
154 150 60
158 152 61
152 147 62
156 150 61
152 147 54
159 154 67
159 153 63
152 148 56
160 154 70
158 152 64
163 156 70
159 153 69
162 155 73
159 154 64
161 156 62
161 156 65
166 159 69
164 158 67
160 155 63
163 157 70
160 154 66
165 160 72
165 158 67
164 159 69
157 152 60
164 158 67
171 164 71
159 153 67
163 158 64
163 156 71
161 155 69
166 160 75
161 156 65
158 155 48
159 154 65
167 161 76
158 152 70
159 154 64
165 158 72
160 154 66
167 161 72
162 156 70
165 159 70
165 160 73
159 153 61
163 156 75
157 153 67
155 150 59
161 156 63
167 161 74
161 155 71
162 157 73
160 155 69
155 149 64
162 157 69
163 156 76
163 157 66
164 158 75
156 150 67
157 152 69
157 150 67
161 155 69
165 157 74
157 152 65
157 152 69
160 153 73
151 146 61
164 157 74
162 156 73
155 150 66
156 150 66
162 156 77
162 156 72
153 149 57
150 144 61
156 150 70
155 148 70
164 158 76
158 153 69
152 148 66
157 151 75
156 149 67
153 148 71
153 147 70
159 154 77
157 153 74
179 201 0
180 202 0
181 203 52
187 208 104
189 209 120
188 207 112
187 207 101
185 206 93
188 208 124
193 212 131
187 207 111
186 207 104
185 206 108
185 206 108
187 207 104
187 207 108
186 207 97
187 208 111
184 204 95
184 205 93
183 204 85
184 206 89
183 204 71
182 204 89
182 203 71
185 206 89
181 203 59
185 206 111
180 202 71
179 201 31
182 204 65
181 203 71
180 202 62
184 205 81
180 202 83
181 203 65
180 203 71
181 203 87
183 204 71
180 201 65
181 203 85
181 202 71
183 205 89
182 204 59
181 204 76
183 205 104
182 203 76
182 203 59
181 203 59
181 203 65
181 203 71
182 203 71
181 203 65
182 204 89
180 202 52
182 204 97
182 204 85
180 202 71
182 204 81
180 202 59
183 205 85
181 203 76
182 205 93
181 203 52
182 203 76
179 202 81
182 204 81
181 203 81
179 202 59
181 203 59
180 202 59
180 203 71
181 203 97
178 201 76
180 203 81
182 203 52
180 202 71
181 203 76
179 201 31
179 201 71
182 203 71
179 202 85
181 203 52
178 201 81
180 202 65
179 201 59
178 200 76
179 202 52
178 200 43
178 199 43
180 202 52
180 202 81
180 203 71
177 200 81
176 199 59
179 200 52
176 199 59
176 200 71
176 200 85
174 196 76
177 199 65
179 203 111
176 199 71
176 198 43
178 200 59
177 199 71
175 197 59
175 197 65
180 202 85
178 200 65
176 198 93
176 198 65
177 198 89
173 195 65
178 200 85
174 195 81
179 200 76
177 199 104
178 199 89
173 196 89
176 196 85
174 195 85
174 196 85
176 197 93
177 198 89
178 199 117
177 198 114
176 196 85
176 197 89
161 182 59
154 175 0
143 163 0
149 170 0
160 181 0
163 183 31
163 185 0
167 188 0
170 191 0
172 192 43
176 197 52
178 200 52
180 201 111
177 198 52
179 201 0
182 203 0
180 201 0
178 200 0
178 200 0
177 199 0
177 200 0
178 201 0
180 202 0
180 202 0
177 199 0
102 128 105
62 95 109
67 101 117
62 95 111
65 99 120
65 99 127
66 100 123
65 98 125
64 98 108
66 100 128
63 96 123
65 99 123
65 98 111
66 100 121
66 100 118
67 102 128
66 100 125
63 96 104
64 97 118
66 100 127
65 99 120
66 99 123
65 99 118
66 100 118
65 99 121
65 99 111
67 101 127
68 102 129
64 98 121
65 99 121
64 98 124
66 100 125
63 96 108
66 100 123
66 101 127
67 102 129
65 98 117
67 102 125
65 98 128
64 98 108
66 100 128
65 99 128
64 98 103
65 99 121
65 99 127
67 101 138
65 99 120
65 99 121
66 100 114
67 101 128
64 96 108
65 99 120
64 97 123
66 100 130
64 97 123
67 102 131
65 98 118
67 101 125
66 100 121
65 98 121
65 99 118
66 100 124
65 98 116
63 96 116
64 96 116
65 98 120
65 98 124
65 97 122
62 94 103
65 97 118
65 98 120
63 94 110
65 99 120
62 94 99
64 96 120
61 91 112
63 95 121
63 95 106
61 92 107
62 94 109
63 94 113
60 91 106
61 91 110
61 91 101
63 93 106
59 88 98
57 84 95
59 88 109
59 88 91
56 82 98
57 83 83
116 134 47
177 198 0
176 197 0
170 191 0
178 200 0
177 198 0
176 199 0
177 199 0
180 201 0
176 197 0
180 201 0
175 197 0
169 187 20
94 91 33
93 93 33
97 96 28
91 88 30
91 89 20
83 83 17
80 80 18
82 81 23
85 84 17
79 79 12
89 87 23
94 94 25
100 100 28
98 97 28
98 98 27
103 103 29
109 108 30
103 102 34
103 103 25
107 105 37
116 114 34
114 113 43
119 117 38
120 118 37
114 112 35
134 131 37
126 123 40
114 113 44
123 120 42
122 118 44
126 123 46
134 130 54
128 125 42
125 122 45
137 134 49
131 127 39
144 140 49
135 131 45
140 136 51
129 125 49
143 140 50
140 135 51
153 147 57
141 137 54
151 146 52
146 142 57
148 143 57
144 140 57
147 141 55
155 149 61
149 144 61
150 146 57
151 147 59
153 147 61
149 145 61
157 151 62
155 151 65
161 156 61
153 149 57
156 151 66
155 150 53
153 148 56
163 158 64
159 153 63
154 149 53
162 157 60
159 154 65
154 148 59
156 151 61
160 154 69
160 153 66
163 157 64
157 152 59
155 149 58
159 153 69
162 156 70
163 157 66
160 154 74
160 154 66
161 154 66
163 156 70
163 157 65
163 157 64
158 151 61
155 150 57
163 156 66
161 156 66
154 149 57
158 153 67
163 157 71
161 155 65
154 148 55
155 150 61
158 153 53
161 156 61
159 154 78
156 150 65
160 154 60
158 153 66
161 155 74
161 155 70
157 152 70
158 152 71
164 158 72
160 154 64
165 160 67
159 154 64
163 157 71
164 156 77
162 155 71
164 158 70
161 156 72
158 151 67
154 148 64
157 152 66
158 151 73
161 154 74
158 153 64
157 152 57
157 152 70
165 158 77
155 149 64
165 158 73
154 148 71
160 155 72
160 153 72
153 147 66
163 157 79
155 150 64
155 149 67
163 157 71
157 151 60
165 159 71
160 154 78
155 149 71
154 148 76
156 151 65
162 157 76
149 143 61
159 154 70
159 153 77
158 152 76
181 202 0
180 202 0
179 201 0
182 204 71
182 204 85
188 208 108
189 209 114
184 205 104
187 206 85
187 207 104
192 212 138
189 210 123
186 207 120
189 209 114
186 207 117
185 206 109
185 206 89
185 206 93
183 205 81
187 208 108
180 202 62
182 204 71
181 203 78
184 205 89
185 206 97
183 204 71
182 204 89
183 205 85
184 205 101
181 203 76
182 204 76
184 205 93
183 205 93
183 205 91
181 203 71
181 203 73
181 204 85
183 205 89
182 204 73
182 204 85
183 204 65
181 204 81
182 204 89
184 206 89
184 205 89
183 204 81
180 202 85
182 204 81
183 204 81
182 204 89
181 203 89
180 202 52
182 204 65
180 203 71
181 203 85
182 204 81
182 204 76
179 202 71
182 205 104
181 203 85
180 202 52
179 201 71
179 201 59
181 204 76
181 203 52
181 203 71
181 203 52
179 202 85
177 200 65
180 202 52
181 203 65
180 202 85
181 203 81
181 204 81
179 201 65
181 203 71
179 202 85
181 203 81
177 200 65
179 201 71
179 202 85
179 202 85
180 203 81
178 201 59
178 201 76
181 203 81
178 201 76
180 201 71
177 200 71
178 202 85
178 200 71
178 201 93
180 202 52
178 200 59
175 198 59
178 201 81
180 203 85
180 202 59
180 203 81
175 198 93
176 198 43
175 198 59
177 200 81
180 202 89
178 201 97
176 199 65
181 203 81
177 199 52
172 194 97
180 202 81
176 198 85
176 198 65
174 197 65
174 197 81
175 197 104
177 199 43
171 193 81
174 195 89
175 198 76
168 190 76
170 191 76
174 195 93
178 199 114
175 196 108
176 196 97
176 196 93
174 195 93
168 188 101
154 174 81
152 173 0
153 174 0
159 179 0
161 182 0
163 184 0
163 184 0
161 183 0
170 192 0
172 193 0
176 197 52
178 199 31
182 203 76
185 206 97
181 203 0
180 201 0
179 201 0
177 199 0
177 199 0
177 199 0
177 199 0
178 199 0
177 199 0
175 198 0
177 198 0
176 198 0
167 190 47
71 102 107
65 98 103
64 97 117
64 98 114
63 96 117
63 97 108
62 95 99
66 100 109
64 97 112
66 100 120
66 100 124
66 99 121
66 101 125
68 102 123
65 99 117
63 96 104
65 99 127
65 99 120
65 98 118
65 99 118
66 100 125
66 100 117
65 98 120
63 96 114
65 99 112
66 101 127
67 101 123
65 98 111
64 98 117
65 99 123
67 101 120
64 98 114
65 99 120
65 99 111
67 101 132
65 98 114
66 100 127
66 101 123
66 101 117
67 101 129
66 100 128
66 100 131
65 98 124
65 99 120
62 95 112
67 102 129
63 96 106
66 100 124
67 101 132
64 97 118
65 98 117
65 99 120
66 100 125
65 99 125
66 99 117
67 101 132
63 95 112
62 94 104
64 97 120
66 100 127
64 97 117
64 96 123
65 98 119
63 96 113
63 95 108
61 93 108
65 98 118
63 96 117
65 97 124
63 95 117
64 97 124
64 96 126
61 92 108
63 95 119
61 93 105
64 96 122
62 93 113
63 96 116
61 92 109
65 97 124
63 94 108
59 89 102
63 93 101
59 87 100
57 86 91
59 87 98
59 88 92
62 91 105
54 81 81
68 90 82
165 185 11
174 195 0
175 196 0
176 197 0
176 197 0
176 197 0
177 198 0
180 201 0
178 200 0
175 195 0
178 198 0
175 195 0
173 195 0
145 153 44
106 103 41
100 97 34
89 87 37
82 79 18
82 82 21
90 88 5
90 90 5
97 93 23
72 73 22
95 93 17
91 92 23
96 96 19
86 86 19
95 95 18
101 100 30
93 93 32
100 99 18
100 100 25
115 114 37
109 107 38
107 104 31
99 99 33
113 112 30
106 105 28
124 121 42
127 123 46
120 118 43
128 125 48
115 113 42
120 117 39
122 120 34
122 119 33
131 128 41
143 138 51
128 126 43
134 130 43
136 132 47
132 127 40
145 140 48
129 128 34
141 137 50
139 135 54
148 143 52
149 144 57
143 138 52
151 146 50
145 142 50
132 128 39
148 145 40
150 146 49
146 142 55
148 144 56
157 152 61
150 145 58
154 149 59
154 151 62
153 148 55
157 151 64
155 150 56
151 146 60
153 148 59
163 156 65
157 152 61
162 157 63
162 157 67
156 150 56
158 153 63
161 153 57
155 149 69
162 156 61
157 151 59
159 153 62
159 153 56
163 156 61
167 161 67
161 155 65
157 151 60
161 156 70
162 154 74
161 155 59
153 148 59
162 156 67
163 158 65
166 161 60
163 158 65
165 159 71
157 151 59
158 152 55
159 155 64
162 156 65
162 155 72
160 154 64
162 154 66
159 153 72
163 158 69
163 157 73
169 162 81
158 153 65
156 150 56
158 152 65
158 153 61
154 148 63
165 158 75
151 146 57
153 148 67
160 154 69
164 158 71
164 157 75
166 160 67
164 159 73
162 157 72
161 155 64
160 154 69
159 153 66
156 151 64
159 154 71
156 150 66
165 159 79
159 154 67
154 149 63
152 146 65
159 153 64
155 150 65
162 155 77
149 143 60
161 156 77
157 152 73
156 150 64
160 154 75
156 150 73
157 151 72
154 148 71
158 151 72
153 147 70
157 152 72
158 153 71
153 148 66
156 151 67
158 152 65
149 144 69
143 137 63
180 201 0
180 202 0
180 201 0
177 200 0
185 206 81
185 205 89
187 207 104
184 206 93
187 207 114
184 205 76
185 206 93
189 209 120
187 208 117
185 206 97
187 208 114
187 207 104
193 212 141
185 206 97
185 206 101
184 206 97
181 203 76
185 206 97
184 206 93
184 206 101
181 203 71
182 203 71
181 203 71
181 203 59
181 202 85
181 204 76
184 205 81
181 202 71
182 203 71
183 205 101
182 204 89
182 204 81
181 203 59
183 205 93
182 204 97
182 203 52
182 203 65
182 204 76
180 203 93
181 203 59
180 202 76
181 203 71
181 203 59
180 203 71
182 204 81
181 204 89
182 204 71
180 202 59
180 202 81
181 202 59
181 203 81
182 204 71
181 203 76
179 202 65
181 203 71
181 204 71
179 202 76
178 202 76
180 203 97
180 202 89
180 203 65
178 201 65
180 202 59
178 201 59
181 202 76
179 202 71
180 202 71
182 204 117
179 201 59
179 202 76
179 202 65
180 202 76
178 201 71
180 202 71
178 201 81
181 203 65
180 201 81
180 203 93
180 202 89
178 201 85
178 201 81
178 200 52
181 204 101
177 199 52
179 202 65
180 203 81
179 202 89
173 196 76
180 202 65
177 199 71
177 200 71
178 201 85
179 202 81
177 200 81
178 199 71
178 200 71
176 198 76
174 196 65
179 201 76
180 203 97
176 199 76
178 200 65
177 200 81
180 202 93
176 198 71
173 196 71
175 197 71
178 201 81
179 201 104
176 198 81
171 193 97
173 195 97
174 196 81
178 199 76
177 199 104
178 200 97
174 196 93
173 194 85
171 192 93
176 196 97
178 198 125
174 195 89
172 192 71
165 186 43
147 168 0
146 165 0
156 176 0
164 185 0
165 186 0
158 179 31
163 184 31
170 191 0
171 193 0
172 194 43
170 192 43
176 199 43
181 200 125
178 200 0
177 199 0
179 200 0
175 197 0
180 202 0
176 199 0
178 199 0
181 202 0
178 199 0
177 199 0
180 201 0
177 199 0
180 201 0
178 200 0
128 151 91
62 96 92
65 98 117
63 96 109
63 96 112
64 98 115
64 98 112
65 98 111
65 98 123
64 97 115
67 101 123
64 98 112
64 97 108
67 101 131
66 100 121
64 98 109
65 99 118
63 96 104
66 99 119
64 98 124
66 99 128
66 100 124
65 99 112
65 99 117
66 100 123
65 99 120
66 100 125
65 99 118
66 100 118
65 99 115
66 100 128
65 98 117
65 98 123
65 99 118
65 99 117
65 98 123
66 99 128
66 100 118
65 99 127
63 97 112
64 98 109
63 96 111
64 98 118
66 99 121
63 97 111
66 99 111
65 99 123
63 96 109
66 100 118
67 100 124
65 99 125
66 100 125
65 98 124
65 99 124
64 96 111
65 98 132
65 99 124
66 100 132
62 94 103
63 96 99
65 99 123
66 100 125
65 98 117
65 98 123
65 97 123
63 96 112
66 100 131
60 91 105
64 96 117
63 95 105
64 97 118
61 92 94
61 92 104
64 96 117
63 95 115
60 91 105
60 90 98
62 93 108
62 92 112
60 90 108
61 91 106
62 93 107
58 87 102
60 90 101
63 93 105
59 88 105
57 85 88
57 85 88
55 82 93
132 152 63
174 196 0
175 196 0
175 197 0
176 196 0
179 200 0
173 194 0
176 196 0
174 195 0
177 199 0
176 198 0
174 194 0
173 196 0
177 198 0
173 192 15
111 113 32
97 94 35
91 90 25
100 97 31
81 81 0
95 93 28
100 97 12
86 85 27
90 91 16
82 82 16
91 90 18
97 95 28
98 95 25
102 100 25
91 90 18
100 99 26
100 99 25
105 103 27
110 108 25
105 103 34
113 110 36
120 116 42
118 115 47
113 111 35
108 105 34
121 117 40
123 121 39
122 119 36
128 125 34
119 115 34
115 113 37
139 134 44
123 120 48
134 132 47
139 135 42
136 133 49
147 143 50
141 136 48
139 136 48
142 138 53
135 132 43
146 142 52
138 134 46
147 142 57
151 147 49
140 137 44
151 147 48
147 144 42
152 147 59
148 144 51
155 149 61
144 139 54
152 147 53
150 145 52
149 144 54
149 144 55
144 140 47
149 144 43
151 146 56
157 152 56
156 152 59
156 150 55
157 152 57
151 146 52
150 146 54
158 151 57
156 151 52
155 150 59
154 148 61
156 151 59
155 149 63
162 156 63
157 151 60
158 152 60
155 149 56
154 151 56
160 154 66
152 147 55
154 148 63
165 158 72
161 155 70
159 153 61
161 155 70
160 154 63
156 151 55
156 150 56
159 154 53
160 155 63
155 150 56
163 156 60
156 150 61
163 156 69
156 151 56
161 155 63
161 156 66
161 155 66
159 152 69
159 153 63
160 154 70
155 148 63
157 152 60
164 159 65
162 155 74
163 157 73
158 153 63
164 158 75
161 155 71
161 155 75
158 153 60
157 151 60
157 151 57
155 149 65
159 153 67
155 149 61
160 153 73
160 153 67
161 155 72
153 148 60
154 149 63
157 152 72
157 152 61
155 147 69
151 147 61
157 152 65
159 153 70
154 147 67
156 150 65
159 153 63
161 156 69
160 153 67
161 156 66
159 153 63
157 151 70
154 149 65
157 151 67
157 150 76
157 151 67
153 148 63
153 147 67
158 152 65
152 145 63
180 201 0
179 201 0
180 201 0
180 201 0
181 202 0
182 204 71
185 206 89
183 204 85
186 207 108
185 206 85
185 206 89
185 206 111
188 208 128
191 211 128
190 210 117
188 208 114
192 212 133
187 207 104
184 206 97
187 208 114
186 207 111
186 207 97
183 204 85
185 206 89
181 203 76
179 201 55
183 204 71
182 204 59
181 203 71
185 206 89
183 205 81
181 204 81
181 204 71
184 205 76
183 204 81
180 202 65
182 204 76
182 204 76
184 206 89
182 204 59
182 204 85
181 203 65
182 204 85
180 202 59
181 203 59
181 204 71
182 204 93
182 204 52
180 202 65
182 204 65
178 201 76
181 203 76
180 202 85
180 203 81
180 202 59
182 204 76
179 201 76
180 202 81
179 202 59
179 201 59
180 203 76
182 204 76
181 203 85
180 203 71
181 204 71
179 202 71
180 203 93
180 202 59
180 203 89
180 202 71
179 202 71
179 202 111
178 201 81
181 203 71
178 201 85
181 203 81
178 201 89
178 200 52
178 200 65
180 203 85
180 203 85
178 201 89
178 201 71
180 202 85
178 201 65
177 200 59
178 200 71
179 202 59
177 199 52
180 203 81
180 202 52
177 200 65
179 201 65
178 201 76
178 201 89
180 202 85
174 197 65
174 197 65
177 201 93
181 203 76
179 201 76
172 195 52
179 202 76
178 200 43
176 199 71
178 201 71
170 192 76
177 199 85
173 194 71
176 198 65
175 198 81
177 200 89
177 199 65
174 196 52
177 198 76
177 199 76
174 196 76
175 196 89
173 194 81
172 193 89
178 198 93
174 194 104
176 197 101
173 194 85
174 194 76
169 190 97
164 184 81
150 170 0
151 172 0
152 173 0
159 180 0
157 179 0
155 176 0
168 190 0
167 188 31
167 188 0
172 194 0
174 196 52
176 197 52
189 208 117
179 201 85
176 198 0
179 201 0
176 198 0
177 200 0
175 196 0
175 196 0
177 199 0
174 197 0
177 199 0
174 196 0
177 199 0
177 200 0
174 196 0
180 202 0
174 197 31
88 115 95
65 98 115
65 99 104
66 99 121
65 99 121
63 96 108
64 97 117
64 98 112
65 99 117
66 100 133
66 100 117
65 98 121
64 98 109
66 100 128
64 97 117
66 100 118
65 99 117
67 101 117
64 97 115
65 98 124
64 98 117
66 99 117
65 98 120
64 98 108
64 98 117
66 100 123
66 100 120
67 101 125
64 97 128
64 98 114
63 96 112
66 99 124
65 98 123
64 97 106
64 97 114
65 99 123
63 96 108
65 98 101
64 98 114
66 100 121
66 100 124
65 99 120
65 99 118
66 100 124
67 101 124
66 99 123
64 97 118
64 97 121
63 96 112
66 100 123
64 97 117
65 99 120
64 97 115
63 96 108
64 97 118
65 98 117
64 98 114
63 96 104
65 99 125
67 100 128
65 97 122
64 97 112
64 96 117
63 96 117
66 99 117
64 97 112
65 98 120
65 98 118
64 96 117
64 97 113
61 92 104
64 96 119
64 96 119
60 91 106
62 93 104
58 87 96
60 91 100
62 93 112
61 91 92
63 95 121
58 87 94
61 91 110
61 91 106
58 86 86
60 90 90
58 86 93
52 77 83
76 96 61
172 192 23
173 194 0
175 196 0
176 198 0
174 195 0
176 197 0
174 194 0
173 194 0
173 193 0
173 194 0
176 196 0
176 197 0
178 200 0
178 199 0
175 195 0
159 175 25
114 109 55
105 102 32
95 92 35
99 96 23
83 82 23
74 75 13
98 96 30
93 90 15
90 90 26
89 87 12
95 94 21
78 77 12
92 90 20
95 92 12
96 96 28
90 91 27
104 103 23
100 99 35
112 111 36
109 108 11
111 110 31
112 110 29
124 120 36
121 118 32
123 121 39
115 112 34
116 114 31
128 125 46
124 120 25
126 123 37
126 123 36
127 125 31
133 129 44
122 121 33
139 135 38
138 134 36
137 134 44
138 134 39
138 134 48
131 129 45
138 134 53
138 134 37
146 143 43
140 136 41
140 136 45
139 136 46
141 137 45
146 141 52
139 135 46
152 147 46
153 147 55
151 146 56
153 148 59
141 137 40
152 147 56
154 148 60
152 148 47
157 151 63
150 143 55
153 149 55
153 148 57
151 147 58
155 149 57
157 151 63
156 150 59
157 152 61
156 150 55
157 152 60
152 148 57
158 152 59
163 157 60
157 150 65
156 151 56
153 148 55
155 150 57
162 157 65
156 151 55
159 153 63
155 148 64
152 148 50
159 154 56
159 153 64
158 152 63
161 155 72
161 156 64
164 159 64
160 155 61
155 149 60
159 153 65
162 156 66
161 156 64
160 154 61
157 151 63
160 154 65
161 156 71
161 155 73
156 150 60
156 151 69
153 148 55
160 154 64
153 147 52
159 153 65
152 146 55
160 154 56
157 152 61
160 155 67
154 149 60
158 152 56
154 148 63
151 145 59
156 150 65
160 154 69
156 150 72
159 153 69
157 150 72
165 158 74
157 151 66
158 152 70
156 150 70
158 153 66
154 148 63
148 141 60
156 149 73
155 149 63
163 157 75
152 148 52
158 151 64
161 155 73
161 155 72
148 143 56
157 151 65
158 151 77
149 144 63
157 151 74
158 152 70
156 150 71
149 145 55
158 152 74
151 145 66
152 146 63
181 202 0
181 203 0
179 201 0
178 201 0
180 201 0
179 201 0
184 205 71
185 206 101
183 204 85
187 207 101
185 206 104
185 206 101
185 206 76
190 210 131
191 211 136
188 208 123
186 206 114
187 208 117
185 206 97
187 207 108
184 205 89
183 204 89
184 206 104
186 207 108
184 206 93
181 203 76
184 205 89
183 205 93
184 206 89
185 206 97
183 205 93
183 204 101
182 203 65
183 204 76
183 205 97
182 204 71
180 203 65
181 203 76
184 206 97
183 204 71
180 203 76
182 204 81
183 205 89
182 204 71
181 203 89
181 203 81
180 202 71
180 202 65
180 202 59
179 202 76
179 201 59
179 201 76
181 203 76
179 202 81
180 203 81
181 203 76
180 203 85
178 200 65
180 203 81
182 204 85
179 202 81
179 201 71
180 202 76
182 205 89
181 203 76
179 201 59
181 203 81
179 202 76
180 203 85
180 202 85
178 201 65
178 201 85
180 201 65
179 202 81
179 202 93
177 200 71
179 202 76
178 202 89
179 202 81
179 202 85
180 202 76
179 202 76
180 203 76
177 199 52
179 203 89
181 203 59
178 201 76
178 201 76
179 202 59
177 200 71
178 201 76
177 200 81
175 198 52
175 198 89
176 198 59
181 203 85
179 202 89
177 199 76
177 200 81
174 197 71
177 199 81
175 198 85
175 197 65
174 197 71
174 196 93
176 198 59
179 201 76
177 198 59
175 199 97
173 195 76
176 198 85
179 201 108
176 198 85
176 198 85
177 199 81
177 198 101
175 197 97
178 199 104
177 199 76
180 200 93
168 188 93
176 196 104
170 190 101
168 189 89
178 198 104
166 186 71
159 178 0
162 183 0
153 173 0
158 179 0
158 180 0
163 183 0
159 180 31
166 188 0
167 188 0
166 188 31
175 198 0
180 201 81
173 195 76
183 203 81
177 199 0
176 198 0
179 201 0
177 199 0
174 197 0
175 197 0
179 201 0
177 199 0
175 196 0
177 199 0
176 197 0
175 198 0
175 197 0
175 198 0
173 195 0
177 200 0
159 181 43
64 97 104
63 96 109
63 96 106
64 97 104
64 98 104
64 98 109
63 95 112
65 99 111
64 97 114
65 99 118
63 96 108
65 98 117
64 98 108
64 98 106
66 99 124
64 97 120
65 99 114
65 99 117
66 99 117
67 101 132
64 98 112
64 97 109
66 99 120
63 96 111
63 95 108
66 100 120
63 97 103
65 99 123
64 97 123
66 100 123
65 99 120
65 98 118
64 97 114
64 97 101
65 99 117
63 96 99
66 100 118
67 101 128
65 99 114
65 98 118
64 97 118
65 98 111
66 99 124
67 101 131
65 99 112
65 98 110
62 94 103
64 97 114
64 97 115
65 98 114
67 101 125
66 99 119
66 99 115
65 99 123
65 98 111
65 98 113
65 98 121
62 94 113
64 97 120
66 100 120
64 97 118
62 94 120
63 95 110
64 96 123
64 97 123
65 98 123
62 93 117
63 95 116
62 94 108
63 95 117
63 95 118
63 96 99
61 92 98
61 92 113
60 91 111
65 97 111
61 91 96
61 92 105
63 93 110
61 92 104
59 88 90
59 88 101
57 85 89
54 81 92
57 85 84
54 80 80
150 171 48
168 188 0
175 197 0
173 194 0
172 193 0
175 195 0
177 198 0
172 193 0
172 194 0
171 192 0
166 187 0
170 190 0
172 194 0
173 194 0
174 195 0
176 197 0
175 196 0
144 156 25
90 86 20
94 91 39
103 100 28
92 91 12
86 85 25
98 96 15
96 94 21
94 94 25
87 83 15
107 104 12
95 93 15
95 92 6
91 89 15
99 97 27
102 99 12
107 105 25
104 103 28
101 100 28
108 106 25
115 113 23
102 100 23
119 118 34
116 113 25
118 116 30
126 123 33
112 110 31
114 112 30
121 116 32
135 132 43
129 125 31
132 129 36
133 130 43
133 129 43
128 124 41
123 122 37
136 133 46
138 134 51
139 136 41
146 140 52
149 144 57
135 133 50
141 136 41
144 139 55
141 138 41
143 137 46
142 138 51
143 139 48
147 141 54
147 143 48
149 143 52
152 148 51
150 146 49
146 142 51
152 146 48
152 147 45
144 141 41
152 147 50
150 145 57
153 148 57
163 158 63
149 144 59
152 147 52
146 142 36
143 139 45
155 149 56
153 147 55
160 155 63
150 144 59
157 151 55
156 150 56
148 142 43
155 149 59
150 145 57
156 151 56
155 149 57
157 152 53
155 150 59
155 149 57
154 147 56
156 151 59
154 148 48
157 151 59
151 147 53
158 153 57
149 143 52
159 154 56
161 154 65
162 156 71
156 151 60
157 152 55
164 157 70
160 154 66
161 155 63
157 152 59
156 151 65
163 157 69
147 142 59
155 150 65
158 153 60
159 154 65
156 149 60
161 154 63
153 148 59
164 157 65
160 154 63
158 153 56
155 150 56
161 154 74
151 146 63
157 151 61
155 149 65
157 151 57
159 153 64
161 155 76
156 151 67
151 146 50
154 147 66
146 142 53
152 146 60
151 144 63
163 156 65
146 141 60
159 154 64
152 147 55
146 141 61
152 147 64
156 150 65
155 150 61
149 144 60
148 142 63
160 153 71
160 153 73
151 145 70
151 146 57
145 140 60
150 144 71
149 143 57
147 142 69
145 139 57
182 203 0
178 200 0
180 202 0
180 202 0
178 201 0
179 201 0
180 202 0
184 204 93
182 204 76
185 206 85
187 207 93
188 208 104
182 204 71
185 206 101
187 207 93
188 208 114
190 210 120
187 208 120
186 207 117
186 206 93
184 205 95
187 208 120
179 202 59
186 207 114
185 206 104
183 205 76
181 203 71
183 205 85
185 206 111
182 204 65
180 203 81
181 203 71
184 206 101
183 204 81
183 205 81
182 204 93
182 204 81
185 206 97
183 205 85
182 203 59
182 204 65
180 202 76
181 203 81
181 203 85
180 203 71
183 204 93
183 204 89
180 203 71
179 202 43
184 206 108
181 204 89
178 200 65
180 203 81
179 202 71
182 205 97
181 203 85
182 204 81
182 205 108
180 203 71
180 203 97
181 204 76
181 203 89
178 201 59
177 200 65
178 201 89
178 200 52
175 199 89
179 202 93
182 204 76
180 204 93
178 201 59
178 200 65
178 201 76
180 203 89
180 202 81
180 203 76
179 201 76
177 200 81
181 203 81
179 201 65
178 201 59
178 201 81
181 203 65
176 199 65
178 200 43
178 200 76
176 199 76
180 202 76
178 201 76
178 199 71
179 201 76
177 200 81
175 199 101
178 200 59
176 199 85
179 201 71
179 200 65
178 201 81
177 200 76
177 199 43
177 199 81
181 202 81
178 200 76
174 196 97
173 195 76
173 195 85
177 199 65
178 199 76
170 192 81
173 195 65
172 194 71
177 199 89
174 196 97
176 198 93
175 197 101
171 192 76
176 196 93
177 198 125
176 196 97
178 199 108
173 193 114
171 192 93
175 196 81
170 190 89
169 190 71
157 178 0
152 173 0
153 173 0
159 180 0
159 180 0
167 188 0
160 181 0
154 176 0
170 192 0
163 184 0
171 192 65
174 196 0
172 194 59
187 207 120
175 197 0
177 199 0
178 199 0
175 198 0
173 196 0
173 196 0
170 193 0
173 196 0
175 197 0
174 196 0
173 195 0
170 192 0
175 197 0
177 199 0
175 197 0
177 199 0
178 200 0
175 197 0
116 140 73
63 95 112
65 98 106
65 98 121
61 93 104
63 96 111
62 94 101
65 99 114
64 97 115
64 98 108
65 98 111
65 99 108
63 97 103
67 101 132
65 99 112
62 96 109
64 97 112
64 97 103
64 98 112
66 100 127
66 100 123
62 94 106
65 99 121
63 97 115
65 98 114
63 96 117
65 99 115
64 96 123
65 99 114
66 100 123
66 100 121
65 99 117
66 100 124
65 99 123
63 95 109
66 100 123
63 96 109
65 98 120
65 98 117
65 98 120
68 102 124
68 102 136
66 100 128
66 100 120
62 94 106
63 96 103
63 96 114
63 95 111
63 96 114
64 97 118
62 95 113
64 96 124
64 97 116
63 95 112
64 97 109
64 97 111
63 96 114
63 96 101
64 98 108
65 98 124
62 94 122
63 96 101
65 98 117
62 94 104
61 92 112
63 95 98
63 95 117
64 97 121
63 95 109
64 97 116
63 94 106
62 93 106
63 96 122
62 92 99
61 91 105
61 91 102
63 95 108
60 90 96
60 91 102
62 93 104
57 85 93
59 89 104
53 79 77
55 83 83
54 80 89
109 127 56
172 191 0
174 195 0
170 191 0
169 190 0
172 192 0
174 196 0
173 194 0
171 193 0
171 193 0
173 194 0
170 190 0
175 195 0
176 196 0
171 192 0
174 194 0
172 192 0
174 194 0
170 190 0
133 140 36
94 91 41
97 93 36
96 93 18
94 89 20
88 88 20
97 92 0
88 87 18
88 87 21
95 93 0
96 95 11
88 87 7
93 91 23
96 95 15
102 99 20
110 108 18
109 106 28
99 98 23
108 106 28
103 102 25
111 109 23
109 108 23
105 103 27
127 125 38
112 110 23
114 113 28
118 116 31
134 130 38
123 120 31
121 118 38
132 128 41
124 119 28
128 125 36
129 126 38
138 134 46
140 134 44
143 139 45
134 132 36
142 137 51
137 133 47
140 136 35
135 130 44
141 135 43
144 138 50
137 134 42
141 136 46
142 138 51
142 139 44
136 132 37
146 142 43
146 142 52
146 140 46
151 145 48
149 145 50
154 149 52
153 145 61
155 150 52
152 146 56
149 145 46
151 146 48
155 148 66
153 147 52
155 149 57
156 150 59
151 146 52
153 147 59
145 139 48
158 153 61
165 159 60
151 145 50
151 146 56
155 150 61
156 151 59
158 152 63
155 149 60
160 154 57
160 153 69
159 154 55
157 151 61
158 152 63
150 145 57
156 151 65
157 152 56
158 152 63
154 149 53
163 156 66
159 154 60
160 154 64
158 153 59
154 148 53
160 154 57
154 148 63
152 146 59
157 151 59
157 151 56
159 153 70
158 151 60
158 152 64
163 156 71
159 153 70
156 152 60
163 156 60
157 151 65
152 146 66
158 153 61
157 152 60
155 149 59
157 151 57
162 155 74
156 150 66
153 148 63
161 155 60
159 153 66
163 155 71
160 155 57
155 149 61
154 148 55
157 152 56
153 148 65
162 156 71
148 142 55
152 147 57
156 151 66
158 152 64
156 150 65
152 146 55
158 153 65
157 150 65
155 149 65
154 149 56
153 147 65
152 146 66
151 146 64
153 147 65
152 147 64
157 150 74
151 145 63
152 146 65
145 140 64
181 203 0
179 201 0
180 202 0
179 201 0
179 201 0
180 202 0
180 202 0
179 201 0
180 202 31
182 204 85
183 204 85
185 206 101
184 205 103
187 207 117
184 205 85
184 205 97
187 208 114
189 209 120
186 206 108
183 204 101
186 207 108
187 207 114
187 207 97
186 207 97
182 204 81
183 205 89
183 205 76
183 204 81
185 206 101
183 204 81
184 206 104
183 205 89
183 205 97
185 207 114
182 204 81
181 203 85
182 204 101
184 205 97
181 203 71
180 202 71
180 202 104
181 203 85
182 204 76
182 204 89
182 204 93
182 205 85
180 202 52
180 203 89
181 203 71
181 203 101
179 202 76
183 204 81
181 203 85
182 204 81
179 202 71
182 204 65
180 202 76
180 202 81
181 204 65
183 204 71
181 203 85
180 203 93
181 203 93
180 202 76
178 201 76
180 202 81
178 201 71
180 203 89
179 202 65
180 202 59
180 203 85
180 203 76
180 201 65
180 202 81
178 200 59
180 202 81
178 200 65
179 202 85
180 203 85
180 203 93
176 200 93
178 199 43
174 197 71
177 200 65
178 201 85
179 201 65
180 202 65
178 201 76
177 200 81
180 203 101
180 203 101
175 197 65
179 202 85
180 202 59
177 199 89
175 197 76
173 196 81
180 202 65
178 201 81
177 200 71
177 199 85
176 198 71
176 199 85
176 198 76
180 201 89
181 202 85
175 197 85
178 200 85
175 197 89
172 194 59
175 197 76
178 198 85
172 193 59
175 196 97
176 197 85
178 200 89
179 200 114
172 193 101
175 195 89
178 198 120
171 192 104
170 189 89
169 190 71
160 180 52
149 168 0
154 174 0
151 172 0
163 183 0
156 177 0
150 171 0
165 186 0
162 184 0
165 186 0
171 192 0
172 193 0
175 196 65
172 193 43
184 204 104
180 201 65
175 196 0
178 200 0
177 199 0
177 198 0
175 198 0
172 195 0
176 197 0
173 195 0
174 196 0
170 193 0
173 195 0
178 200 0
171 194 0
174 197 0
175 196 0
172 193 0
176 198 0
171 193 0
166 188 23
78 106 97
62 95 104
61 94 93
65 99 115
62 95 103
63 96 104
62 95 101
64 97 109
63 96 106
64 97 115
64 98 121
64 98 106
64 97 114
62 94 115
66 100 112
64 98 117
64 98 115
66 100 117
64 97 97
67 101 123
63 96 106
62 95 99
64 98 103
66 99 121
64 97 114
64 97 117
62 95 104
65 98 118
63 95 111
65 98 109
63 96 103
64 97 109
66 100 123
63 96 114
65 98 118
62 95 109
66 100 124
64 98 109
64 98 111
66 99 129
65 99 109
66 100 127
66 99 118
64 98 117
64 97 115
64 98 109
65 98 128
64 96 114
65 99 127
63 96 106
63 95 115
62 94 113
65 98 120
62 95 111
63 96 103
62 94 111
66 99 117
64 97 111
61 93 94
63 94 101
63 96 119
62 94 101
62 95 101
63 96 111
64 96 118
61 92 103
62 93 103
62 93 116
61 91 93
62 94 99
61 92 104
61 92 101
61 91 105
61 92 100
62 92 108
60 91 99
55 82 90
59 88 95
57 85 91
59 88 93
57 85 85
57 85 95
56 82 90
89 109 69
162 182 23
166 185 0
173 193 0
167 186 0
170 191 0
171 191 0
169 188 0
172 192 0
169 189 0
173 195 0
172 193 0
173 193 0
170 190 0
170 190 0
168 189 0
167 187 0
168 187 0
171 192 0
168 188 0
170 188 20
110 112 31
86 83 23
104 100 32
91 89 25
80 79 11
91 88 26
85 84 0
94 91 11
103 100 11
93 90 27
97 95 16
96 93 1
87 86 15
99 97 25
110 108 18
109 105 26
99 97 16
105 103 28
119 116 12
114 112 32
115 113 20
107 105 30
116 114 30
121 118 32
122 121 25
118 116 30
125 121 26
119 116 37
112 110 26
133 129 33
129 125 34
120 119 26
123 117 42
128 125 40
134 129 46
134 130 36
137 133 46
140 135 42
139 134 40
136 132 44
132 129 37
137 133 40
145 140 43
145 141 46
134 131 37
138 135 39
149 144 40
143 137 41
145 141 48
152 147 57
148 144 45
143 138 46
143 140 37
152 147 55
143 138 54
144 139 54
143 138 43
148 142 59
155 149 60
153 147 55
158 153 54
149 144 59
147 142 46
151 146 43
153 147 57
147 141 46
152 146 57
152 146 56
154 148 48
156 151 61
152 147 55
154 149 50
152 147 56
158 152 63
157 152 57
155 150 53
157 151 56
158 153 55
148 143 56
152 147 53
152 147 50
155 150 59
160 153 61
157 152 57
154 148 56
155 149 65
153 148 56
159 154 57
163 157 65
158 151 61
154 150 48
146 141 50
155 149 59
154 148 64
157 152 59
160 154 72
162 156 59
152 145 46
162 154 60
148 143 55
155 151 56
159 153 64
156 151 63
156 150 57
153 147 53
154 148 63
154 149 56
160 154 63
157 151 64
154 149 56
150 145 57
156 151 61
156 151 64
153 147 69
156 150 65
159 153 72
155 149 64
152 146 63
153 148 63
150 145 63
149 143 63
159 153 61
155 149 64
151 144 65
158 151 70
159 153 69
149 143 60
153 147 55
156 149 71
149 143 64
157 151 70
149 144 59
151 143 71
156 150 70
157 150 77
148 142 60
156 150 64
153 147 65
178 200 0
179 202 0
178 200 0
177 200 0
179 202 0
179 201 0
179 201 0
179 201 0
179 201 0
180 202 71
185 206 93
184 205 104
186 207 93
185 206 104
186 207 101
185 205 76
183 204 89
185 206 104
188 209 114
187 207 114
185 206 108
184 206 101
186 207 120
184 206 106
181 203 71
184 205 101
185 206 97
185 206 108
183 204 85
180 202 85
182 204 81
182 204 81
183 205 97
181 203 59
184 205 81
185 206 104
182 204 89
181 203 65
183 205 97
182 203 71
181 203 89
183 205 101
183 205 76
182 204 85
182 204 81
181 203 85
180 202 76
182 204 71
179 202 85
181 203 89
181 203 76
181 203 89
181 204 89
179 202 71
179 202 43
181 203 81
179 201 59
181 203 81
177 199 71
179 201 71
180 202 81
180 202 52
182 204 65
179 201 71
180 202 85
180 203 81
178 201 71
178 201 81
180 202 52
181 204 76
178 200 71
179 202 81
180 202 81
181 203 81
179 201 97
179 203 93
179 202 85
180 202 52
179 202 65
178 201 76
180 203 89
179 202 81
178 201 52
180 202 76
180 201 65
180 202 81
179 201 59
177 200 65
180 202 71
180 203 93
177 200 65
175 197 71
179 202 89
176 199 71
176 199 89
179 201 76
174 197 81
178 201 81
179 201 85
176 199 93
177 199 89
178 201 81
179 201 85
178 200 81
176 198 71
175 196 76
173 195 71
174 196 59
172 194 89
175 196 76
175 197 89
176 198 85
176 197 81
176 197 93
174 195 111
171 192 71
173 193 97
169 189 81
173 193 114
171 191 85
171 191 104
166 187 93
158 179 59
155 175 0
158 178 0
158 179 0
152 172 0
157 177 0
159 181 0
160 180 0
159 179 31
168 189 0
161 182 0
169 190 52
172 193 59
175 197 65
179 200 93
177 198 59
174 197 0
175 197 0
178 200 0
173 194 0
175 197 0
173 196 0
176 198 0
173 195 0
172 194 0
177 199 0
174 196 0
174 195 0
170 193 0
176 198 0
174 197 0
177 199 0
175 197 0
173 195 0
169 191 0
169 190 0
151 174 43
70 99 93
63 96 103
64 97 108
62 94 91
65 98 108
64 98 109
64 98 114
63 96 108
62 94 103
63 96 111
63 96 104
60 92 85
65 98 124
64 97 97
65 99 114
61 94 101
63 96 108
64 97 103
63 96 118
64 97 111
64 97 114
64 97 115
66 100 129
65 99 112
65 99 111
62 95 97
64 96 114
65 98 120
64 97 106
65 98 114
64 97 120
65 99 123
65 98 125
64 97 117
63 96 108
66 99 127
64 98 118
64 97 120
63 95 103
65 99 120
63 95 109
66 100 111
64 97 111
63 95 106
63 97 115
63 96 114
64 97 117
65 99 121
65 98 123
64 97 115
64 96 115
63 95 112
63 96 111
65 97 123
64 96 123
63 95 111
62 94 105
63 96 117
63 95 114
63 95 111
63 94 108
64 98 117
63 96 108
62 94 106
63 96 116
61 93 118
61 92 106
62 93 101
60 91 97
63 94 111
63 95 108
61 92 108
62 92 112
62 94 113
61 91 98
61 91 106
57 86 82
58 86 100
59 88 109
55 81 85
53 80 81
62 85 61
147 167 47
165 185 0
170 189 0
172 191 0
167 185 0
172 192 0
167 186 0
166 187 0
170 190 0
170 190 0
170 190 0
172 191 0
164 183 0
165 184 0
165 185 0
169 190 0
169 189 0
170 191 0
163 184 0
167 186 0
176 197 0
148 163 25
107 106 34
109 103 36
106 101 34
92 90 23
92 90 18
110 105 30
79 77 11
90 89 15
91 90 0
88 87 23
91 90 5
85 85 23
87 87 11
105 102 18
102 101 26
109 107 20
107 106 18
100 99 25
107 106 15
113 110 23
113 110 11
110 106 23
120 118 20
114 111 26
105 103 25
121 118 30
129 125 34
130 126 33
132 127 40
130 127 28
133 129 35
132 128 37
132 128 41
127 124 31
128 124 35
134 132 36
130 128 35
137 134 34
132 127 34
138 134 45
142 136 48
142 138 46
142 138 43
154 147 50
141 136 46
147 142 46
142 136 49
145 140 48
139 135 47
143 139 36
145 140 49
146 142 43
142 137 43
147 141 41
151 146 50
148 144 45
150 145 43
152 147 50
153 147 59
148 141 39
143 138 46
155 150 53
151 145 55
154 149 55
154 147 61
146 141 45
154 149 59
155 150 46
153 148 52
160 154 57
150 145 55
151 145 55
161 156 56
159 153 59
156 150 57
146 142 45
156 150 55
154 148 53
156 150 56
144 139 50
158 150 55
156 150 57
151 145 56
155 150 56
156 150 57
148 142 55
164 157 67
159 153 64
157 152 59
163 157 64
158 153 55
146 141 57
155 149 65
159 153 65
147 141 52
151 146 50
155 150 55
159 153 61
154 148 60
155 149 55
163 157 69
154 148 61
154 149 63
151 144 65
155 150 60
156 151 61
152 147 57
157 150 63
156 150 67
160 153 69
154 148 59
157 151 60
159 153 61
155 150 64
154 148 65
156 151 61
154 149 60
156 150 63
152 146 65
158 151 71
150 145 52
143 137 57
146 140 53
157 151 73
153 147 64
159 152 61
151 146 65
154 149 60
146 140 59
161 153 74
147 141 65
155 148 76
147 141 65
156 151 64
148 143 63
147 141 60
147 141 60
180 202 0
179 202 0
179 201 0
179 201 0
180 202 0
180 201 0
179 201 0
178 200 0
179 201 0
178 201 0
179 201 52
182 203 76
182 203 52
184 205 85
184 205 89
184 205 97
181 202 89
183 205 93
187 207 101
185 206 97
186 207 114
186 207 104
188 208 117
186 207 101
185 207 104
185 206 114
187 208 117
185 206 108
184 206 93
185 206 108
184 205 89
183 205 85
183 205 108
182 203 85
184 205 93
180 201 85
183 204 93
183 204 97
181 203 85
184 205 93
180 202 71
185 206 104
181 204 104
181 203 65
181 204 76
182 204 97
181 203 89
178 200 52
182 204 93
180 202 65
180 203 85
181 204 89
182 204 81
181 203 81
179 201 59
181 203 65
183 206 108
177 200 71
179 202 93
181 203 85
179 201 65
177 199 71
176 199 59
180 203 71
180 203 101
178 201 52
180 202 59
182 205 89
181 204 89
180 203 81
181 203 71
178 201 89
181 202 52
179 201 93
178 201 89
174 197 85
178 200 65
179 201 52
178 200 59
180 202 59
174 196 52
175 199 85
181 204 93
178 201 81
179 201 59
176 199 71
180 202 65
178 201 89
178 200 71
178 200 71
178 200 65
178 201 71
177 200 81
175 198 65
178 201 81
176 198 71
173 195 65
176 198 76
178 201 97
180 201 85
175 197 71
176 199 97
178 200 59
177 199 81
171 193 65
180 200 81
176 198 97
181 202 97
175 196 93
177 198 71
181 201 93
180 200 101
176 197 76
174 195 85
175 195 101
179 199 108
169 189 111
165 186 76
173 193 71
169 189 76
164 185 65
156 177 31
151 171 0
164 184 0
160 180 0
164 184 0
160 180 0
161 182 0
166 186 0
169 189 0
165 186 0
161 182 0
168 190 52
170 192 43
173 194 71
176 197 52
180 201 89
175 197 0
172 195 0
176 198 0
175 196 0
173 195 0
173 194 0
176 197 0
175 196 0
170 193 0
174 196 0
172 194 0
170 192 0
166 188 0
169 191 0
170 192 0
174 196 0
172 194 0
175 197 0
169 191 0
169 192 0
168 190 0
174 196 0
134 157 47
61 93 99
62 94 101
63 95 101
64 97 103
63 96 106
62 94 104
62 95 103
62 95 93
65 98 114
63 96 108
62 94 108
63 96 95
62 94 108
63 96 99
64 97 111
63 96 97
64 98 109
65 99 120
65 98 112
65 99 120
64 97 106
64 97 104
65 98 125
64 97 112
64 98 111
65 98 109
62 95 109
63 96 109
64 97 109
64 97 114
66 99 118
66 100 120
63 96 103
63 96 108
61 93 103
65 98 124
65 99 117
62 95 108
64 97 109
65 97 121
63 96 98
63 96 101
64 97 109
64 96 112
64 97 118
65 98 115
63 95 105
62 95 118
63 95 118
65 97 116
63 96 106
64 97 111
64 97 118
65 97 109
65 98 123
64 98 104
60 92 106
63 96 108
60 91 104
61 92 114
63 95 104
62 94 110
61 92 101
62 94 101
62 94 112
60 91 106
61 92 103
60 91 106
58 89 92
62 93 99
59 89 96
61 91 105
60 89 86
59 89 100
56 84 96
60 90 100
59 88 103
55 84 86
55 81 86
55 83 88
124 142 37
165 185 0
161 179 0
164 183 0
163 181 0
168 189 0
166 186 0
161 180 0
171 192 0
170 189 0
169 188 0
169 189 0
169 188 0
167 187 0
167 187 0
167 186 0
169 188 0
163 180 0
167 187 0
169 188 0
167 187 0
168 188 0
173 192 0
153 166 25
117 112 44
89 87 30
108 105 39
88 85 15
82 80 18
85 84 12
92 88 18
85 83 18
91 88 23
105 102 23
94 92 15
104 103 23
94 92 15
101 99 23
98 96 11
97 96 23
111 108 20
100 97 27
108 106 26
116 112 18
103 100 21
127 122 35
116 112 15
112 108 27
115 113 30
120 117 30
117 114 12
115 111 26
127 123 25
130 125 31
120 117 31
120 117 28
131 127 25
127 123 35
141 137 48
130 129 30
136 133 31
140 135 25
135 131 31
133 129 31
135 130 46
134 130 37
143 139 41
130 126 36
144 140 42
146 141 46
141 136 46
144 140 40
144 139 45
146 139 46
147 143 43
145 141 46
150 145 41
150 145 50
147 142 50
148 143 50
151 146 52
148 144 39
155 148 55
143 138 46
148 143 41
149 143 48
148 141 48
152 146 50
152 146 53
149 144 43
144 139 48
149 145 56
146 141 45
150 145 48
151 146 55
150 144 48
149 143 50
146 141 50
160 154 57
152 145 52
151 146 52
156 151 56
155 151 59
148 143 31
154 150 48
161 154 63
156 150 57
153 146 55
151 145 53
156 150 56
155 149 59
158 152 63
150 144 57
155 150 45
159 154 57
154 147 57
154 149 52
157 150 61
159 154 61
156 151 57
157 151 65
159 152 63
154 147 59
152 147 57
157 152 64
152 147 46
151 145 52
152 146 55
143 139 56
152 146 57
152 146 61
152 147 56
150 144 57
152 145 57
158 152 63
149 144 55
155 150 59
152 147 56
154 147 66
158 152 57
151 145 59
156 151 50
153 147 57
158 151 67
150 145 55
159 152 64
142 136 59
156 149 65
148 142 57
150 144 64
147 143 53
137 131 52
157 151 64
147 141 57
150 144 64
157 151 67
148 143 55
151 145 64
149 145 59
152 146 65
179 200 0
180 202 0
180 202 0
178 200 0
180 201 0
180 202 0
179 201 0
179 200 0
180 202 0
180 202 0
179 201 0
178 200 0
183 205 76
184 205 76
185 206 93
185 206 108
187 207 101
185 206 108
182 204 81
188 208 117
188 208 104
191 211 133
189 209 125
190 210 128
183 204 93
187 207 114
185 205 104
180 201 81
182 204 81
182 204 85
185 206 101
180 202 71
183 205 104
182 204 76
182 203 81
180 202 59
182 203 65
182 204 65
182 204 85
180 201 85
181 203 71
180 202 76
182 204 89
178 201 85
182 204 85
179 202 97
181 203 71
183 205 89
182 204 81
181 203 85
181 203 65
182 203 97
182 204 85
182 203 52
182 204 85
181 203 71
180 203 85
180 202 81
180 201 31
180 202 65
181 204 97
181 203 65
180 202 43
180 203 81
179 202 81
183 205 101
177 200 76
177 200 97
180 203 97
180 201 76
181 203 52
177 199 65
179 202 89
177 200 71
179 201 76
181 203 71
176 199 71
179 200 65
177 200 85
179 201 71
177 200 59
178 199 81
179 201 52
179 200 59
178 200 65
178 199 81
177 199 65
179 201 71
178 200 85
178 201 89
180 202 89
178 200 71
182 203 89
174 196 81
176 198 71
177 199 81
176 197 59
178 201 104
174 196 65
172 193 59
175 197 97
175 197 76
178 200 93
176 198 81
178 200 71
178 199 85
176 196 85
181 202 97
177 198 81
174 195 85
173 193 93
177 198 89
176 197 89
175 195 89
178 196 123
181 200 104
169 189 59
171 191 81
166 186 65
163 183 89
160 180 31
158 178 0
159 179 0
159 180 0
154 174 0
163 184 0
168 188 0
150 172 0
164 185 0
158 180 0
171 192 0
169 190 0
169 190 52
168 189 0
181 201 89
179 199 93
174 196 0
175 197 0
174 196 0
172 195 0
174 196 0
174 197 0
170 192 0
174 196 0
173 195 0
172 194 0
176 198 0
163 185 0
175 196 0
167 189 0
171 192 0
172 195 0
172 194 0
172 194 0
167 189 0
167 189 0
168 190 0
167 189 0
169 191 0
176 197 0
112 135 76
60 92 89
60 91 93
64 97 97
62 95 101
64 96 109
61 93 91
64 98 109
63 95 114
63 96 108
64 98 112
64 98 120
64 98 112
63 96 114
65 98 123
65 98 109
63 96 115
64 98 114
64 97 111
65 98 120
63 96 106
65 98 112
63 96 109
64 98 111
65 98 118
62 95 104
62 95 115
64 97 115
64 96 101
64 97 108
64 97 111
63 96 103
65 99 120
66 99 120
63 95 104
64 97 115
65 98 115
64 97 124
65 99 115
63 95 117
64 97 117
63 96 123
64 97 118
62 94 104
62 94 108
63 95 111
63 96 115
63 95 108
63 95 103
65 97 114
63 95 114
64 96 109
65 98 121
62 95 106
64 97 109
60 92 101
63 95 123
62 94 108
64 97 115
66 99 118
62 94 93
62 93 95
63 96 110
63 95 114
60 90 92
62 94 111
64 97 105
59 89 99
58 87 97
63 95 111
60 91 101
62 92 107
58 87 95
55 83 81
58 88 89
57 84 82
59 88 101
57 85 91
54 79 80
116 136 71
158 178 0
159 179 0
166 185 0
166 184 0
161 181 0
162 182 0
157 175 0
160 180 0
167 186 0
165 184 0
165 185 0
161 180 0
160 178 0
174 192 0
168 187 0
161 179 0
169 188 0
167 185 0
170 188 0
163 181 0
171 190 0
168 186 0
163 182 0
167 187 0
145 155 20
105 99 35
87 84 31
107 101 39
96 92 25
101 98 27
85 85 18
86 85 12
93 90 18
95 94 18
99 96 11
107 104 15
98 95 5
104 100 15
102 100 20
116 112 15
109 105 21
106 102 18
96 94 21
107 103 23
117 114 31
117 114 25
125 120 18
123 118 23
109 105 32
119 117 21
113 110 25
114 111 25
125 122 34
121 116 34
129 125 31
128 124 23
131 126 30
129 124 26
136 130 49
131 126 35
130 127 25
143 138 34
136 130 46
137 133 28
130 127 28
141 137 49
139 135 37
141 137 35
140 135 45
139 136 30
145 141 39
141 137 45
141 138 36
136 132 43
142 137 52
143 139 46
145 139 44
146 140 45
141 136 36
140 135 41
146 141 45
141 136 46
154 149 46
148 143 43
148 142 50
147 142 48
152 145 43
147 143 45
148 143 45
155 150 55
148 144 45
150 143 43
156 150 50
147 142 43
153 147 55
149 143 48
150 144 48
156 152 52
148 142 55
156 150 60
160 154 57
156 149 55
150 144 46
151 145 46
145 141 45
158 152 63
150 145 48
152 147 56
151 145 46
150 144 52
148 144 48
152 146 50
151 146 48
154 148 63
151 145 46
157 151 67
161 154 61
155 148 53
153 147 60
154 148 52
155 150 57
157 150 64
153 147 60
154 149 57
151 145 57
155 148 61
152 147 56
152 146 57
151 145 50
159 154 64
157 150 55
155 149 59
152 146 56
154 148 60
155 148 67
154 149 60
155 147 60
142 137 50
152 146 60
151 146 53
149 143 56
148 144 50
151 146 60
158 150 71
152 146 56
159 153 72
139 133 45
147 143 56
147 142 59
154 148 63
147 141 56
153 147 65
145 139 61
151 145 53
156 151 71
160 153 66
144 139 56
149 143 57
152 146 61
155 147 67
180 201 0
180 202 0
179 201 0
180 202 0
180 202 0
178 200 0
180 202 0
179 201 0
178 200 0
180 201 0
179 202 0
180 202 0
177 199 0
180 202 43
182 204 65
184 205 81
182 203 85
185 205 93
187 207 108
182 204 81
183 204 76
186 207 114
187 208 120
186 206 101
189 208 114
189 209 125
184 205 104
185 205 89
184 205 101
185 206 93
184 206 101
183 204 81
183 205 93
186 207 111
182 204 71
184 205 97
180 202 65
185 206 117
179 201 85
182 204 81
182 203 76
186 208 123
182 204 81
181 203 71
182 204 104
182 204 85
180 202 76
181 202 71
182 204 71
182 203 65
182 204 93
182 204 93
181 203 81
180 202 76
180 202 93
181 203 65
181 203 81
180 203 89
180 202 81
182 203 65
181 203 81
179 201 59
179 202 81
178 201 76
180 202 76
179 201 59
181 202 81
179 202 85
179 201 81
181 203 52
178 201 76
179 202 65
178 200 81
178 200 76
179 201 52
177 199 93
178 200 71
178 200 65
180 203 85
174 198 71
179 201 97
179 201 85
180 202 76
181 204 89
176 199 85
177 198 52
177 199 89
175 197 71
176 198 52
181 203 89
181 202 81
173 195 59
180 202 89
178 199 71
177 200 89
177 199 85
176 198 81
179 200 76
173 194 76
178 199 76
181 202 97
172 193 65
176 197 93
179 200 65
175 196 89
175 196 65
172 192 76
175 195 104
182 203 93
176 196 97
177 197 97
177 197 104
174 194 101
179 198 123
178 197 108
171 193 93
177 197 89
167 188 65
161 181 43
161 181 0
159 179 0
164 184 0
154 174 0
163 184 0
159 179 0
156 175 0
164 184 0
166 187 0
165 186 0
164 186 0
161 182 0
176 197 76
170 191 43
179 199 85
179 200 71
177 199 0
176 197 0
172 193 0
177 198 0
170 192 0
173 195 0
174 197 0
170 192 0
172 193 0
171 192 0
169 190 0
170 192 0
176 198 0
173 194 0
176 198 0
171 193 0
169 191 0
166 186 0
168 190 0
165 188 0
169 191 0
165 187 0
167 188 0
164 185 0
166 187 0
161 182 0
109 133 87
59 91 85
62 94 91
62 95 112
64 97 108
61 93 97
63 96 103
62 95 108
63 96 104
63 95 109
63 96 109
62 94 99
60 93 83
63 96 112
62 95 101
61 94 97
65 98 115
65 98 109
62 95 108
66 100 118
64 97 109
61 93 103
64 98 117
64 97 115
62 94 97
61 93 95
65 98 112
64 97 108
62 94 103
65 99 118
63 96 108
63 95 118
65 98 115
63 96 108
62 94 99
64 97 115
65 98 120
64 97 106
64 97 112
61 94 97
63 95 111
63 97 109
61 93 104
63 95 118
62 94 106
64 97 112
62 93 111
62 94 98
64 97 122
63 95 103
62 94 104
62 94 113
63 96 116
65 98 111
62 95 110
61 91 105
61 92 111
60 90 95
62 94 106
61 93 106
62 92 108
61 93 101
64 97 111
61 93 106
63 94 108
60 90 95
62 94 113
61 91 96
58 87 93
61 92 105
58 87 85
59 88 92
61 91 102
54 80 79
57 85 94
56 84 90
55 83 85
91 109 57
163 181 0
153 172 0
167 187 0
149 167 0
163 182 0
152 173 0
165 183 0
157 173 0
155 175 0
161 179 0
167 186 0
162 179 0
162 179 0
164 181 0
165 181 0
157 173 0
154 171 0
167 184 0
171 190 0
156 173 0
163 180 0
163 180 0
163 181 0
160 177 0
166 185 0
168 186 0
145 152 46
92 88 25
99 95 28
99 94 20
103 99 20
86 83 15
101 96 18
85 83 5
98 94 0
105 98 11
99 98 25
90 88 12
102 98 12
99 97 11
108 105 29
100 97 0
111 109 0
102 100 21
112 109 20
115 112 15
115 112 23
110 107 25
111 107 21
117 114 25
114 111 20
124 119 34
117 115 18
115 112 18
126 123 25
118 112 36
125 120 25
128 124 23
119 116 28
136 131 37
125 121 30
123 120 39
123 120 20
128 124 31
131 128 30
133 130 25
139 134 25
144 138 46
134 130 39
140 135 35
143 138 47
141 137 36
138 135 26
141 136 41
134 129 43
143 138 37
140 136 34
147 142 39
150 144 55
150 143 52
145 140 50
146 140 39
149 143 52
148 144 34
143 137 44
143 139 36
150 144 36
147 142 46
152 146 48
154 148 50
144 140 48
138 133 41
150 143 53
152 146 53
151 147 48
149 144 43
146 142 43
154 147 48
157 151 55
160 153 61
144 138 39
151 144 52
145 140 50
150 146 48
152 146 53
150 144 53
152 145 48
154 148 50
152 148 48
153 148 53
149 144 52
153 147 59
153 147 55
152 147 53
155 150 52
154 149 52
153 147 60
154 149 53
153 147 50
156 149 59
152 146 55
152 147 57
149 144 57
158 153 55
157 151 59
154 148 53
160 153 61
150 145 56
144 138 55
151 146 57
155 150 50
148 142 52
152 147 64
146 140 56
159 153 60
154 147 65
153 148 55
147 141 57
156 150 70
154 148 57
150 144 56
150 144 61
150 145 64
152 147 64
152 146 50
146 142 56
157 151 64
144 138 57
153 148 55
150 143 66
149 145 55
149 144 63
153 147 70
148 143 59
153 148 63
149 145 50
157 151 66
153 147 60
155 147 71
145 140 57
144 139 59
181 202 0
180 202 0
176 199 0
179 202 0
180 202 0
177 200 0
180 202 0
179 201 0
179 201 0
179 201 0
181 203 0
180 202 0
181 202 0
178 200 0
179 201 0
184 204 85
181 203 81
185 205 89
182 204 85
180 202 71
184 206 101
181 203 81
181 203 76
183 205 93
189 209 123
192 211 131
183 204 89
188 208 114
185 206 93
184 205 81
184 205 93
180 202 85
184 205 101
184 205 93
184 206 101
183 204 81
180 202 85
178 201 71
182 204 104
183 205 93
180 202 71
181 202 76
183 205 81
179 201 76
179 201 89
184 205 85
180 202 85
179 202 71
182 203 81
183 204 85
178 200 52
181 202 65
180 202 76
182 204 89
183 205 97
178 200 76
180 202 71
181 203 76
181 203 81
182 204 85
180 202 81
180 202 93
179 201 71
183 203 59
182 203 81
178 200 65
177 199 93
181 203 97
180 202 81
182 204 85
178 200 76
177 199 76
178 200 97
181 203 65
177 199 52
179 201 76
178 200 65
179 200 71
178 200 85
180 202 31
178 200 71
179 200 31
176 198 52
176 198 97
179 201 81
180 201 71
178 200 65
179 200 52
182 203 71
178 200 93
179 201 101
177 198 85
178 199 89
177 198 89
182 205 111
180 201 97
170 191 81
177 198 89
176 197 85
178 199 76
179 200 89
172 193 81
179 199 81
179 200 71
172 193 76
178 197 85
174 194 65
175 195 71
173 193 89
174 194 89
178 198 104
176 196 89
182 202 108
174 195 65
165 186 76
174 195 93
171 192 76
158 178 31
159 178 0
156 177 0
159 179 0
158 178 0
158 177 0
163 183 0
165 186 0
156 176 31
166 187 0
156 178 0
164 186 0
173 194 31
174 195 0
172 193 52
173 194 59
182 202 111
174 196 0
174 196 0
174 196 0
169 191 0
173 195 0
173 194 0
173 195 0
173 194 0
175 196 0
171 193 0
169 191 0
175 197 0
171 192 0
169 192 0
174 195 0
170 191 0
170 192 0
173 195 0
163 186 0
166 188 0
169 190 0
171 193 0
164 186 0
168 189 0
168 189 0
164 186 0
164 185 0
165 187 0
89 115 81
64 98 109
60 92 91
61 93 103
62 94 103
63 96 101
64 97 104
63 96 99
60 92 99
62 95 99
64 97 106
61 93 103
61 94 91
60 91 103
63 95 101
62 95 109
61 93 91
62 94 106
62 95 101
64 97 109
63 95 114
61 94 106
62 95 97
62 94 104
63 96 115
65 98 125
64 97 115
64 97 120
63 95 104
63 97 99
64 97 104
62 95 104
62 94 106
62 94 93
64 97 118
62 95 101
63 96 103
63 95 108
63 96 106
60 92 91
64 96 105
62 94 97
63 95 101
61 94 93
63 96 112
63 96 106
59 90 95
62 94 106
63 95 119
62 93 112
62 94 112
63 95 115
62 94 98
62 95 112
60 92 99
62 93 101
63 95 119
59 90 101
61 93 104
63 95 103
63 95 101
62 94 111
57 86 90
61 92 111
64 96 114
61 91 100
59 89 101
61 91 103
59 89 92
59 89 94
57 84 86
57 86 88
55 82 90
54 81 80
53 78 66
83 104 57
153 170 23
154 173 0
153 170 0
155 173 0
157 176 0
154 170 0
162 178 0
161 180 0
155 173 0
163 180 0
158 178 0
161 177 0
158 174 0
155 174 0
161 179 0
163 181 0
162 180 0
165 183 0
160 176 0
155 173 0
163 180 0
165 182 0
158 178 0
166 184 0
160 176 0
160 179 0
163 179 0
165 183 0
136 144 20
85 83 26
95 91 28
94 89 20
96 91 0
84 79 0
89 86 20
93 92 3
88 85 15
95 92 15
99 96 0
100 96 20
105 102 1
95 93 16
102 99 15
107 104 11
110 107 15
114 109 20
105 100 15
119 115 25
107 105 18
111 107 18
114 110 30
115 113 15
125 121 21
126 122 20
118 115 23
122 117 31
122 118 28
123 119 25
126 122 30
131 126 20
122 119 25
125 121 28
131 127 36
121 118 37
134 129 36
137 132 28
130 126 25
140 136 31
147 141 43
139 134 35
137 132 20
139 135 36
136 131 34
141 135 45
139 135 31
136 130 41
146 139 39
152 146 45
139 135 46
140 135 42
142 137 40
143 138 36
144 139 42
145 141 36
139 136 39
154 148 48
145 140 31
154 148 41
147 141 43
143 138 36
148 142 43
147 143 41
156 149 50
142 136 43
148 144 41
157 150 52
149 144 43
149 144 43
150 145 43
149 142 52
152 147 43
150 144 52
153 148 45
150 144 50
148 142 41
149 145 45
157 150 52
153 147 46
159 152 53
148 141 50
143 138 50
153 149 48
140 135 39
151 145 55
149 142 50
160 153 63
153 147 57
151 146 52
159 152 52
157 150 64
153 147 53
156 151 60
149 144 55
153 147 60
151 146 46
150 146 50
152 147 56
156 152 50
154 147 59
154 147 60
152 147 56
153 147 63
155 149 60
150 145 60
152 147 56
150 144 57
152 147 53
149 143 56
142 138 46
154 148 70
148 143 57
147 142 46
147 141 53
151 145 65
151 146 56
154 149 64
150 145 61
151 144 52
153 148 59
151 146 61
152 146 59
154 148 65
151 146 57
146 141 52
145 140 56
149 142 61
149 145 57
145 138 59
148 142 57
147 141 56
147 141 59
145 140 55
178 200 0
178 201 0
178 200 0
178 201 0
178 201 0
178 200 0
179 201 0
179 201 0
181 203 0
179 201 0
179 201 0
179 201 0
178 200 0
182 203 0
178 200 0
178 200 0
182 204 65
184 205 85
181 203 81
186 207 104
185 206 97
185 205 93
184 206 93
182 203 81
182 204 93
186 207 104
187 207 104
185 206 101
186 207 104
186 207 114
185 206 111
185 206 93
186 207 128
183 205 81
184 205 104
182 203 97
184 205 89
182 204 89
186 207 111
182 204 93
184 205 97
180 202 65
181 202 65
181 203 81
179 200 59
182 204 89
181 203 85
183 205 104
180 201 85
183 204 71
179 200 76
180 202 81
180 202 52
181 204 81
179 202 85
183 204 81
179 201 71
179 201 76
180 202 97
178 200 71
180 202 65
179 202 71
176 198 52
181 202 97
182 204 89
179 201 71
179 201 59
181 204 111
182 203 65
179 202 89
181 202 89
181 203 89
179 200 85
178 200 43
179 200 97
181 203 93
177 199 76
181 202 43
178 199 81
178 200 89
175 196 59
181 203 71
177 199 85
181 203 93
180 201 81
179 199 43
179 200 81
178 199 81
180 201 85
182 204 85
178 198 71
180 201 76
175 198 93
179 200 89
178 200 104
179 200 89
174 194 65
176 196 76
177 198 71
177 197 59
182 202 108
175 196 93
179 200 81
176 196 85
174 194 85
178 197 101
176 195 89
172 192 89
176 196 97
183 203 114
179 198 123
172 192 85
177 198 89
174 194 76
179 198 93
166 186 59
159 178 0
161 181 0
158 178 0
161 182 0
157 177 0
163 182 0
161 182 0
155 176 0
158 178 0
163 183 0
165 186 0
165 186 0
166 187 0
169 190 59
174 194 59
178 199 59
177 197 97
171 193 0
174 196 0
176 197 0
170 192 0
168 190 0
172 193 0
174 196 0
170 192 0
169 191 0
171 192 0
170 192 0
172 193 0
166 188 0
172 194 0
172 194 0
170 192 0
166 188 0
171 192 0
166 188 0
166 187 0
163 185 0
164 186 0
162 183 0
165 186 0
158 179 0
166 188 0
163 184 0
159 180 0
158 180 0
157 178 43
92 117 81
59 91 95
60 92 99
60 92 93
64 97 111
63 96 97
59 90 89
63 96 106
64 97 103
63 96 115
61 93 83
64 97 103
62 95 93
62 95 97
65 99 115
63 95 97
62 94 103
63 96 109
63 96 108
60 92 93
62 94 89
61 93 99
63 96 104
63 96 109
60 92 97
62 95 115
62 95 104
64 97 106
63 96 106
63 96 104
61 94 99
63 95 114
63 95 108
62 95 103
65 98 114
64 96 115
64 96 109
64 97 120
63 96 104
63 95 108
62 95 108
61 92 104
62 95 109
63 95 111
62 94 106
61 93 111
63 95 112
62 94 97
63 95 108
60 91 100
63 95 106
62 94 99
62 93 120
62 94 95
62 94 111
62 93 99
61 92 99
61 93 101
59 89 91
60 91 99
59 90 87
59 88 99
60 90 104
60 90 101
60 90 101
60 91 92
59 87 109
59 89 88
56 83 88
56 85 81
57 86 80
57 85 93
53 79 75
86 105 60
149 167 0
152 171 0
142 161 0
156 174 0
156 174 0
159 177 0
156 175 0
150 167 0
151 168 0
149 165 0
154 172 0
154 173 0
155 172 0
156 171 0
163 181 0
152 168 0
162 178 0
155 172 0
157 174 0
159 179 0
158 174 0
160 176 0
164 180 0
164 181 0
161 177 0
161 178 0
160 176 0
166 184 0
160 175 0
159 178 0
140 150 28
91 85 31
96 94 30
101 97 31
94 90 11
86 83 18
92 88 15
98 97 11
83 79 0
93 91 11
95 92 0
97 95 0
107 104 21
105 100 5
96 93 12
113 108 26
97 94 0
115 111 23
111 107 11
105 101 21
122 118 28
114 111 20
117 113 25
118 115 25
122 118 23
116 113 18
120 117 23
111 109 20
114 111 18
132 128 25
125 122 20
128 124 23
130 127 35
131 126 25
120 117 28
130 126 0
141 135 31
132 128 25
136 131 27
137 131 32
129 125 20
136 131 25
137 132 34
134 131 35
134 130 28
143 137 36
137 131 39
138 134 36
134 128 34
131 126 40
143 139 36
139 135 34
145 140 35
142 138 34
141 138 37
143 138 40
148 143 42
135 129 43
153 148 41
146 140 44
150 145 48
131 127 39
143 138 36
153 148 43
148 142 43
153 146 56
148 143 46
143 139 36
146 141 48
144 139 50
147 142 36
151 145 52
150 143 45
147 142 41
149 144 52
151 144 52
139 135 36
149 144 46
143 138 52
147 142 36
149 142 56
155 148 53
148 142 48
154 148 57
149 145 43
151 146 46
149 143 56
151 145 53
156 148 53
152 147 56
156 149 50
152 145 56
157 150 59
154 148 56
156 151 50
154 148 61
147 139 55
157 151 55
143 137 50
151 144 52
154 147 64
149 142 52
163 157 60
151 146 55
150 144 57
155 149 63
154 149 57
152 146 56
152 146 57
154 149 59
147 140 59
152 147 55
147 142 53
155 149 63
150 144 56
150 145 61
152 145 59
150 145 53
159 152 61
150 145 60
146 142 57
143 138 57
151 146 64
145 139 52
146 140 60
149 143 67
149 143 55
147 142 60
148 142 61
142 136 56
146 141 59
145 139 60
146 141 53
180 202 0
179 201 0
178 200 0
178 200 0
181 203 0
179 201 0
180 201 0
180 202 0
178 200 0
179 200 0
178 199 0
180 202 0
176 199 0
179 201 0
180 201 0
177 199 0
179 201 0
177 199 0
181 202 76
181 203 65
183 204 81
182 203 93
185 206 93
185 205 81
184 205 104
182 203 81
181 203 81
186 206 111
186 206 111
189 209 123
184 205 104
187 207 111
184 205 101
186 206 97
187 208 120
182 203 85
184 205 93
182 203 97
181 203 85
186 207 111
182 203 85
180 202 76
185 206 108
182 203 71
183 204 76
181 203 93
182 203 93
182 204 93
179 201 81
180 202 71
182 203 85
181 202 81
181 202 76
180 202 65
180 203 76
179 200 93
180 202 65
181 202 76
183 204 97
181 203 93
180 201 81
183 205 104
178 200 65
179 200 76
179 201 71
180 202 81
179 201 89
184 205 89
180 201 85
180 203 114
180 203 97
181 203 81
180 201 65
179 201 81
179 201 76
175 197 85
181 202 89
177 198 65
181 202 65
181 202 85
178 199 52
183 204 85
181 202 93
179 200 85
176 197 81
180 201 65
179 200 65
174 195 89
181 202 81
181 202 81
180 201 85
177 198 81
178 198 71
178 199 89
180 200 85
180 199 65
185 206 101
175 196 81
176 197 85
179 200 81
181 201 101
177 197 65
179 199 85
175 195 85
181 200 114
181 200 114
180 199 104
179 198 117
176 196 85
171 191 81
175 195 65
175 194 93
162 182 101
170 190 71
154 174 31
158 179 0
157 178 0
167 187 0
162 182 0
158 178 0
157 177 0
160 180 0
161 180 0
162 182 0
163 183 0
167 188 0
164 186 0
169 189 71
170 190 65
173 194 71
176 197 52
179 200 85
172 193 0
175 195 0
167 189 0
170 192 0
172 194 0
173 194 0
171 193 0
170 191 0
166 188 0
173 195 0
173 194 0
166 188 0
161 182 0
169 191 0
163 185 0
166 188 0
166 188 0
166 188 0
168 190 0
169 191 0
164 185 0
166 187 0
165 187 0
165 187 0
156 177 0
164 185 0
163 184 0
163 184 0
161 182 0
158 179 0
165 186 0
153 174 37
95 119 73
60 92 91
61 92 106
59 91 91
61 93 91
62 95 89
63 96 97
62 95 99
60 92 104
63 95 99
61 94 95
63 96 99
63 96 108
62 94 103
60 91 101
60 92 95
66 99 115
64 97 108
64 97 104
64 96 115
62 95 108
63 96 108
60 91 93
60 91 108
64 97 104
62 94 109
62 95 101
61 93 97
62 94 106
64 96 108
62 94 106
62 95 108
63 95 111
64 97 101
58 89 97
61 93 106
64 96 118
62 94 109
61 92 94
61 93 114
62 94 108
62 94 106
63 96 106
64 97 115
59 90 78
64 96 105
61 93 101
61 93 99
61 92 98
58 88 94
62 94 116
62 94 108
64 95 118
62 93 99
61 93 105
64 96 114
62 94 106
59 89 95
60 91 103
62 92 113
57 87 94
56 85 81
59 88 92
57 86 84
59 89 98
57 85 79
60 90 109
57 85 76
54 81 73
53 80 79
57 85 84
84 103 57
142 159 0
151 170 0
152 170 0
149 168 0
152 169 0
154 172 0
145 164 0
152 169 0
161 178 0
156 174 0
147 164 0
146 162 0
149 164 0
159 176 0
160 178 0
158 174 0
156 172 0
160 175 0
156 171 0
161 176 0
155 171 0
150 163 0
156 173 0
156 172 0
159 175 0
163 180 0
155 171 0
160 175 0
161 176 0
162 180 0
158 174 0
161 177 0
139 150 20
92 88 28
105 100 28
95 90 25
93 88 25
95 92 15
98 93 18
110 104 20
96 90 15
108 103 0
100 97 12
101 98 0
107 104 15
113 106 15
96 94 23
111 108 15
111 107 15
108 104 18
115 110 20
119 114 0
121 118 15
123 119 23
107 105 18
101 99 21
119 115 15
122 118 26
118 115 28
119 116 23
125 123 15
125 121 15
126 121 28
122 118 20
121 117 20
130 127 28
128 123 18
129 125 30
132 128 20
135 130 15
131 125 34
137 131 45
129 124 32
134 129 31
130 127 25
136 131 34
136 132 28
138 133 25
136 133 31
131 127 31
144 139 28
142 137 30
140 136 34
141 136 28
142 137 28
149 144 34
130 126 32
147 142 41
138 134 36
146 140 40
141 136 45
142 138 25
153 146 43
151 146 43
138 134 36
149 144 43
146 140 41
139 135 36
150 144 45
152 145 48
148 141 45
148 143 36
147 143 36
145 140 50
154 148 52
148 142 50
152 147 45
147 141 45
151 145 43
145 140 39
145 140 43
143 137 46
150 143 46
150 145 43
145 141 50
152 147 48
154 148 57
151 146 46
145 140 53
152 146 55
149 144 48
152 146 45
152 146 50
155 151 50
148 141 50
157 151 52
154 147 55
150 145 43
140 135 50
156 150 64
153 147 55
154 149 57
153 147 57
147 142 55
152 146 57
151 146 57
154 148 52
155 148 61
152 147 53
147 140 56
153 147 56
153 148 59
153 147 57
153 147 56
136 131 45
144 139 41
152 146 61
149 144 50
148 142 67
150 143 61
153 146 56
151 145 63
155 149 67
140 135 41
151 145 59
151 144 55
152 145 64
146 141 60
150 144 71
145 139 53
143 139 55
142 137 60
144 139 65
148 142 57
178 200 0
180 202 0
178 201 0
177 200 0
179 201 0
179 201 0
180 202 0
178 200 0
178 201 0
179 201 0
180 202 0
178 201 0
177 199 0
180 202 0
177 199 0
179 200 0
177 200 0
180 201 0
178 200 0
181 202 43
182 203 81
186 207 97
181 203 76
185 206 111
187 207 93
181 202 93
183 205 81
182 204 81
180 202 71
185 206 111
184 206 108
188 208 120
188 209 117
188 208 114
187 208 120
184 204 97
188 208 125
186 206 104
186 207 117
183 204 97
184 205 101
184 205 93
182 203 93
178 200 59
183 204 101
183 204 81
178 199 76
183 204 104
184 205 101
183 204 93
179 202 81
181 203 101
181 202 76
178 200 81
181 203 104
177 199 65
183 204 104
180 201 85
180 201 71
180 202 76
180 202 65
182 204 93
181 202 71
177 199 76
178 200 59
181 202 89
178 199 81
182 203 85
180 201 76
179 200 81
175 197 81
180 202 89
180 201 85
181 202 104
180 202 81
179 201 81
180 202 76
181 202 65
179 201 93
181 203 97
181 203 93
180 201 81
181 202 71
182 203 93
177 199 71
180 201 81
180 201 65
178 199 93
177 198 76
181 201 81
179 200 65
181 201 93
180 200 93
179 199 76
180 200 93
183 203 120
176 197 111
178 199 97
177 198 81
177 197 89
181 201 111
185 205 111
174 194 93
178 197 114
183 202 111
177 196 114
177 196 108
174 193 93
167 187 76
172 192 93
177 197 85
168 188 85
154 174 31
163 183 0
164 184 0
162 182 0
161 182 0
160 179 0
162 182 0
164 183 0
166 186 0
160 180 0
166 186 0
159 179 0
170 191 0
169 189 31
167 187 59
167 187 71
176 196 81
172 194 71
174 195 89
173 195 0
172 193 0
170 191 0
170 191 0
171 192 0
173 193 0
169 190 0
168 189 0
166 187 0
166 188 0
166 188 0
164 186 0
165 187 0
165 186 0
167 188 0
161 182 0
166 188 0
169 192 0
170 192 0
164 184 0
160 182 0
164 186 0
164 184 0
162 183 0
163 185 0
166 187 0
158 179 0
164 185 0
158 180 0
159 180 0
154 175 0
157 179 0
155 175 0
153 173 23
89 113 71
59 90 83
58 89 87
58 89 87
62 94 93
60 92 93
60 91 97
60 91 108
61 93 97
61 92 101
62 95 109
61 93 91
60 91 95
61 94 83
61 94 95
62 94 108
61 93 97
61 93 103
61 93 99
60 93 89
61 93 99
63 96 111
63 96 104
61 94 104
64 98 109
63 95 108
64 97 112
64 97 111
61 94 101
61 94 99
62 95 91
62 94 106
63 96 108
61 93 106
61 93 93
59 90 85
62 93 101
61 93 112
64 97 108
61 93 95
62 95 99
62 94 104
64 96 118
61 93 103
61 92 108
60 92 95
60 92 92
60 90 99
59 90 106
60 91 101
60 91 101
62 93 101
59 90 95
62 94 93
61 93 96
60 90 96
61 92 93
60 90 90
57 86 94
59 89 99
59 90 93
60 91 91
55 83 72
60 89 95
57 86 83
58 86 92
53 80 79
55 82 73
53 80 76
79 98 52
135 152 0
138 156 0
151 167 0
139 156 0
143 161 0
138 156 0
153 169 0
149 166 0
150 167 0
146 164 0
154 169 0
142 157 0
147 162 0
157 173 0
155 171 0
152 166 0
150 165 0
154 171 0
156 169 0
164 182 0
154 168 0
155 170 0
150 165 0
159 175 0
155 169 0
152 166 0
165 180 0
158 172 0
156 173 0
158 172 0
153 169 0
159 176 0
160 175 0
161 175 0
139 147 28
104 97 34
97 90 15
113 108 25
96 90 28
89 83 20
100 95 15
101 97 12
95 90 0
95 92 18
104 98 11
94 89 0
103 98 0
119 114 18
103 98 15
103 100 11
108 103 15
103 100 0
107 104 18
113 110 0
108 104 0
116 111 18
111 107 25
114 110 11
124 120 20
124 116 15
112 109 15
122 117 28
119 116 15
123 120 15
118 113 25
122 119 15
124 122 20
130 125 20
124 120 15
125 122 30
123 118 28
125 121 26
135 130 31
130 125 34
129 126 20
134 130 31
131 127 25
137 131 20
140 135 39
137 133 20
141 136 36
145 140 36
139 133 31
138 133 31
144 139 34
139 134 34
138 131 31
141 135 28
145 140 36
138 133 39
148 143 46
138 133 41
143 138 34
145 140 45
143 138 34
146 141 36
142 136 36
144 140 41
150 145 46
148 143 41
148 142 46
153 147 48
149 142 48
146 141 36
143 138 45
143 138 43
155 148 52
152 147 45
150 145 43
144 140 43
151 146 46
147 142 43
153 148 45
156 149 60
148 143 52
141 136 41
149 143 43
152 147 46
149 144 48
153 147 50
149 144 46
155 148 52
152 146 56
137 131 46
148 142 48
155 150 48
155 149 55
149 143 52
142 137 50
151 144 56
154 148 55
147 142 52
148 142 55
146 141 48
144 138 57
148 142 55
139 134 43
150 144 46
150 145 53
145 139 46
141 134 46
148 142 56
150 143 60
145 140 56
145 139 55
141 133 59
148 141 52
153 147 60
147 141 52
152 146 59
152 147 60
153 146 63
137 133 43
148 143 60
151 144 60
142 137 48
142 137 56
143 138 60
147 141 53
151 144 67
147 142 60
152 146 61
145 138 60
147 141 59
144 139 57
180 202 0
179 201 31
179 202 0
181 203 0
179 200 0
179 201 0
177 200 0
178 200 0
177 200 0
179 200 0
180 201 0
177 199 31
180 202 0
179 201 0
180 201 0
180 201 0
176 197 0
181 203 0
177 199 0
177 199 0
179 200 0
182 203 59
181 202 52
185 206 89
184 205 89
184 205 97
180 201 89
186 207 104
182 204 85
182 204 85
185 206 104
186 206 117
188 208 117
191 211 138
184 205 108
184 204 120
183 204 111
186 206 114
185 206 120
181 202 76
183 204 111
182 202 104
183 204 101
181 203 89
184 204 108
182 203 71
181 202 93
184 205 101
183 204 85
181 202 89
182 204 97
180 202 101
182 204 97
180 202 71
177 199 81
181 203 97
182 203 97
182 204 93
180 201 93
185 206 101
178 199 85
181 202 76
183 204 76
183 205 108
180 201 89
177 199 59
177 199 76
182 203 85
178 200 85
180 201 52
180 202 97
180 200 65
180 201 65
179 201 65
182 204 89
179 201 89
180 200 65
182 203 81
182 203 85
179 199 59
176 198 81
179 200 71
183 204 89
180 201 101
180 201 76
179 200 85
180 201 93
184 204 89
181 200 76
182 203 85
176 196 65
180 200 71
182 202 108
181 200 76
174 195 76
179 200 108
178 198 89
183 202 108
176 196 93
184 203 128
181 201 114
183 203 117
182 201 111
182 201 117
170 189 89
166 185 76
173 193 85
177 196 97
172 192 76
172 191 65
168 188 0
163 183 0
164 184 0
151 170 0
166 186 0
166 186 0
164 183 0
169 189 0
161 181 0
163 183 0
162 182 0
166 186 0
164 185 31
163 183 0
165 186 31
169 189 43
164 184 59
169 191 43
176 197 52
176 197 71
175 196 0
173 194 0
172 193 0
175 196 0
174 196 0
168 189 0
161 183 0
171 192 0
167 188 0
170 191 0
166 188 0
163 184 0
170 191 0
168 189 0
168 190 0
166 187 0
155 177 0
165 187 0
165 187 0
168 188 0
162 183 0
168 190 0
160 181 0
159 180 0
156 176 0
156 177 0
160 181 0
152 173 0
158 179 0
154 175 0
153 173 0
155 176 0
153 174 0
160 181 0
151 173 0
153 174 0
95 118 68
58 89 78
62 94 104
60 93 83
59 90 81
59 91 83
62 93 103
62 94 104
60 91 87
62 95 106
62 95 101
62 95 97
59 91 95
59 90 93
59 91 104
61 92 93
62 94 97
62 94 111
60 91 89
62 95 95
61 93 91
63 95 111
62 94 91
62 94 99
62 94 111
60 92 101
61 93 103
63 96 97
63 96 103
62 94 101
64 96 108
58 88 95
66 100 117
63 95 111
63 95 109
63 95 104
64 97 101
62 95 101
61 94 108
59 90 96
59 90 97
61 93 95
62 94 103
57 87 76
59 90 76
60 92 101
60 91 101
62 94 103
60 90 99
62 94 97
59 90 101
59 90 87
58 88 86
58 88 95
59 89 94
62 93 101
60 91 96
60 90 98
58 88 83
56 84 85
57 86 74
57 86 86
54 82 81
56 83 86
57 86 78
55 82 81
52 78 66
99 115 49
144 162 0
143 160 0
142 158 0
138 156 0
148 164 0
129 145 0
143 158 0
148 163 0
146 162 0
141 157 0
149 166 0
141 154 0
147 164 0
150 164 0
141 158 0
151 168 0
150 163 0
150 164 0
143 160 0
140 154 0
150 168 0
151 165 0
154 169 0
150 165 0
156 171 0
158 175 0
145 160 0
155 168 0
163 178 0
151 166 0
154 168 0
151 165 0
155 167 0
150 162 0
160 176 0
155 166 0
143 153 15
94 90 32
103 98 25
105 98 15
95 90 21
91 86 16
103 98 25
104 99 0
103 100 18
97 92 15
90 86 11
107 102 12
105 99 5
101 96 11
100 96 15
108 103 5
116 112 0
110 105 0
101 98 0
118 113 23
106 103 0
117 113 0
118 114 0
102 98 18
119 114 20
121 118 23
120 117 20
124 120 15
129 123 26
125 121 15
123 118 25
122 117 26
120 116 0
125 119 0
125 122 18
140 134 28
127 123 30
134 128 31
130 125 18
127 124 26
132 127 40
128 124 15
130 126 28
143 136 36
142 138 25
134 128 20
127 125 20
139 132 34
136 131 34
137 132 34
137 132 25
134 130 31
135 130 34
136 131 34
143 137 36
145 140 39
134 130 20
144 138 36
144 140 43
136 132 28
148 144 43
143 137 36
140 135 41
144 138 41
139 134 25
144 140 20
144 138 34
150 144 41
145 139 34
147 142 39
142 138 34
138 133 36
147 142 36
147 141 41
152 146 45
149 143 46
149 144 46
142 136 43
147 139 50
147 142 46
150 145 46
146 141 46
145 140 46
149 143 53
147 142 34
148 142 48
150 144 52
155 149 46
148 142 50
152 148 43
146 140 50
143 137 50
148 144 55
148 142 52
146 141 39
147 142 52
140 135 39
149 142 46
147 143 41
152 143 53
140 135 46
144 138 45
156 151 59
153 146 55
146 142 43
142 137 45
151 145 50
146 141 50
142 136 45
142 137 46
149 143 56
150 144 57
151 145 53
142 137 56
155 149 60
147 139 59
146 141 50
140 134 57
143 138 39
146 141 52
155 148 60
151 144 59
154 148 66
144 137 56
151 145 61
147 141 53
144 139 57
143 137 59
140 134 60
146 142 57
180 202 0
177 199 0
176 198 0
179 202 0
177 200 0
179 201 0
180 201 0
178 200 0
179 201 0
179 200 0
178 200 0
181 202 0
179 201 0
180 201 0
179 202 0
181 202 0
178 200 0
179 201 0
177 200 0
180 201 0
177 199 0
179 201 0
179 201 0
181 202 43
179 202 43
183 205 89
182 203 93
181 201 76
184 204 97
181 202 85
182 204 81
182 203 89
183 205 85
183 204 85
183 203 93
190 210 131
187 208 120
185 205 97
184 205 101
184 205 108
182 203 108
186 206 117
182 204 89
182 202 65
183 204 108
180 201 104
183 204 85
182 203 93
181 202 93
180 202 101
182 203 104
183 205 101
183 204 104
182 203 89
180 202 85
184 205 101
182 204 97
182 203 81
181 202 76
180 201 71
182 203 85
181 203 101
179 201 89
181 202 81
180 201 89
177 198 71
182 203 85
176 197 81
177 199 89
178 198 89
178 199 76
179 200 81
185 206 108
182 203 89
183 203 85
183 203 101
180 200 101
182 203 85
182 202 89
183 203 85
183 204 97
185 204 81
179 200 93
182 202 85
178 198 71
181 201 101
178 198 81
174 195 85
179 199 65
180 200 101
180 200 93
177 197 85
177 197 71
178 198 93
180 199 71
179 198 114
179 199 76
179 199 114
179 198 108
181 201 101
175 194 97
175 193 85
175 195 89
173 193 76
176 195 89
178 197 76
173 193 108
174 193 97
166 186 43
161 181 0
164 184 0
158 178 0
158 178 0
169 188 0
169 188 0
157 177 0
169 189 0
167 187 0
163 183 0
169 190 0
164 184 0
163 183 0
169 189 31
162 182 0
171 191 52
171 191 59
166 188 31
170 191 71
174 194 65
171 193 0
174 195 0
174 195 0
170 191 0
169 190 0
166 187 0
170 191 0
167 189 0
169 190 0
168 190 0
168 190 0
167 188 0
166 187 0
166 187 0
165 186 0
159 181 0
163 184 0
166 187 0
158 180 0
158 179 0
163 184 0
159 180 0
170 192 0
165 186 0
156 177 0
161 183 0
159 180 0
153 173 0
157 179 0
166 187 0
154 174 0
154 175 0
157 178 0
146 166 0
149 167 0
145 165 0
144 163 0
150 170 0
115 136 62
59 90 87
58 89 71
56 86 73
61 93 87
59 90 97
60 91 78
61 93 103
62 95 103
59 90 93
63 95 101
60 91 91
62 95 99
62 95 93
58 89 78
62 95 103
61 93 97
62 94 106
59 90 89
62 95 91
63 95 108
63 96 103
61 92 85
61 92 97
61 93 95
63 96 106
61 93 85
62 94 93
61 93 108
62 94 111
63 96 103
61 92 104
62 94 103
59 90 85
61 93 101
58 89 78
62 94 89
60 92 95
60 92 85
60 91 104
58 88 106
61 92 93
61 92 106
60 91 97
61 91 95
60 91 99
60 91 101
61 93 101
60 90 93
59 90 97
63 94 106
59 89 95
61 92 105
61 93 111
59 89 109
60 90 92
58 88 93
58 88 88
54 82 79
57 85 83
56 83 87
57 86 86
55 83 82
53 81 82
57 84 77
102 120 55
127 142 0
142 160 0
136 151 0
136 151 0
136 151 0
135 150 0
141 157 0
130 147 0
139 156 0
142 158 0
157 173 0
146 163 0
139 154 0
137 152 0
148 164 0
142 156 0
144 158 0
140 153 0
154 169 0
144 156 0
145 161 0
141 153 0
141 155 0
141 156 0
156 170 0
139 152 0
143 157 0
145 158 0
147 159 0
143 156 0
149 161 0
158 171 0
145 159 0
150 162 0
151 163 0
146 157 0
160 171 0
156 168 0
133 142 0
94 91 25
110 105 25
92 87 15
100 95 18
99 94 0
105 99 28
86 82 15
92 87 15
108 102 0
100 94 0
110 106 0
110 104 0
104 99 0
107 103 15
117 112 11
93 89 11
115 112 0
110 107 0
116 111 23
116 111 0
117 113 0
117 113 7
124 120 23
113 109 15
119 114 11
116 112 18
115 110 15
136 132 0
122 118 18
121 116 15
131 125 20
116 112 18
129 126 21
129 124 26
129 126 25
119 113 0
139 135 28
123 119 20
131 126 0
140 134 36
137 133 37
145 138 34
141 137 26
141 137 30
138 133 39
134 129 28
142 137 28
142 136 37
136 132 25
143 139 37
138 132 36
147 142 43
143 138 31
135 129 28
137 132 39
134 130 25
147 142 43
142 137 39
143 140 43
137 133 15
141 136 41
145 138 45
145 139 34
144 139 34
150 144 36
142 137 31
140 134 43
146 141 45
149 143 45
143 138 36
144 139 41
141 136 46
144 139 43
141 135 36
147 141 46
143 138 41
153 148 41
143 138 34
153 147 56
153 147 52
149 142 50
151 145 48
147 142 34
151 146 46
152 146 41
148 143 50
146 140 53
140 134 36
144 139 46
150 144 48
146 140 48
146 140 50
141 135 45
147 141 56
152 147 57
151 145 60
144 138 45
143 139 48
155 150 57
145 139 50
152 146 56
147 141 52
146 141 50
145 139 45
151 145 56
146 142 46
140 134 46
146 140 36
139 133 48
152 146 60
148 142 52
150 145 43
145 140 53
148 142 55
157 152 60
143 139 55
141 134 53
153 147 48
145 139 52
153 146 61
143 136 53
143 137 48
153 148 53
143 137 65
153 146 63
144 138 57
144 137 60
146 139 61
177 199 31
177 200 0
179 201 0
177 199 0
178 200 0
178 201 0
180 202 0
180 201 0
179 201 0
178 200 0
178 200 0
177 199 0
177 199 0
179 201 0
178 200 0
177 199 0
178 200 0
176 198 0
178 199 0
179 200 0
179 200 0
179 201 0
176 198 0
175 197 0
176 198 0
178 199 59
181 202 81
181 202 76
186 206 111
185 205 97
183 204 81
183 204 89
182 203 89
179 201 81
184 205 85
182 203 76
184 205 97
184 204 89
185 206 104
186 206 97
186 206 89
183 203 93
187 207 111
185 205 108
181 202 81
185 206 93
181 202 81
187 207 108
181 202 89
182 203 93
182 203 85
179 200 71
184 205 123
181 202 85
183 204 93
180 201 76
183 203 93
183 203 93
185 206 97
182 203 81
182 202 85
182 203 97
183 204 108
180 201 97
182 203 71
178 199 71
183 203 76
179 200 52
182 203 85
179 199 85
183 203 85
183 204 108
185 205 111
180 200 65
183 204 93
180 201 93
179 200 81
182 202 89
181 200 93
182 202 97
179 199 101
179 199 85
180 199 89
181 201 93
177 198 85
178 197 76
180 200 71
181 201 97
182 202 111
177 198 97
183 203 101
176 196 85
181 201 97
178 197 93
185 204 125
182 202 111
179 199 111
182 201 120
178 197 117
172 192 89
179 198 76
179 199 93
173 193 71
174 194 89
177 196 85
169 189 59
171 191 0
165 185 0
160 180 0
154 175 0
169 189 0
157 177 0
154 174 0
160 180 0
160 180 0
164 184 0
163 183 0
157 177 0
162 183 0
162 182 0
162 182 0
159 179 0
166 186 43
167 186 65
167 188 76
172 193 59
175 196 108
174 194 52
168 189 0
170 191 0
168 190 0
166 187 0
171 192 0
168 189 0
166 187 0
166 187 0
166 188 0
162 184 0
169 190 0
169 190 0
162 183 0
167 188 0
166 186 0
162 183 0
161 182 0
163 184 0
158 179 0
162 183 0
157 178 0
160 181 0
166 187 0
160 180 0
161 183 0
147 169 0
157 177 0
154 175 0
159 181 0
158 178 0
158 180 0
143 164 0
162 182 0
147 166 0
147 167 0
143 164 0
145 164 0
144 165 0
152 172 0
136 156 0
121 141 62
64 95 73
60 91 87
59 90 91
61 93 91
62 94 103
60 92 91
58 88 89
59 90 91
57 87 83
61 93 97
59 90 87
58 89 89
61 93 101
60 92 89
60 92 93
62 94 108
58 89 87
59 90 87
61 93 103
60 92 89
60 92 101
61 93 108
61 92 99
59 90 103
63 95 97
61 93 93
62 94 101
59 90 89
60 92 91
60 91 97
62 94 101
59 90 95
57 88 78
61 94 101
61 93 108
57 88 85
62 94 108
62 94 97
63 96 108
60 91 103
62 93 104
61 93 93
60 90 101
60 90 95
62 94 99
62 94 105
58 88 101
57 86 87
55 85 73
60 92 104
58 87 79
59 89 92
58 87 86
54 83 81
57 87 91
54 82 83
59 90 91
57 85 84
56 84 85
52 78 78
54 80 71
71 95 83
106 123 48
120 135 0
147 162 0
136 151 0
147 164 0
140 157 0
131 146 0
140 153 0
145 162 0
143 160 0
141 155 0
133 149 0
143 158 0
133 147 0
148 165 0
137 151 0
140 155 0
144 159 0
142 155 0
144 158 0
138 151 0
134 145 0
144 158 0
148 162 0
132 145 0
139 153 0
144 157 0
143 157 0
146 160 0
144 157 0
146 160 0
144 155 0
152 166 0
149 159 0
146 155 0
148 156 0
151 161 0
146 158 0
150 162 0
142 151 0
141 152 0
146 158 20
110 108 20
88 81 31
107 100 28
92 89 18
96 90 20
104 99 15
97 91 15
88 83 5
94 90 0
104 98 15
91 87 0
106 100 0
89 86 0
112 108 15
98 95 0
107 103 0
110 106 15
94 91 11
111 108 15
116 111 0
110 105 20
105 100 0
117 111 20
106 100 26
112 108 26
116 112 0
117 111 0
119 114 15
133 128 15
114 110 15
124 118 23
118 115 0
125 120 0
122 117 0
128 123 20
136 132 31
126 121 0
135 130 25
133 128 20
142 136 25
128 122 25
135 130 39
130 126 15
137 131 31
137 131 20
138 133 15
136 131 28
131 126 28
137 132 28
132 128 28
143 138 34
144 139 36
138 133 28
142 137 28
142 137 41
143 137 34
144 139 36
141 137 25
150 144 36
139 134 25
138 133 34
147 142 41
142 138 46
142 138 31
147 141 46
135 130 39
142 137 39
140 136 36
147 140 34
147 143 41
155 147 57
142 137 46
136 130 28
144 139 36
149 142 46
146 142 41
148 144 28
154 148 52
141 136 41
142 137 39
141 138 45
150 143 46
140 135 28
144 137 43
138 133 43
161 153 59
151 146 45
142 137 48
150 143 56
149 144 46
142 137 48
142 137 50
146 140 55
148 142 46
153 147 57
146 142 39
148 144 48
149 142 56
147 142 50
147 139 53
147 142 53
152 146 56
140 135 48
151 145 56
150 143 57
144 138 55
150 145 55
155 149 60
148 142 56
149 142 52
150 145 55
142 137 52
140 136 43
148 142 55
147 142 53
136 131 50
147 141 50
145 138 52
141 134 52
143 137 56
135 129 48
139 134 50
143 138 50
147 142 65
146 140 59
148 142 56
126 123 36
179 201 0
179 201 0
178 200 0
180 201 0
177 199 0
180 202 0
181 203 0
177 199 0
178 200 0
180 201 0
177 199 0
180 201 0
179 200 0
181 202 0
178 200 0
180 202 0
180 201 0
178 200 0
179 200 0
178 199 0
179 200 0
177 198 0
180 201 0
180 202 0
181 202 0
176 198 0
179 200 0
181 202 43
178 200 52
183 203 93
186 206 104
183 204 89
180 201 76
184 205 104
183 204 89
183 204 97
181 203 76
181 203 76
183 204 89
180 201 71
183 204 111
184 205 111
191 210 131
185 205 97
188 208 128
187 207 111
185 204 117
182 202 81
187 206 117
184 205 97
184 204 114
180 201 89
183 204 101
182 203 85
181 201 93
184 204 89
185 206 101
180 200 65
183 203 93
178 198 97
181 202 97
181 202 93
183 203 101
180 201 101
181 203 89
180 201 93
180 199 65
181 202 104
180 200 101
183 203 93
180 200 59
184 204 101
182 203 89
181 201 101
181 201 101
174 195 65
178 199 89
181 201 81
183 203 97
183 203 101
182 202 97
180 200 93
182 202 101
181 202 85
177 197 81
180 200 93
176 197 85
173 192 89
180 201 97
177 197 65
182 201 101
176 195 128
179 198 120
178 197 120
178 197 101
179 198 120
175 195 81
179 199 97
174 193 89
173 193 93
174 193 59
169 190 93
170 189 89
172 193 76
167 187 43
162 181 0
166 187 0
158 178 0
162 181 0
163 184 0
164 183 0
168 189 0
153 174 0
163 183 0
166 187 0
170 190 0
165 185 0
167 187 0
168 187 0
170 190 0
159 179 0
169 189 43
165 186 43
167 187 43
177 198 52
178 198 85
170 192 31
175 196 0
172 192 0
168 189 0
165 186 0
163 184 0
172 193 0
172 193 0
158 179 0
166 186 0
162 183 0
167 188 0
165 186 0
159 180 0
159 180 0
160 181 0
166 187 0
165 186 0
159 179 0
159 182 0
156 176 0
153 174 0
157 177 0
158 179 0
154 175 0
150 170 0
151 172 0
157 177 0
164 185 0
155 176 0
154 174 0
152 172 0
153 173 0
150 170 0
143 164 0
149 169 0
149 169 0
149 169 0
147 167 0
142 162 0
143 162 0
138 157 0
139 158 0
113 133 43
77 100 62
57 88 68
55 86 73
55 86 83
58 89 85
58 89 83
58 89 85
60 91 95
59 90 83
60 92 89
59 90 68
59 91 93
61 93 97
60 91 106
58 88 76
60 92 83
62 95 99
62 95 101
59 90 81
58 90 91
63 95 95
63 95 99
60 93 89
62 94 101
61 93 99
60 92 89
59 90 89
61 92 112
61 93 101
61 93 97
60 91 87
61 92 104
60 91 97
62 94 108
57 87 87
59 90 103
61 92 103
58 89 97
56 86 85
60 91 97
56 86 76
59 90 93
59 90 92
56 85 89
60 91 101
61 93 101
58 88 78
60 91 95
57 86 89
56 84 81
53 82 71
57 86 85
57 86 86
58 88 91
57 87 79
55 84 76
55 83 60
53 79 72
52 77 81
61 81 44
116 129 23
119 134 0
121 136 0
132 146 0
122 138 0
141 158 0
135 151 0
124 138 0
140 155 0
128 142 0
125 140 0
139 154 0
120 136 0
138 152 0
134 150 0
139 153 0
139 152 0
143 158 0
134 146 0
149 162 0
151 164 0
145 158 0
125 137 0
141 154 0
143 157 0
128 140 0
138 151 0
139 149 0
144 157 0
126 137 0
132 144 0
145 158 0
146 159 0
145 156 0
139 151 0
137 146 0
140 151 0
146 158 0
147 158 0
149 159 0
148 157 0
147 155 0
147 158 0
145 152 0
117 122 25
92 88 20
96 90 25
90 85 25
100 95 25
87 83 11
89 84 0
95 89 15
109 104 18
98 93 15
100 96 0
94 91 18
100 95 0
105 99 0
104 98 11
106 102 11
118 112 15
111 106 11
109 105 0
106 101 0
115 111 0
119 112 0
115 111 11
114 111 15
116 109 0
116 112 0
128 123 0
122 115 0
125 119 3
118 111 15
120 115 15
115 112 11
124 119 20
136 130 25
122 117 20
133 127 0
122 118 11
128 122 25
131 125 15
131 125 15
146 139 34
127 124 25
127 122 0
142 136 31
131 127 20
139 132 20
139 134 25
134 129 0
140 135 34
134 129 20
143 138 36
142 135 36
133 129 25
141 134 30
148 142 34
137 130 36
138 133 31
142 135 31
140 132 34
143 138 41
142 137 39
144 138 36
137 131 36
142 136 28
141 137 31
142 137 39
145 140 43
136 131 31
145 139 34
145 140 43
149 144 39
138 133 43
145 140 45
146 139 46
142 136 48
144 138 36
144 139 41
145 139 43
144 139 46
146 140 52
145 140 46
147 140 41
150 144 43
149 143 52
150 145 43
145 139 43
146 140 52
147 142 46
145 138 39
145 138 50
142 137 46
149 142 52
143 138 41
144 138 55
138 133 41
151 144 55
148 140 55
144 139 52
142 136 53
148 143 43
150 143 59
144 138 56
141 136 46
143 138 34
139 134 39
147 141 55
145 140 53
138 134 43
147 140 52
140 134 45
153 146 59
144 137 48
151 143 64
144 138 59
144 139 46
149 143 50
139 134 48
146 141 50
145 138 53
139 134 48
138 132 50
138 133 53
144 138 56
145 140 53
146 140 65
133 128 56
180 202 31
176 198 0
178 199 0
178 200 43
179 201 0
178 199 31
179 200 0
178 200 0
181 202 0
178 200 0
182 203 0
181 202 0
179 201 0
178 199 0
180 201 0
179 201 0
177 199 0
178 200 0
178 200 0
177 199 0
178 200 0
174 196 0
177 199 0
177 199 0
178 200 0
179 201 0
179 201 0
178 199 0
178 199 0
179 201 0
176 197 31
181 202 71
184 204 81
181 202 85
183 204 89
184 204 97
181 202 81
183 204 101
184 205 89
181 202 93
179 200 65
185 205 93
183 204 85
186 207 97
188 208 111
181 201 111
184 203 114
191 210 138
190 209 120
188 208 117
183 203 97
185 204 111
186 206 101
183 203 101
178 198 71
180 200 76
180 201 81
186 205 97
184 204 97
180 200 81
185 204 97
184 203 114
181 201 111
186 205 104
184 204 81
183 203 93
184 205 108
178 199 85
181 201 97
180 200 101
185 205 97
182 202 97
181 201 85
182 201 89
186 206 111
184 204 111
182 201 81
180 200 89
174 194 59
181 200 93
180 200 93
178 197 76
180 200 101
183 203 93
178 198 101
180 199 93
183 201 117
181 199 104
176 197 114
180 199 89
175 194 97
179 199 93
178 197 114
176 196 65
168 189 89
173 192 81
175 195 81
181 199 93
174 193 71
177 197 89
169 189 59
168 188 43
164 184 31
164 184 0
172 192 0
169 189 31
168 188 0
169 189 0
169 189 0
163 183 0
167 188 0
161 181 0
159 179 31
164 183 0
162 182 0
162 182 0
166 186 0
165 185 0
168 187 0
169 189 31
168 188 52
172 192 59
172 193 59
174 195 76
172 192 65
165 186 0
171 192 0
166 187 0
166 187 0
169 189 0
165 187 0
169 190 0
168 188 0
167 188 0
161 183 0
165 185 0
157 178 0
160 182 0
158 179 0
164 184 0
156 177 0
166 187 0
164 184 0
157 179 0
165 186 0
160 181 0
153 174 0
160 180 0
148 169 0
161 182 0
157 177 0
157 178 0
159 180 0
159 179 0
159 180 0
155 176 0
153 173 0
154 174 0
146 166 0
156 177 0
144 165 0
157 177 0
151 169 0
137 156 0
145 165 0
138 156 0
148 167 0
136 155 0
140 159 0
141 160 0
126 144 0
94 114 31
64 93 89
59 89 83
55 84 71
60 92 85
58 89 91
60 92 87
60 93 95
61 93 99
59 90 93
57 87 87
56 86 81
58 89 76
59 91 85
60 92 101
59 90 89
55 85 80
60 91 85
61 93 95
60 91 99
59 89 95
59 90 85
61 92 106
61 93 95
59 90 93
57 88 87
60 91 97
57 87 87
62 94 104
59 89 97
61 93 99
58 89 87
60 91 103
59 90 95
61 93 108
60 91 93
56 86 76
59 90 93
62 93 95
58 89 91
59 91 91
61 92 108
60 91 106
57 86 95
57 86 85
56 85 76
60 90 83
59 89 90
59 89 91
54 81 81
58 88 89
54 82 69
55 83 83
53 80 83
54 81 65
54 82 68
55 80 69
93 108 44
121 135 0
119 133 0
114 129 0
121 136 0
130 143 0
127 142 0
128 141 0
120 133 0
126 138 0
130 148 0
123 138 0
132 147 0
138 154 0
131 143 0
136 149 0
134 148 0
138 155 0
144 157 0
141 156 0
131 144 0
131 144 0
143 157 0
130 144 0
137 148 0
134 145 0
142 157 0
137 149 0
142 156 0
143 155 0
127 138 0
133 145 0
140 153 0
140 151 0
141 149 0
140 149 0
128 138 0
142 151 0
141 152 0
132 140 0
149 159 0
135 142 0
145 156 0
139 148 0
134 142 0
131 141 0
139 145 0
129 135 15
97 89 36
89 83 15
97 91 20
87 82 0
99 94 15
101 95 18
102 96 0
105 100 0
100 94 11
106 100 15
103 99 0
115 109 0
107 102 5
106 99 0
115 110 0
110 106 11
116 111 0
113 108 0
109 105 15
110 106 11
123 118 18
116 113 15
117 111 0
109 102 0
117 112 0
121 117 0
126 120 11
121 117 11
119 114 15
124 118 0
125 120 15
128 124 18
127 120 20
126 120 15
128 123 0
129 123 20
132 126 15
121 115 0
138 132 20
129 123 0
123 118 20
133 127 34
133 127 25
130 125 25
133 127 31
137 131 31
139 133 34
141 137 36
133 127 34
123 118 15
137 131 34
143 136 31
140 135 28
135 128 28
134 130 20
144 139 0
137 131 41
144 139 36
137 132 28
138 132 36
148 141 45
141 136 36
140 135 41
152 145 36
138 133 34
145 139 36
143 138 34
150 144 50
143 136 52
147 140 39
146 139 43
147 140 50
139 134 43
147 141 45
138 132 36
140 135 36
148 142 52
149 142 46
145 140 31
152 144 59
144 140 34
136 131 36
139 133 43
144 137 52
138 131 45
149 143 45
143 137 41
140 135 43
148 141 52
142 138 28
143 136 43
145 138 43
148 142 48
147 141 52
151 145 55
148 142 39
147 140 52
146 140 53
139 134 48
141 135 46
152 146 57
140 133 50
145 139 46
142 137 48
143 137 52
136 130 46
137 133 34
146 140 46
139 133 43
139 134 50
140 134 50
149 143 53
147 142 55
148 141 53
152 144 63
144 138 48
144 137 52
150 143 59
144 138 56
149 143 61
146 142 52
150 144 57
143 136 59
139 134 56
181 202 0
178 200 0
179 201 0
180 201 0
179 201 0
179 201 0
177 200 0
181 202 0
180 201 0
179 202 0
180 202 0
181 202 0
180 201 0
181 202 0
176 198 0
179 201 0
181 202 0
182 203 0
182 202 0
177 198 0
177 199 0
177 200 0
179 201 0
178 200 0
177 199 0
179 201 0
178 200 0
178 199 0
178 199 0
177 199 0
178 200 0
178 199 0
178 199 0
178 200 31
182 202 71
181 202 71
182 204 85
183 204 65
184 203 85
180 200 81
184 205 81
183 204 93
183 204 101
182 203 76
182 203 59
183 204 85
180 201 93
177 198 76
183 203 81
185 204 101
186 206 111
186 206 111
187 207 108
185 205 111
185 205 111
186 205 108
185 204 104
183 203 93
181 202 101
188 207 114
182 202 85
182 202 104
185 204 111
184 204 89
184 204 108
184 203 101
187 206 114
181 201 101
180 200 97
189 208 125
183 203 114
185 205 125
178 197 71
182 202 89
185 203 111
181 200 93
181 200 97
186 205 117
183 202 111
181 201 111
183 202 111
179 199 101
180 200 93
180 199 108
181 201 111
181 201 108
179 199 117
177 196 117
181 201 93
175 195 97
174 195 89
174 195 76
175 195 52
174 194 52
181 201 93
175 194 65
176 195 85
167 186 76
164 184 59
166 186 0
162 182 0
159 179 0
165 185 0
163 183 0
166 186 0
160 180 0
168 187 0
163 183 0
164 184 0
159 178 0
171 191 0
162 181 0
165 186 31
171 191 31
164 183 0
158 178 31
169 189 0
167 187 0
167 188 43
169 189 31
162 182 43
172 193 71
175 194 97
171 191 59
165 185 0
167 188 0
169 189 0
172 192 0
162 183 0
167 188 0
170 191 0
165 186 0
164 185 0
164 185 0
162 182 0
168 189 0
167 186 0
164 186 0
158 179 0
165 186 0
166 187 0
156 176 0
160 181 0
151 171 0
158 178 0
156 177 0
160 180 0
158 179 0
156 176 0
155 176 0
161 181 0
156 177 0
151 172 0
153 173 0
161 181 0
155 175 0
153 173 0
140 160 0
146 166 0
149 168 0
146 166 0
149 169 0
150 169 0
141 160 0
132 151 0
128 146 0
139 159 0
134 154 0
134 152 0
131 150 0
125 143 0
132 151 0
124 142 23
92 112 59
56 86 83
54 84 76
59 91 85
57 87 76
61 92 95
59 90 89
58 90 93
57 87 83
58 89 91
62 94 104
58 88 89
60 90 95
58 88 81
58 89 99
60 91 87
60 91 95
56 86 85
59 89 97
59 90 95
59 89 91
57 87 89
56 87 81
59 90 95
63 96 104
58 88 78
58 88 71
57 87 87
59 90 89
61 93 93
58 88 93
58 89 87
59 89 99
58 88 87
57 87 81
61 92 97
61 92 99
56 85 87
56 85 83
60 91 99
58 88 87
58 87 89
59 90 104
59 90 96
54 83 79
56 86 90
56 85 85
55 84 76
56 85 83
56 85 83
50 77 47
48 73 55
52 78 69
79 98 62
92 108 31
99 114 0
115 127 0
116 130 0
109 122 0
122 136 0
123 135 0
124 137 0
125 137 0
120 134 0
110 122 0
128 143 0
132 147 0
128 141 0
138 149 0
124 138 0
121 135 0
123 136 0
134 147 0
119 132 0
128 139 0
133 144 0
132 144 0
126 137 0
146 159 0
117 130 0
126 139 0
140 152 0
145 158 0
140 154 0
131 140 0
131 144 0
139 150 0
135 145 0
140 152 0
141 152 0
135 145 0
145 155 0
137 146 0
135 142 0
138 147 0
139 148 0
147 157 0
132 138 0
142 149 0
138 145 0
139 146 0
143 153 0
135 139 0
131 138 15
102 97 25
82 74 0
109 100 28
94 86 20
91 86 0
93 86 18
103 96 15
95 89 15
97 92 0
100 94 11
108 103 18
107 99 0
107 101 0
104 99 11
107 101 0
108 103 0
102 98 0
101 96 0
113 108 15
112 106 5
117 111 0
124 117 0
118 112 0
114 109 0
108 102 0
120 115 0
125 118 25
122 115 11
117 111 0
121 116 15
126 122 15
136 128 20
131 124 0
129 123 15
132 124 25
121 117 0
127 121 0
128 122 15
125 118 20
125 120 15
123 119 0
133 127 0
122 116 20
132 127 36
124 119 15
136 131 0
134 128 26
130 125 25
135 130 25
131 125 25
136 131 15
136 132 28
143 137 34
132 126 31
136 131 31
142 137 25
133 129 15
136 131 36
142 137 34
130 124 28
134 130 34
142 137 28
147 140 46
139 133 36
140 134 39
139 134 41
135 128 28
142 137 31
145 139 41
141 136 39
141 135 36
146 141 34
142 135 36
141 137 34
140 136 36
140 135 39
136 131 31
144 137 41
137 132 34
140 134 34
146 138 46
141 135 45
142 136 45
149 143 45
143 138 50
142 135 39
143 137 45
145 139 48
149 143 55
148 141 48
151 145 48
151 145 50
134 128 45
147 141 48
152 146 50
136 130 36
132 127 34
142 136 36
145 140 46
136 130 43
141 136 45
148 142 46
144 138 52
151 144 57
141 135 41
141 135 43
138 131 50
143 138 50
142 135 46
146 139 48
137 131 46
139 134 53
145 141 50
145 139 52
142 137 48
137 131 50
147 141 50
137 130 53
137 132 52
142 136 50
142 137 52
136 129 52
137 131 56
179 201 0
180 201 0
179 200 0
179 200 0
178 200 0
178 200 0
178 201 0
176 198 0
178 200 0
181 203 31
177 199 0
177 199 0
178 199 0
176 198 0
179 201 31
178 200 0
182 203 0
176 198 0
176 198 0
177 199 0
179 201 0
177 198 0
180 201 0
177 199 0
180 201 0
179 200 0
179 200 0
180 201 0
180 201 0
176 197 0
178 199 0
179 200 0
179 201 0
178 200 0
177 199 0
177 198 0
179 199 59
179 200 52
184 204 71
184 204 71
186 206 104
181 202 85
180 201 85
181 201 93
185 205 89
184 205 81
180 201 93
185 206 93
182 202 59
181 202 76
183 204 65
183 203 97
182 202 89
185 205 108
180 201 81
183 202 97
180 200 81
189 208 111
183 203 120
188 207 111
187 206 125
187 205 117
184 204 114
191 209 111
185 205 108
186 205 104
189 207 123
187 207 101
187 206 123
186 205 93
187 206 128
182 201 93
182 201 104
182 202 101
183 203 111
181 201 123
180 199 93
179 198 108
182 201 114
184 203 101
182 201 114
177 196 104
182 202 101
172 192 97
173 194 85
178 198 71
176 196 85
176 195 85
179 199 101
174 194 85
173 193 71
176 197 93
174 194 59
173 193 71
171 190 65
173 193 52
166 186 0
167 187 0
167 187 0
167 187 0
167 187 0
164 185 0
167 187 0
163 182 0
165 185 0
170 189 0
159 179 0
166 186 0
168 188 0
164 183 0
156 176 0
165 184 0
162 180 0
168 188 0
162 182 31
167 187 0
165 185 31
168 187 52
171 191 31
175 194 59
173 193 65
173 192 101
164 184 0
168 189 0
165 185 0
169 189 0
165 185 0
168 189 0
169 189 0
169 189 0
168 189 0
160 180 0
165 185 0
162 181 0
161 182 0
165 186 0
161 182 0
164 185 0
169 190 0
164 184 0
161 182 0
158 179 0
156 178 0
162 182 0
158 178 0
161 182 0
161 181 0
154 174 0
153 174 0
144 166 0
156 176 0
155 175 0
155 175 0
149 169 0
149 169 0
152 171 0
152 173 0
144 164 0
159 179 0
141 160 0
144 164 0
143 163 0
145 164 0
124 143 0
137 155 0
136 154 0
133 153 0
144 161 0
129 148 0
131 149 0
123 141 0
132 150 0
126 144 0
117 134 0
106 125 31
64 87 68
54 84 59
54 82 73
56 85 81
59 90 93
57 87 81
58 88 83
59 89 95
58 88 91
59 91 89
57 88 87
60 91 87
60 91 76
59 90 85
60 91 81
58 88 83
59 90 99
59 90 81
57 87 95
58 89 89
58 88 85
57 87 76
57 87 78
57 87 91
55 84 89
57 88 81
58 89 81
57 87 93
58 87 83
54 82 78
57 88 91
56 85 85
57 86 87
53 82 76
59 89 89
57 86 92
56 85 81
56 85 78
58 88 87
55 84 78
59 89 85
57 88 87
54 81 76
58 88 81
53 81 82
55 83 78
55 84 79
51 79 55
52 79 68
63 86 59
86 100 37
112 126 0
113 125 0
111 125 0
112 124 0
110 124 0
131 143 0
114 126 0
107 118 0
116 128 0
121 133 0
116 127 0
123 137 0
120 132 0
124 138 0
128 142 0
140 155 0
124 139 0
122 136 0
124 135 0
133 147 0
124 137 0
128 141 0
133 147 0
135 146 0
131 145 0
129 140 0
133 147 0
127 140 0
130 142 0
140 152 0
137 150 0
136 146 0
141 153 0
133 145 0
138 147 0
129 139 0
139 149 0
136 146 0
134 145 0
135 142 0
143 153 0
142 152 0
141 148 0
137 146 0
142 149 0
135 141 0
142 149 0
134 140 0
130 137 0
140 144 0
127 131 0
135 138 0
109 110 0
99 93 20
97 90 20
91 86 25
91 86 15
99 93 0
99 93 0
97 90 18
103 97 15
101 94 11
108 101 11
105 101 5
93 88 0
97 86 5
111 105 11
105 101 0
116 108 0
95 90 0
127 119 0
114 109 0
113 109 15
115 110 0
110 104 11
123 115 0
117 111 5
121 116 0
120 115 0
125 117 0
121 116 15
117 110 0
125 120 0
123 119 15
123 118 15
120 116 0
126 120 0
134 127 15
123 117 0
132 128 15
133 128 0
129 123 20
127 122 15
123 120 0
138 133 28
133 127 15
120 116 0
136 129 25
133 127 25
136 131 31
131 127 28
135 129 31
137 132 25
140 136 36
133 128 31
142 138 31
134 129 25
129 123 20
137 131 25
142 135 25
139 133 28
138 132 34
133 128 25
139 134 31
135 130 25
134 128 20
140 135 31
134 128 31
144 137 43
137 131 36
131 127 20
130 124 25
141 135 39
142 138 41
138 131 34
141 136 36
140 135 36
129 124 34
137 132 28
139 132 41
145 139 39
135 129 34
148 142 50
145 138 39
149 141 48
145 140 36
142 135 48
147 140 53
144 138 48
148 143 43
137 131 39
144 139 53
149 143 48
143 138 43
141 136 41
147 140 45
147 141 57
151 144 52
137 132 45
149 143 50
151 146 46
137 131 34
136 130 43
131 126 36
140 134 45
150 144 48
145 139 55
151 146 48
142 136 59
135 129 39
141 134 43
141 136 59
148 142 48
142 135 50
138 133 43
134 128 48
140 134 45
146 139 53
146 139 52
143 137 61
141 136 55
133 127 56
140 134 53
146 140 55
177 200 0
178 201 0
179 201 0
180 202 0
179 201 0
180 202 0
179 201 0
179 201 0
179 201 0
179 200 0
181 202 0
180 202 0
178 200 0
179 200 0
180 202 0
182 203 0
177 198 0
177 199 0
178 200 0
178 199 0
179 201 0
180 201 0
179 200 0
179 200 0
180 201 0
180 201 0
182 202 0
180 201 0
180 201 0
177 199 0
178 199 0
178 200 0
178 199 0
179 201 0
178 199 0
179 199 0
179 200 0
179 200 0
179 199 0
172 193 0
178 199 59
181 201 59
182 203 89
181 201 89
181 202 81
180 200 93
181 201 71
180 202 85
179 200 52
185 205 97
181 202 104
183 203 93
186 206 104
180 201 65
181 201 71
183 203 76
183 203 71
184 203 97
182 203 89
181 201 89
182 202 52
181 202 81
186 206 101
180 200 85
183 202 108
181 200 89
182 201 104
177 196 81
185 203 101
184 203 114
178 199 89
183 202 108
181 200 81
188 207 120
179 201 104
180 200 85
181 201 108
178 198 76
177 197 59
181 201 81
173 193 81
183 202 76
181 201 89
178 197 89
175 194 76
177 197 85
176 195 97
176 196 85
181 201 85
173 192 65
171 191 43
172 192 65
171 190 31
162 182 0
172 191 0
173 193 0
163 184 0
166 185 0
166 186 0
167 186 0
164 184 0
165 184 0
164 184 0
163 183 0
163 183 0
169 188 0
168 189 0
165 185 0
168 188 0
172 191 0
165 185 31
163 183 0
165 186 31
168 188 31
167 188 0
170 190 0
169 189 52
168 187 65
175 195 71
173 193 76
169 188 76
168 188 0
164 184 0
169 189 0
162 182 0
164 184 0
163 184 0
160 179 0
158 179 0
157 178 0
165 186 0
162 183 0
165 186 0
161 182 0
162 182 0
157 177 0
151 171 0
165 185 0
166 186 0
163 184 0
158 178 0
160 180 0
162 182 0
150 170 0
151 172 0
165 185 0
153 173 0
157 177 0
157 177 0
148 169 0
160 181 0
153 174 0
159 180 0
151 170 0
153 173 0
152 172 0
149 170 0
151 171 0
147 167 0
149 168 0
131 150 0
141 161 0
142 161 0
141 161 0
134 152 0
129 147 0
139 157 0
139 157 0
123 142 0
115 132 0
129 145 0
111 129 0
112 128 0
128 146 0
121 138 0
104 121 0
93 110 47
64 90 78
50 77 62
54 82 76
57 87 76
58 89 89
56 87 76
57 88 78
57 87 89
57 87 73
54 83 78
54 83 71
60 91 97
56 87 68
58 89 95
59 90 93
56 87 85
55 84 89
55 85 91
61 92 108
56 86 78
55 85 78
60 91 89
56 85 73
58 89 101
53 81 78
58 89 95
56 85 83
59 90 83
56 87 74
59 89 83
55 84 71
54 83 73
59 89 89
54 83 74
59 90 95
53 81 81
53 80 68
54 83 66
54 82 86
53 80 62
53 81 65
56 84 103
53 81 81
53 80 95
53 81 63
63 85 59
73 88 47
97 109 0
89 102 0
112 123 0
111 123 0
116 127 0
103 116 0
101 112 0
114 128 0
120 132 0
98 111 0
126 137 0
108 119 0
111 122 0
121 133 0
118 131 0
122 133 0
118 130 0
129 141 0
134 148 0
126 138 0
130 143 0
127 143 0
135 150 0
135 148 0
123 135 0
121 133 0
130 142 0
136 145 0
138 151 0
121 131 0
132 146 0
128 140 0
139 150 0
129 140 0
121 131 0
136 147 0
129 139 0
137 146 0
136 146 0
138 147 0
132 142 0
133 142 0
129 137 0
118 124 0
144 152 0
134 143 0
135 142 0
130 138 0
129 135 0
133 137 0
133 139 0
130 135 0
134 141 0
140 143 0
116 119 0
124 124 15
105 104 20
84 77 20
86 79 20
96 89 15
97 88 0
96 89 15
98 92 11
101 96 0
96 90 15
104 98 0
95 89 0
108 103 0
101 95 0
105 97 0
102 96 0
113 106 11
114 109 0
115 108 0
119 113 0
110 105 15
120 113 0
126 119 0
117 112 5
118 114 0
126 119 0
120 112 0
121 115 0
116 110 0
123 116 11
126 120 0
126 121 20
122 116 0
129 124 15
125 118 0
128 122 15
125 121 0
121 116 0
124 115 20
130 124 15
132 125 15
127 122 20
126 120 0
127 122 15
129 123 0
131 126 15
134 128 0
136 129 31
136 131 20
132 126 20
131 127 20
139 133 20
138 133 28
136 129 25
135 128 25
129 123 31
137 132 25
138 132 28
132 126 31
146 141 28
135 129 34
132 127 25
141 135 34
139 135 41
139 134 31
131 126 25
143 137 46
142 136 41
140 135 28
138 132 25
138 131 31
138 131 28
143 137 39
130 126 28
148 141 41
138 133 25
144 139 34
135 130 31
143 136 43
138 133 43
142 137 28
135 130 28
146 141 43
141 134 45
144 139 45
139 134 39
139 133 46
131 126 31
146 140 50
143 139 43
136 131 43
138 131 45
142 135 45
142 136 36
137 132 39
137 132 41
146 140 52
137 130 43
142 136 48
142 136 52
141 136 48
138 132 41
143 136 53
146 140 50
144 138 53
142 135 45
136 131 41
140 134 45
145 140 48
146 139 50
138 132 48
141 136 46
133 128 50
147 142 50
145 138 50
130 124 43
144 138 52
146 140 45
142 136 56
142 136 53
131 126 45
179 201 0
177 200 0
179 201 0
178 200 0
177 200 0
177 199 0
179 200 31
178 200 0
179 200 31
180 201 0
179 200 0
179 201 0
176 198 0
179 201 31
177 199 0
180 201 0
179 200 31
178 199 0
180 201 0
175 196 0
176 197 0
179 201 0
180 202 0
179 201 0
178 199 0
179 200 0
178 199 0
181 202 0
177 199 0
177 199 0
175 197 0
179 200 0
177 200 0
180 201 0
179 200 0
176 197 0
178 199 0
180 201 0
177 198 0
179 200 0
177 199 0
177 198 0
178 199 0
176 197 43
174 195 52
181 202 59
179 200 65
182 202 81
181 201 89
179 200 59
184 204 89
183 203 89
176 197 71
185 205 108
184 204 59
180 200 43
179 199 52
182 203 85
187 207 89
184 204 101
182 203 71
180 200 89
181 201 93
180 199 81
179 199 81
180 201 81
180 199 93
182 202 81
179 200 52
178 198 65
181 201 101
180 200 85
178 198 76
177 196 101
183 202 93
178 198 76
177 196 101
178 198 76
182 202 93
176 196 89
182 202 85
175 194 65
177 197 89
178 198 93
175 195 81
177 197 65
176 195 52
171 192 52
174 194 0
174 193 0
175 195 0
166 186 0
164 184 0
168 188 0
167 186 0
167 188 0
168 188 0
166 186 0
173 193 0
169 189 0
169 189 0
160 180 0
167 187 0
169 188 0
168 187 0
166 186 0
166 185 0
162 182 0
171 191 0
171 191 0
166 186 0
164 184 31
168 188 0
172 193 52
168 188 31
167 187 52
170 190 52
170 190 71
175 195 71
172 193 31
168 187 0
165 184 0
167 187 0
167 187 0
167 187 0
162 182 0
164 184 0
165 185 0
161 181 0
162 181 0
159 178 0
161 182 0
160 180 0
168 188 0
160 179 0
162 182 0
158 179 0
165 186 0
161 181 0
162 182 0
160 181 0
159 178 0
154 174 0
165 185 0
161 181 0
147 167 0
151 171 0
154 175 0
156 176 0
163 182 0
151 171 0
148 168 0
156 177 0
155 175 0
150 170 0
146 165 0
142 161 0
150 170 0
130 151 0
144 165 0
147 167 0
144 164 0
137 157 0
140 159 0
135 154 0
143 162 0
134 152 0
137 155 0
121 138 0
129 148 0
117 135 0
130 146 0
126 142 0
118 134 0
112 129 0
102 119 0
116 131 0
111 128 23
84 100 31
67 89 62
51 79 62
56 85 81
53 82 76
56 86 81
55 84 81
56 85 81
54 83 65
58 88 87
54 82 71
55 85 87
55 83 87
56 87 68
59 91 93
59 91 83
54 83 81
57 86 91
54 84 76
56 85 76
57 87 83
58 89 83
57 88 85
56 86 87
59 91 85
57 87 93
55 84 81
55 85 73
57 87 89
56 85 89
54 82 71
55 84 83
56 85 88
56 85 76
55 84 76
54 82 78
55 83 81
53 80 85
52 79 71
50 76 71
53 80 68
51 77 71
51 74 73
79 91 44
100 109 0
88 98 0
98 110 0
98 109 0
100 111 0
106 119 0
113 125 0
100 111 0
105 118 0
117 128 0
120 133 0
114 124 0
112 128 0
114 129 0
104 115 0
118 130 0
110 124 0
106 120 0
123 136 0
111 124 0
122 133 0
105 118 0
127 140 0
126 138 0
132 143 0
130 143 0
123 136 0
124 136 0
128 141 0
124 134 0
125 136 0
133 145 0
140 151 0
130 140 0
130 142 0
125 137 0
131 141 0
127 137 0
128 139 0
138 151 0
131 139 0
133 141 0
130 139 0
127 136 0
125 134 0
124 130 0
137 142 0
128 135 0
127 135 0
124 128 0
140 146 0
125 130 0
127 132 0
132 137 0
135 141 0
126 127 0
129 134 0
120 120 0
137 142 0
111 110 0
94 88 0
89 82 15
88 81 0
94 86 18
104 96 15
106 99 0
104 95 0
99 94 0
107 100 20
95 89 0
95 90 0
107 100 0
105 100 11
92 87 0
116 110 0
109 101 0
109 103 0
108 101 0
109 103 0
128 119 0
111 105 0
112 105 0
113 107 0
114 109 0
116 110 0
124 117 0
122 117 0
121 116 0
113 106 23
112 106 0
132 124 0
124 120 0
125 119 20
118 113 0
116 111 0
125 120 0
136 129 15
124 117 0
126 120 0
122 116 15
131 126 34
122 117 20
126 121 0
130 125 20
129 125 0
128 120 20
127 123 20
131 125 20
133 126 15
137 132 25
134 128 25
136 133 25
130 125 15
133 129 15
139 133 28
136 129 31
145 138 34
138 134 28
138 132 34
138 133 31
135 131 28
140 133 39
144 138 34
139 134 25
135 130 28
142 135 28
139 133 31
138 132 31
134 129 28
144 139 28
143 138 41
144 137 41
132 125 31
140 134 31
149 143 41
141 135 36
142 137 36
139 133 41
129 125 31
139 133 34
145 139 46
144 137 34
141 135 39
139 134 39
137 130 43
139 133 53
139 133 31
143 136 43
139 132 39
141 135 46
141 135 45
140 132 39
132 126 28
147 138 52
136 131 41
138 132 43
140 135 36
147 140 53
148 142 43
138 134 39
142 136 52
137 131 45
142 135 52
137 130 41
126 121 39
143 136 45
138 133 46
131 126 43
140 134 46
136 130 34
138 132 39
143 138 50
136 131 55
137 131 48
150 143 64
134 128 50
144 137 45
140 134 53
181 202 59
178 200 31
182 203 31
180 202 0
175 197 0
179 201 0
179 201 0
179 202 31
180 202 0
176 198 0
178 200 0
176 197 0
177 200 0
180 202 0
175 197 0
179 201 0
180 202 0
178 201 0
178 200 0
178 199 0
179 200 0
179 200 0
178 199 0
178 199 0
182 203 0
177 199 0
178 200 0
178 200 0
178 199 0
179 201 0
180 201 0
181 201 0
180 201 0
180 201 0
175 197 0
177 198 0
177 198 0
175 196 0
179 200 0
177 198 0
177 198 0
175 196 0
178 199 0
175 196 0
177 197 0
181 200 0
175 196 0
176 197 0
178 198 31
175 196 43
179 199 52
179 199 59
185 205 76
180 201 85
180 201 85
180 200 89
181 201 97
184 204 89
180 201 71
183 204 76
175 195 71
178 198 85
181 201 85
184 203 93
184 203 97
182 202 85
179 199 76
178 197 93
182 202 93
180 200 93
176 195 52
177 197 65
181 201 71
179 198 97
180 200 71
174 193 76
182 202 89
176 197 81
178 198 76
181 201 89
179 199 52
171 191 43
170 189 31
171 191 31
168 189 0
172 192 0
174 194 0
170 190 0
169 188 0
172 192 0
172 192 0
168 190 0
169 188 0
169 190 0
165 184 0
166 185 0
170 189 0
174 194 0
168 187 0
167 187 0
175 194 0
169 189 0
168 188 0
166 186 0
162 182 0
160 180 31
163 183 0
169 189 31
164 184 0
168 188 0
164 184 0
170 189 31
176 197 43
168 187 43
171 191 43
176 196 52
178 197 85
166 187 31
163 183 0
166 186 0
168 188 0
166 186 0
165 185 0
173 192 0
168 188 0
169 189 0
167 186 0
159 179 0
163 183 0
161 182 0
158 179 0
161 181 0
155 176 0
159 181 0
155 175 0
165 186 0
155 175 0
163 183 0
159 180 0
158 178 0
159 179 0
159 179 0
156 176 0
156 177 0
154 174 0
152 172 0
152 172 0
156 176 0
151 171 0
145 166 0
145 164 0
151 170 0
147 167 0
144 163 0
145 164 0
153 172 0
143 163 0
148 168 0
142 162 0
143 162 0
147 166 0
136 156 0
132 150 0
132 151 0
143 162 0
134 152 0
127 146 0
119 138 0
125 142 0
136 154 0
137 155 0
116 133 0
114 130 0
124 141 0
111 128 0
112 128 0
116 132 0
106 121 0
89 104 0
82 96 0
79 95 37
70 89 59
52 80 73
52 81 73
56 86 68
56 85 62
55 85 68
52 80 62
51 79 68
56 86 76
57 87 81
53 81 76
56 85 81
56 85 81
55 84 76
53 82 87
54 82 68
55 83 78
56 85 87
54 83 78
55 84 81
56 85 76
58 88 97
53 81 73
54 83 68
55 83 89
53 82 73
51 78 73
56 86 85
52 80 68
54 82 85
54 82 76
54 82 79
53 81 83
50 76 68
53 82 83
53 81 79
54 79 59
56 77 47
86 97 37
86 98 0
89 99 0
96 109 0
88 97 0
94 102 0
87 99 0
96 106 0
97 107 0
106 118 0
111 123 0
114 126 0
105 118 0
109 121 0
107 118 0
120 131 0
117 130 0
111 123 0
114 127 0
110 122 0
105 117 0
121 131 0
130 145 0
114 129 0
129 141 0
124 136 0
126 138 0
122 135 0
123 135 0
118 131 0
132 143 0
128 139 0
124 136 0
119 127 0
129 141 0
133 147 0
135 146 0
132 142 0
133 144 0
141 150 0
120 128 0
128 137 0
124 132 0
124 132 0
130 136 0
123 129 0
131 139 0
128 136 0
132 139 0
130 137 0
129 136 0
137 142 0
118 123 0
133 141 0
131 134 0
125 127 0
126 128 0
112 112 0
113 113 0
128 133 0
113 113 0
126 129 0
123 126 0
117 120 15
106 103 0
87 78 25
85 79 15
86 79 0
86 80 15
100 91 0
98 90 11
98 90 15
99 93 0
92 86 0
105 98 0
106 99 0
98 93 0
106 100 0
114 106 0
110 103 0
116 109 0
117 107 0
120 113 0
113 106 0
110 102 0
107 102 0
118 113 0
112 107 0
112 108 0
116 110 0
122 115 0
125 120 0
123 115 0
118 111 0
123 117 0
123 116 0
129 124 0
127 120 0
130 125 0
131 124 0
129 121 0
132 125 15
121 115 20
123 119 20
126 120 20
115 110 20
134 128 0
131 127 20
125 119 15
127 122 20
141 136 15
126 122 0
136 130 20
130 124 0
130 123 28
133 127 25
133 127 31
120 114 15
136 130 20
139 132 36
139 133 34
136 130 28
134 129 15
136 128 31
138 132 28
137 131 41
139 132 28
139 132 31
145 137 34
132 127 31
137 131 34
137 133 36
135 129 31
136 129 36
144 138 41
130 125 34
145 139 31
140 135 31
140 133 34
138 132 36
135 128 36
144 138 39
145 140 43
150 145 43
149 143 48
138 130 31
136 131 36
144 138 43
139 133 45
138 132 41
134 129 41
142 137 28
130 125 39
142 136 46
128 123 34
127 121 39
137 132 43
144 137 50
137 129 45
140 134 45
127 121 43
139 133 41
146 140 39
137 131 41
147 142 53
136 130 52
145 139 53
149 143 57
132 125 43
149 142 56
134 129 50
138 131 43
135 130 45
139 132 39
142 136 45
140 133 53
137 130 46
138 133 50
133 128 48
136 129 46
130 124 41
177 199 43
182 204 65
181 203 43
180 202 0
181 203 0
179 201 0
179 201 0
177 200 0
181 203 0
174 196 0
177 200 0
179 201 0
181 202 0
178 200 0
180 202 0
180 202 0
180 201 0
178 200 0
176 198 0
179 201 0
182 202 0
176 198 0
175 197 0
177 199 0
180 201 0
178 199 0
176 198 0
178 199 0
178 199 0
181 202 0
180 201 0
178 199 0
178 200 0
177 198 0
176 197 0
177 199 0
177 198 0
179 199 0
177 198 0
178 199 0
174 195 0
174 195 0
179 200 0
177 197 0
179 200 0
177 198 0
179 200 0
180 200 0
176 196 0
173 194 0
174 195 0
181 201 0
178 199 0
176 197 0
178 199 0
176 197 0
176 197 0
178 198 43
176 196 43
174 194 31
178 199 43
177 197 52
176 197 71
175 196 0
177 197 71
179 199 81
180 200 81
177 197 71
177 197 65
179 199 52
178 197 71
177 197 31
175 194 31
177 197 31
168 188 52
170 191 43
178 198 0
170 191 0
174 194 0
173 193 0
173 193 0
172 192 0
174 194 0
167 187 0
172 191 0
170 189 0
167 187 0
170 190 0
168 188 0
163 183 0
172 192 0
174 194 0
163 183 0
162 182 0
164 185 0
169 188 0
171 191 0
169 189 0
167 186 0
167 187 0
166 185 0
166 186 0
172 192 0
172 192 0
169 189 31
162 182 0
174 193 0
165 185 0
163 184 0
170 190 31
171 190 31
168 188 31
172 191 65
172 191 52
175 195 97
180 199 97
170 190 0
171 192 0
165 185 0
161 182 0
160 180 0
165 185 0
169 189 0
167 186 0
168 187 0
163 183 0
162 182 0
166 185 0
161 181 0
158 178 0
164 183 0
159 179 0
154 174 0
166 185 0
164 184 0
161 181 0
168 188 0
153 173 0
158 178 0
162 182 0
155 176 0
163 184 0
157 178 0
157 178 0
155 174 0
149 169 0
151 170 0
159 179 0
142 161 0
144 164 0
155 174 0
154 174 0
150 170 0
152 172 0
136 155 0
149 169 0
143 162 0
139 159 0
132 151 0
146 166 0
131 150 0
147 166 0
131 150 0
142 161 0
141 160 0
129 147 0
133 152 0
135 154 0
137 155 0
116 134 0
123 141 0
126 143 0
124 142 0
115 132 0
113 130 0
91 107 0
106 123 0
101 117 0
107 123 0
82 96 0
94 109 0
92 106 0
100 114 23
88 107 65
64 85 43
49 75 47
54 82 73
54 83 73
55 84 83
52 80 73
52 81 76
52 80 55
52 80 65
56 86 85
55 84 76
53 82 65
54 82 78
54 83 78
51 79 71
56 86 78
54 83 73
51 79 73
55 85 78
51 78 68
55 83 90
51 79 71
55 84 81
50 76 69
52 79 73
47 73 47
52 79 68
53 81 69
53 80 81
48 73 59
53 78 65
61 78 59
69 83 43
84 93 0
75 85 0
80 90 0
78 87 0
79 88 0
99 111 0
95 108 0
93 103 0
103 114 0
99 108 0
99 110 0
105 117 0
110 122 0
115 127 0
95 107 0
103 114 0
109 120 0
118 131 0
115 128 0
111 123 0
114 127 0
124 136 0
116 128 0
116 127 0
115 128 0
127 140 0
124 136 0
121 134 0
118 130 0
129 143 0
130 142 0
125 137 0
124 135 0
132 142 0
122 135 0
131 141 0
136 146 0
137 149 0
131 140 0
130 141 0
128 139 0
127 137 0
120 130 0
132 141 0
117 123 0
127 135 0
131 139 0
129 136 0
126 134 0
134 143 0
134 143 0
130 136 0
124 131 0
115 120 0
118 123 0
124 127 0
129 134 0
119 122 0
125 132 0
133 138 0
107 109 0
116 117 0
119 122 0
112 112 0
124 125 0
127 128 0
123 123 0
113 113 0
93 87 15
91 82 0
94 86 15
96 87 15
85 78 0
106 97 0
87 82 0
92 87 0
87 80 0
105 98 15
98 91 0
100 91 0
107 101 0
111 104 0
109 102 0
122 115 0
113 103 0
116 110 0
106 101 0
101 93 0
120 113 0
115 109 0
123 115 0
114 105 0
119 113 0
128 122 0
114 108 0
117 112 0
120 113 0
117 111 0
123 115 15
120 115 0
117 113 0
128 123 0
131 124 0
124 119 0
125 118 20
122 114 15
125 119 20
123 117 0
126 118 15
124 120 15
125 119 15
130 124 15
124 118 20
118 112 20
136 129 15
134 128 20
129 124 31
136 128 28
134 128 20
128 124 20
138 132 31
132 125 28
126 119 31
129 124 28
140 134 28
133 126 28
139 132 20
137 130 25
127 121 25
131 125 20
143 137 28
138 134 28
135 129 28
128 123 25
134 128 28
144 137 34
142 136 34
135 130 43
136 130 31
133 127 39
127 123 31
137 133 39
143 135 43
129 124 25
137 132 34
130 125 28
136 130 28
134 128 39
140 134 41
127 122 36
139 133 39
130 124 36
139 133 43
143 137 48
142 135 48
130 124 48
141 134 43
141 135 45
136 130 36
134 128 34
141 135 48
143 137 46
147 141 41
133 127 41
148 141 46
134 127 36
140 135 45
136 131 46
139 134 46
133 128 39
132 127 45
136 129 45
137 129 50
143 135 57
123 118 43
138 132 48
140 135 39
136 130 50
131 126 36
126 120 43
141 135 48
140 133 57
122 116 34
180 202 52
180 201 52
179 201 59
182 203 71
181 202 43
178 200 0
180 202 0
183 204 0
179 201 0
179 201 0
179 201 31
177 198 0
180 201 0
178 200 0
180 201 0
177 199 0
179 200 0
177 199 0
178 199 0
178 200 0
180 200 0
178 199 0
182 203 0
179 200 0
178 199 0
181 202 31
180 201 0
179 201 0
178 198 0
177 199 0
177 199 0
179 200 0
179 200 0
179 200 0
180 201 0
179 199 0
177 198 0
177 199 0
176 197 0
178 199 0
174 195 0
178 199 0
176 197 0
178 199 0
175 197 0
177 198 0
179 199 0
171 192 0
177 197 0
175 196 0
177 198 0
173 194 0
173 194 0
174 195 0
180 200 0
175 196 0
175 195 0
179 200 0
175 196 0
174 195 0
175 195 0
180 199 0
179 199 0
176 196 0
176 196 0
173 194 0
177 197 0
176 196 0
175 195 0
171 192 0
175 194 0
172 193 0
176 196 0
172 193 0
173 194 0
173 193 0
170 191 0
166 187 0
176 196 0
173 192 0
171 191 0
170 190 0
168 188 0
167 187 0
173 193 0
173 193 0
171 191 0
163 184 0
170 189 0
170 190 0
170 191 0
172 192 0
173 192 0
169 189 0
169 188 0
165 184 0
169 188 0
171 190 0
170 190 0
165 185 0
170 190 0
166 185 31
170 189 52
172 192 31
170 190 0
170 189 0
167 186 31
167 188 0
172 191 59
172 191 43
171 191 59
173 192 65
171 190 89
175 194 89
172 192 0
165 185 0
170 189 0
165 184 0
165 185 0
167 186 0
163 183 0
165 186 0
157 178 0
165 184 0
171 191 0
168 187 0
167 186 0
162 182 0
163 183 0
158 178 0
155 176 0
163 182 0
161 181 0
167 188 0
156 176 0
158 178 0
159 179 0
158 178 0
158 177 0
154 174 0
156 176 0
154 175 0
162 182 0
162 183 0
156 176 0
158 179 0
151 171 0
154 174 0
147 168 0
154 174 0
149 168 0
146 166 0
151 170 0
152 172 0
147 167 0
144 163 0
143 163 0
147 167 0
151 170 0
142 161 0
150 168 0
147 165 0
130 149 0
130 149 0
134 153 0
132 151 0
124 142 0
120 137 0
114 132 0
121 139 0
125 143 0
116 133 0
114 131 0
111 128 0
107 123 0
122 137 0
105 121 0
109 124 0
94 109 0
104 118 0
101 116 0
98 112 0
83 96 0
79 92 0
91 102 0
79 91 0
72 86 0
63 80 37
60 80 43
47 72 68
51 78 76
53 80 81
52 79 71
53 81 62
50 77 65
50 76 78
49 76 71
48 74 55
49 76 62
51 79 68
49 75 37
52 80 71
51 78 71
51 78 66
53 81 87
49 75 59
52 79 68
52 79 62
48 73 73
48 73 55
48 72 65
60 79 52
49 67 43
51 63 23
65 73 0
68 76 0
94 103 0
79 87 0
78 87 0
85 94 0
89 101 0
82 93 0
92 103 0
84 93 0
93 105 0
95 107 0
94 105 0
99 112 0
95 106 0
98 109 0
102 114 0
92 105 0
120 131 0
114 126 0
112 124 0
107 118 0
121 134 0
121 132 0
121 134 0
111 125 0
119 132 0
114 125 0
135 147 0
128 141 0
127 140 0
124 137 0
110 121 0
119 128 0
120 133 0
117 128 0
127 140 0
119 130 0
120 131 0
121 132 0
134 144 0
132 144 0
131 141 0
115 128 0
120 129 0
122 133 0
128 140 0
126 133 0
134 146 0
125 136 0
127 135 0
133 141 0
114 124 0
131 141 0
117 125 0
124 131 0
119 125 0
136 142 0
119 124 0
107 108 0
124 125 0
126 130 0
128 131 0
108 107 0
123 128 0
124 123 0
113 115 0
118 118 0
109 108 0
113 111 0
128 130 0
113 113 0
106 103 0
76 71 0
87 80 15
87 79 20
80 75 15
87 81 0
101 90 15
95 88 0
99 92 0
96 87 0
101 93 0
96 88 0
106 98 0
108 100 0
106 98 0
112 104 0
112 105 0
106 102 0
119 110 0
110 105 0
115 110 0
107 101 0
116 111 0
111 105 11
115 108 0
108 103 0
120 115 11
122 116 0
121 114 0
125 118 0
128 121 0
118 110 0
123 116 0
135 127 0
120 115 0
127 120 0
123 116 0
126 119 0
108 102 0
122 116 15
119 113 15
130 124 0
134 128 15
126 118 0
135 129 0
135 129 20
128 123 15
124 117 15
132 125 20
126 121 0
135 128 20
135 128 25
132 125 20
136 131 20
120 114 25
134 128 20
132 127 15
139 134 31
129 123 28
130 126 28
135 130 34
135 127 28
129 123 28
138 131 36
136 131 39
136 130 36
136 129 31
136 130 31
136 130 39
142 135 31
136 129 31
135 128 28
139 132 34
140 134 46
135 130 28
141 133 36
139 133 31
138 132 36
134 128 31
137 132 28
136 130 39
136 130 31
146 142 43
141 135 46
136 129 41
137 131 36
137 131 25
142 137 41
139 133 41
135 129 46
142 136 41
139 132 34
135 129 31
138 132 41
140 132 46
136 130 31
133 127 43
145 138 55
143 137 50
140 133 50
135 128 41
132 125 39
143 136 53
132 126 43
130 124 46
138 132 46
137 130 56
143 137 53
136 129 53
122 117 34
126 122 34
132 126 39
128 122 48
133 127 52
181 202 43
179 200 52
182 204 71
182 204 52
185 206 71
181 203 52
182 203 31
181 202 31
178 201 0
179 200 0
180 202 31
180 202 0
180 202 0
179 201 0
178 200 0
177 200 0
179 201 0
180 201 0
179 201 31
178 200 0
181 202 0
178 199 0
179 200 0
178 199 0
179 200 0
179 200 0
178 200 0
179 201 0
177 198 0
180 200 0
176 198 0
182 202 0
178 200 0
178 199 0
178 199 0
178 199 0
176 197 0
176 199 0
181 201 0
177 198 0
177 198 0
177 198 0
178 199 0
179 200 0
177 198 0
176 197 0
176 197 0
178 198 0
176 197 0
177 197 0
178 199 0
179 199 0
182 202 0
174 195 0
177 197 0
172 193 0
176 196 0
176 196 0
172 192 0
174 194 0
177 197 0
173 194 0
178 198 0
176 197 0
175 195 0
175 195 0
174 194 0
176 196 0
175 195 0
172 191 0
172 191 0
178 198 0
177 196 0
177 197 0
170 190 0
172 191 0
167 188 0
170 189 0
178 198 0
173 193 0
175 194 0
173 193 0
173 192 0
172 192 0
174 194 0
173 193 0
176 196 0
172 192 0
172 192 0
171 190 0
166 187 0
167 187 0
168 187 0
174 194 0
167 187 0
177 196 31
165 184 0
168 188 0
166 186 0
171 191 0
166 186 31
168 188 0
173 193 0
167 187 0
169 189 0
170 190 43
170 189 52
175 195 59
168 188 52
173 192 31
175 194 76
170 190 59
173 193 31
173 193 0
169 189 0
169 189 0
168 187 0
161 181 0
169 188 0
166 185 0
162 183 0
164 183 0
169 188 0
159 179 0
162 182 0
160 179 0
165 184 0
160 182 0
156 175 0
161 180 0
160 179 0
149 169 0
155 176 0
158 178 0
160 181 0
156 176 0
160 180 0
158 179 0
157 178 0
162 181 0
157 178 0
163 183 0
147 167 0
161 180 0
149 169 0
157 177 0
150 170 0
144 164 0
154 174 0
143 163 0
152 172 0
149 169 0
152 172 0
147 166 0
140 159 0
135 153 0
147 166 0
145 165 0
142 160 0
144 164 0
146 165 0
129 148 0
125 144 0
135 154 0
137 156 0
122 142 0
125 144 0
130 147 0
131 149 0
121 139 0
117 134 0
126 145 0
129 146 0
115 132 0
107 124 0
107 122 0
113 129 0
103 118 0
96 113 0
109 123 0
84 98 0
93 107 0
80 94 0
100 113 0
88 101 0
78 91 0
99 111 0
75 86 0
85 97 0
83 93 0
59 70 0
55 70 37
72 86 37
40 62 43
52 73 62
58 80 47
51 75 55
48 74 71
47 72 68
51 77 68
43 66 59
43 67 52
44 68 59
46 70 31
50 74 55
44 67 68
57 75 43
46 66 55
56 71 52
56 66 0
57 65 0
61 69 0
53 66 0
68 79 0
74 84 0
78 86 0
77 86 0
78 90 0
75 84 0
85 96 0
91 102 0
93 103 0
84 95 0
96 107 0
82 93 0
93 105 0
103 114 0
103 112 0
98 111 0
105 118 0
104 115 0
101 113 0
116 126 0
117 130 0
116 129 0
115 129 0
123 134 0
131 143 0
124 137 0
111 122 0
118 131 0
128 141 0
118 132 0
128 139 0
128 139 0
124 135 0
132 145 0
130 145 0
146 158 0
123 132 0
120 133 0
109 119 0
123 134 0
126 135 0
122 134 0
133 143 0
119 131 0
128 138 0
124 135 0
126 134 0
129 141 0
118 127 0
116 126 0
125 133 0
119 128 0
112 119 0
117 124 0
142 152 0
121 126 0
118 123 0
115 121 0
123 129 0
126 132 0
112 117 0
121 125 0
117 122 0
111 115 0
125 129 0
119 120 0
124 128 0
119 122 0
120 119 0
111 112 0
120 123 0
102 102 0
109 108 0
114 112 0
110 106 0
97 90 0
83 75 0
91 82 15
90 82 0
95 87 0
93 85 0
93 86 0
102 96 0
91 85 0
102 94 15
105 97 15
107 100 0
99 92 0
102 94 11
108 100 0
113 105 0
114 104 0
102 95 0
114 106 0
104 97 0
115 110 0
108 102 0
114 107 0
106 101 0
113 108 0
114 107 0
121 115 0
121 114 0
111 106 0
102 96 0
120 113 0
118 110 0
118 113 0
131 125 0
120 115 0
128 121 15
117 112 15
123 118 15
127 120 15
122 116 15
130 124 25
123 117 20
125 118 0
128 121 15
134 126 15
128 122 15
132 126 0
123 118 20
127 122 31
123 116 28
126 120 20
130 122 34
134 127 15
137 131 25
134 128 20
118 114 0
131 125 15
133 125 34
130 123 20
136 130 0
125 119 20
135 126 31
139 133 31
140 134 36
138 131 31
125 120 31
130 125 31
138 133 25
126 120 31
132 125 31
139 134 28
141 135 39
139 132 36
143 136 36
142 134 34
136 130 31
140 134 31
135 128 36
142 135 34
129 123 28
126 121 41
144 137 52
135 129 41
137 132 39
139 131 34
135 130 39
128 122 36
132 126 36
131 125 31
136 128 45
130 125 39
135 129 39
132 126 31
140 133 43
139 133 41
137 130 46
132 127 39
139 132 45
137 131 43
133 126 45
136 131 31
137 131 50
138 132 46
141 136 56
140 133 48
129 123 45
129 124 45
133 126 48
138 131 56
143 136 56
133 126 39
133 127 43
179 200 52
181 202 59
179 200 31
179 201 0
182 203 59
181 203 43
183 204 65
183 204 65
181 201 59
178 200 31
177 199 31
178 200 0
178 199 0
179 201 31
179 201 0
179 201 0
179 201 31
179 200 0
179 201 0
180 201 0
178 199 0
178 200 0
177 198 0
179 200 0
176 198 0
179 199 0
177 199 0
182 202 0
177 198 31
177 198 0
177 198 0
178 200 0
179 199 0
175 196 0
177 196 0
175 197 0
178 199 0
180 201 0
176 198 0
177 197 0
174 194 0
177 198 0
178 199 0
178 198 0
177 198 0
176 196 0
176 197 0
180 200 0
177 197 0
179 200 0
178 199 0
179 200 0
176 197 0
177 197 0
177 197 0
177 199 0
179 199 0
174 193 0
178 198 0
178 197 0
180 200 0
177 197 0
174 195 0
177 197 0
176 195 0
176 195 0
175 195 0
174 194 0
178 198 0
176 196 0
180 200 0
173 192 0
175 194 0
172 192 0
175 194 0
173 192 0
167 187 0
171 191 0
174 194 0
170 190 0
174 194 0
171 190 0
176 195 0
175 194 0
170 190 0
169 189 0
169 190 0
172 191 0
170 189 0
173 192 0
171 191 0
177 195 0
172 192 0
171 192 0
169 189 0
162 182 0
169 190 0
169 188 0
173 192 0
171 190 0
166 185 0
166 186 0
171 190 31
176 194 59
173 191 59
174 194 52
171 191 31
172 191 59
173 193 76
172 192 65
171 191 31
173 192 0
167 186 0
167 187 0
162 182 0
170 189 0
171 191 0
170 190 0
154 174 0
165 185 0
168 188 0
159 179 0
161 181 0
163 182 0
154 174 0
159 180 0
165 185 0
159 179 0
158 178 0
167 187 0
159 179 0
156 176 0
161 180 0
162 182 0
152 173 0
154 175 0
164 184 0
163 183 0
150 171 0
155 176 0
155 175 0
156 177 0
153 173 0
162 181 0
149 170 0
151 171 0
150 169 0
145 165 0
156 176 0
151 171 0
153 173 0
147 166 0
148 168 0
147 167 0
144 164 0
139 158 0
149 168 0
152 171 0
143 162 0
137 156 0
134 152 0
140 158 0
131 150 0
130 148 0
134 152 0
133 152 0
138 155 0
129 147 0
128 147 0
119 136 0
134 151 0
119 136 0
119 137 0
116 133 0
108 125 0
113 129 0
106 121 0
107 123 0
108 125 0
108 123 0
109 124 0
90 105 0
112 128 0
101 115 0
106 120 0
88 102 0
93 107 0
91 103 0
70 82 0
80 92 0
79 92 0
62 73 0
78 87 0
76 86 0
72 82 0
82 90 0
53 62 0
59 68 0
59 68 0
58 68 0
65 74 0
53 62 0
48 57 0
49 56 0
63 73 0
68 76 0
61 70 0
55 66 0
80 90 0
67 76 0
80 88 0
68 77 0
67 77 0
66 75 0
71 82 0
89 100 0
84 96 0
88 97 0
91 102 0
80 92 0
96 107 0
91 102 0
101 112 0
90 99 0
112 122 0
82 96 0
110 121 0
107 120 0
98 111 0
111 122 0
109 120 0
94 106 0
113 125 0
104 114 0
101 111 0
119 133 0
112 124 0
115 128 0
112 124 0
106 120 0
109 121 0
119 131 0
128 142 0
120 132 0
116 128 0
124 136 0
115 128 0
124 137 0
117 129 0
128 140 0
133 146 0
119 129 0
132 142 0
129 142 0
124 134 0
122 134 0
131 143 0
135 146 0
115 125 0
129 140 0
121 127 0
130 141 0
111 119 0
127 138 0
117 125 0
129 138 0
123 129 0
125 131 0
128 136 0
127 133 0
116 122 0
114 119 0
119 127 0
119 123 0
113 116 0
112 115 0
125 131 0
119 122 0
120 123 0
113 117 0
110 113 0
113 112 0
115 117 0
103 100 0
109 110 0
113 111 0
115 112 0
116 114 0
112 111 0
95 92 0
84 82 0
86 78 15
97 86 15
98 89 15
88 81 15
97 90 15
101 92 0
100 92 0
93 84 0
97 89 0
110 102 0
100 93 0
113 104 0
109 99 0
114 105 0
105 97 0
104 97 0
113 103 0
110 104 0
97 90 0
107 98 0
114 106 0
107 101 0
116 107 0
122 113 0
110 102 0
111 107 0
128 121 0
128 120 0
122 116 0
120 112 15
122 114 0
122 114 20
117 111 15
120 113 0
120 112 15
129 123 0
116 109 0
124 117 25
115 109 0
124 118 0
128 123 15
134 127 0
123 117 15
123 117 15
123 115 15
125 119 20
116 108 15
132 126 15
134 127 25
129 120 25
134 129 25
132 126 31
134 128 25
125 120 25
127 121 15
138 132 28
136 129 28
133 125 28
135 129 31
126 120 25
127 120 25
124 117 20
130 125 25
135 129 36
136 130 34
127 120 28
137 130 28
129 122 34
135 130 34
142 136 34
131 125 28
142 136 25
137 132 34
138 131 39
133 127 36
128 123 31
130 124 34
132 126 34
131 125 41
134 129 34
138 133 45
137 131 45
133 128 39
126 120 31
138 131 36
131 125 34
132 126 34
136 130 36
137 131 41
133 126 39
131 124 31
128 123 36
134 127 43
128 122 46
145 140 48
135 129 46
133 127 43
136 130 31
133 128 43
144 137 55
138 131 48
121 115 31
134 128 31
134 128 46
125 120 39
126 120 46
131 124 48
128 123 36
130 124 39
185 205 81
180 202 43
179 201 0
181 202 59
182 204 65
182 203 59
181 203 52
180 202 52
178 200 31
180 201 43
178 200 0
177 199 31
180 201 0
179 201 0
179 201 31
181 202 0
178 199 31
180 202 0
179 201 0
181 202 0
179 200 0
178 200 0
180 201 0
177 198 0
179 200 0
180 201 0
178 199 0
178 200 0
179 200 0
181 202 0
174 195 0
179 200 0
182 202 0
175 195 0
181 201 0
179 200 0
177 199 0
178 198 0
177 198 0
178 199 0
175 196 0
177 199 0
175 196 0
178 199 0
179 199 0
178 199 0
181 201 0
179 199 0
180 200 0
176 196 0
181 201 0
177 197 0
178 198 0
175 195 0
177 197 0
177 197 0
175 195 0
179 199 0
176 197 0
178 198 0
176 196 0
180 200 0
176 196 0
173 193 0
178 197 0
174 194 0
176 196 0
175 195 0
175 195 0
174 194 0
174 194 0
174 194 0
172 192 0
171 192 0
171 191 0
173 193 0
174 194 0
178 197 0
174 194 0
173 193 0
171 190 0
176 194 0
174 193 0
168 188 0
171 191 0
174 194 0
175 193 0
176 195 0
173 192 0
169 189 0
171 191 0
168 189 0
171 191 31
165 184 0
168 187 0
167 187 0
170 189 0
174 193 0
174 194 0
171 191 52
165 185 0
169 189 65
170 190 71
176 195 65
169 189 43
176 196 65
177 196 93
169 189 52
173 193 0
168 188 0
166 185 0
160 179 0
172 191 0
165 185 0
165 183 0
169 188 0
160 180 0
165 185 0
168 188 0
162 182 0
162 182 0
167 187 0
161 180 0
161 181 0
159 178 0
162 182 0
161 181 0
158 178 0
165 185 0
162 182 0
159 179 0
158 178 0
163 183 0
159 178 0
161 181 0
149 169 0
162 182 0
155 175 0
152 174 0
160 181 0
155 176 0
160 180 0
158 178 0
162 182 0
159 178 0
153 172 0
148 168 0
151 172 0
153 172 0
148 168 0
143 162 0
150 170 0
137 156 0
141 161 0
152 172 0
144 163 0
142 161 0
136 155 0
141 160 0
137 157 0
149 168 0
136 156 0
126 146 0
145 163 0
123 142 0
132 151 0
126 144 0
134 152 0
119 137 0
126 143 0
121 138 0
117 135 0
125 142 0
117 135 0
123 139 0
112 128 0
107 123 0
100 116 0
105 119 0
110 126 0
111 126 0
100 114 0
101 115 0
104 118 0
92 107 0
86 98 0
91 105 0
97 109 0
84 97 0
88 101 0
80 92 0
83 96 0
84 96 0
63 74 0
77 89 0
71 81 0
72 82 0
64 75 0
87 97 0
63 74 0
71 81 0
61 71 0
76 85 0
89 100 0
75 86 0
62 74 0
74 83 0
79 89 0
72 83 0
75 86 0
77 89 0
85 95 0
77 88 0
81 90 0
90 101 0
86 97 0
84 92 0
80 90 0
81 93 0
94 106 0
96 108 0
91 103 0
100 112 0
98 111 0
110 119 0
109 120 0
101 113 0
108 120 0
106 118 0
116 130 0
104 116 0
111 124 0
106 119 0
120 133 0
104 118 0
125 137 0
117 128 0
125 139 0
106 119 0
126 139 0
103 114 0
121 131 0
122 134 0
131 144 0
119 128 0
126 139 0
106 118 0
126 137 0
128 142 0
128 140 0
129 140 0
125 137 0
123 136 0
105 116 0
132 143 0
122 133 0
129 140 0
128 136 0
124 134 0
122 131 0
127 137 0
123 132 0
122 132 0
122 131 0
135 145 0
128 138 0
122 133 0
117 124 0
122 129 0
121 129 0
125 132 0
112 118 0
122 129 0
111 115 0
132 138 0
117 120 0
121 124 0
120 124 0
125 130 0
115 120 0
122 125 0
113 111 0
114 114 0
107 108 0
113 112 0
119 123 0
110 109 0
109 110 0
98 98 0
110 106 0
94 88 0
102 99 0
90 85 15
77 68 25
80 73 0
78 70 15
92 83 0
93 86 20
99 91 0
102 93 0
99 88 0
94 85 0
99 91 0
95 89 0
116 108 0
102 94 0
96 90 0
106 98 0
99 93 0
109 100 0
107 102 0
112 105 0
113 106 0
111 103 0
108 101 0
125 117 0
112 105 0
110 104 0
121 113 0
124 115 0
123 115 15
111 105 0
124 117 0
119 113 0
125 119 0
121 114 0
130 123 15
127 119 15
127 119 25
127 118 0
117 110 20
129 121 20
129 123 0
123 116 15
126 120 20
125 118 20
119 112 20
126 122 15
127 121 20
130 122 20
131 125 28
128 120 20
128 120 25
140 133 34
116 108 15
134 127 28
132 126 15
129 120 31
124 117 20
128 122 28
128 121 25
129 122 15
135 128 25
127 120 25
142 135 39
134 129 0
131 126 25
131 123 20
139 133 39
135 127 43
139 130 39
130 123 31
128 123 39
132 125 31
125 119 31
131 125 39
140 133 45
136 129 50
138 132 46
129 124 28
131 126 34
134 127 34
138 132 31
135 128 45
141 134 39
140 133 41
131 126 34
132 125 31
129 123 36
134 128 41
132 125 39
129 122 36
127 120 25
124 118 36
143 136 45
134 127 45
133 126 48
131 125 43
134 127 50
130 122 45
138 132 48
140 134 45
137 131 45
120 114 36
133 129 46
131 125 43
131 124 55
128 122 52
132 124 45
127 121 41
182 204 59
179 201 31
180 201 31
179 201 59
182 204 71
182 203 59
179 200 31
183 204 59
179 201 0
179 200 52
179 201 52
179 201 52
180 202 31
183 203 43
180 202 31
178 200 0
180 200 0
179 200 0
180 201 0
180 201 0
179 200 0
179 200 0
181 202 31
178 200 0
182 203 31
177 198 0
177 199 0
177 198 0
176 197 0
178 199 31
178 199 0
179 200 0
180 201 31
178 199 0
179 200 31
181 201 31
180 201 31
178 199 0
178 199 0
177 198 0
177 198 0
179 199 0
179 199 0
176 197 0
178 198 0
178 199 0
177 198 0
180 200 0
178 199 0
176 197 0
177 198 0
177 197 0
177 198 0
178 199 0
178 198 0
177 197 0
176 197 0
179 199 0
180 200 0
175 194 0
177 197 0
178 199 0
174 194 0
175 195 0
178 198 0
178 198 0
176 196 0
174 193 0
176 196 0
173 193 0
178 197 0
175 195 0
175 195 0
173 193 0
176 195 0
171 190 0
175 194 0
169 188 0
171 190 0
179 197 0
174 194 0
172 192 0
173 192 0
178 197 31
172 191 0
172 192 0
172 192 0
173 192 0
167 186 0
173 193 0
171 190 0
175 195 43
175 194 0
171 190 0
170 191 0
169 188 31
175 194 0
167 187 31
177 196 65
166 186 0
173 192 52
169 189 43
171 191 59
174 193 43
177 196 81
178 197 76
164 184 0
165 185 0
170 191 0
165 186 0
169 188 0
174 193 0
165 184 0
163 183 0
164 184 0
163 183 0
170 189 0
169 189 0
168 188 0
165 185 0
166 186 0
163 182 0
160 180 0
167 187 0
158 178 0
162 182 0
158 179 0
159 180 0
164 183 0
159 179 0
162 183 0
159 179 0
158 179 0
155 175 0
157 178 0
147 167 0
164 184 0
162 181 0
166 187 0
150 170 0
155 174 0
151 171 0
162 184 0
152 172 0
160 179 0
160 179 0
149 169 0
153 174 0
152 171 0
142 162 0
148 167 0
152 172 0
148 168 0
144 165 0
139 158 0
143 163 0
145 165 0
147 166 0
145 165 0
138 156 0
139 158 0
131 150 0
133 152 0
135 153 0
140 158 0
131 150 0
120 139 0
136 154 0
120 137 0
138 156 0
129 146 0
119 136 0
126 144 0
118 135 0
115 131 0
118 135 0
118 135 0
114 130 0
101 118 0
104 122 0
102 117 0
97 112 0
98 112 0
97 112 0
110 124 0
99 113 0
94 108 0
113 126 0
93 107 0
95 108 0
89 102 0
89 102 0
89 102 0
84 96 0
92 104 0
75 87 0
88 100 0
77 90 0
71 83 0
78 88 0
80 91 0
79 90 0
64 75 0
68 78 0
70 81 0
70 79 0
72 84 0
90 100 0
88 100 0
79 89 0
83 93 0
87 98 0
62 72 0
83 95 0
86 97 0
78 89 0
83 93 0
73 87 0
86 99 0
86 99 0
68 79 0
110 123 0
106 118 0
95 108 0
100 114 0
99 111 0
105 118 0
97 111 0
107 119 0
107 119 0
103 115 0
113 125 0
107 116 0
120 132 0
115 127 0
117 130 0
116 130 0
123 136 0
121 134 0
119 131 0
119 132 0
121 134 0
128 140 0
121 132 0
111 123 0
111 123 0
107 119 0
118 131 0
121 131 0
121 133 0
127 140 0
126 138 0
121 134 0
118 128 0
125 137 0
134 143 0
117 126 0
115 122 0
136 146 0
129 139 0
136 148 0
123 137 0
124 134 0
124 133 0
132 142 0
128 139 0
131 141 0
128 136 0
127 138 0
121 128 0
125 133 0
113 120 0
116 122 0
129 136 0
120 127 0
131 137 0
114 119 0
124 127 0
119 121 0
111 114 0
129 131 0
125 127 0
116 117 0
116 119 0
117 122 0
111 113 0
112 111 0
102 103 0
109 108 0
103 103 0
115 113 0
93 90 0
107 104 0
96 91 0
92 87 0
72 64 0
87 77 15
93 85 0
100 90 15
97 88 0
99 92 0
86 79 0
98 89 0
96 90 15
102 92 0
104 96 0
104 95 0
104 95 0
105 97 0
105 99 0
102 94 0
99 92 0
110 101 0
105 95 0
116 107 0
105 99 0
123 116 0
119 113 0
112 106 0
106 100 15
118 111 0
116 109 15
116 108 0
124 117 0
106 100 0
111 103 0
118 110 0
126 119 0
121 112 0
112 105 0
130 123 15
116 109 20
123 117 25
120 111 15
123 115 0
124 117 20
129 123 15
125 118 28
132 126 28
130 123 20
129 122 0
128 121 20
125 117 15
120 113 20
123 117 15
115 108 15
128 121 25
127 121 25
130 122 15
121 113 34
131 123 31
130 123 15
127 118 28
129 124 25
134 128 39
138 129 34
136 130 25
132 127 15
135 128 39
128 123 25
125 120 31
131 124 41
130 124 28
134 130 28
137 131 34
132 125 43
130 124 31
134 129 28
137 130 34
127 120 20
140 131 46
140 133 34
137 131 41
137 131 43
130 124 39
139 132 41
125 119 31
123 116 28
137 132 41
129 121 36
130 124 34
136 130 36
123 118 31
135 130 46
127 120 28
137 130 52
132 126 34
126 119 36
123 118 43
125 118 36
134 126 48
135 129 45
129 123 41
132 128 41
126 120 39
135 129 46
134 128 50
128 122 45
128 121 46
118 113 43
186 206 93
178 200 43
179 201 43
183 204 65
182 203 76
182 204 52
182 203 43
181 203 59
181 203 65
179 201 43
182 202 59
182 202 59
178 200 52
179 201 31
184 205 81
184 204 65
179 200 31
179 201 0
182 202 0
180 201 0
179 200 0
177 198 0
180 201 0
179 200 0
180 201 0
177 198 0
178 199 0
181 202 0
180 201 0
180 201 31
179 200 0
176 197 0
179 199 0
176 197 0
177 197 0
181 201 0
180 201 0
180 200 31
178 199 0
181 201 31
177 198 0
179 199 0
175 196 0
180 201 0
179 199 0
180 201 0
178 199 0
176 197 0
174 194 0
179 198 0
178 198 0
176 196 0
177 197 0
179 199 0
176 196 0
177 198 0
175 196 0
178 198 0
175 195 0
179 198 0
178 197 0
177 198 0
176 195 0
175 196 0
177 198 0
174 194 0
177 197 0
180 200 0
175 196 0
175 195 0
177 198 0
170 191 0
171 191 0
170 190 0
174 193 0
170 190 0
176 195 0
172 192 0
172 192 0
176 195 0
175 194 0
174 193 0
175 195 31
169 188 31
173 193 0
173 192 0
172 193 0
174 194 31
174 194 0
168 187 0
172 192 0
171 191 0
165 185 31
170 190 0
170 190 43
170 190 43
169 190 52
169 189 43
171 190 59
169 189 65
169 189 43
173 192 71
176 194 93
167 188 59
174 192 0
169 188 0
169 189 0
166 186 0
168 188 0
166 186 0
161 181 0
167 186 0
168 187 0
167 187 0
168 188 0
163 184 0
164 185 0
160 179 0
170 190 0
164 183 0
164 184 0
171 191 0
162 182 0
162 182 0
156 176 0
165 185 0
153 173 0
164 183 0
159 179 0
153 171 0
164 183 0
162 182 0
159 180 0
157 177 0
157 178 0
158 179 0
158 178 0
152 172 0
158 178 0
149 170 0
157 176 0
159 179 0
147 167 0
153 173 0
154 174 0
143 163 0
152 173 0
164 184 0
155 175 0
154 173 0
145 165 0
143 163 0
148 168 0
140 160 0
142 162 0
157 177 0
146 165 0
144 162 0
141 160 0
134 154 0
142 161 0
146 166 0
141 159 0
128 148 0
140 158 0
130 150 0
137 155 0
135 154 0
133 151 0
124 142 0
117 135 0
132 151 0
114 132 0
123 140 0
107 125 0
116 134 0
124 141 0
105 121 0
114 129 0
118 134 0
125 141 0
109 125 0
105 120 0
109 123 0
105 120 0
105 119 0
103 117 0
98 113 0
95 109 0
93 107 0
98 112 0
77 92 0
94 108 0
96 107 0
93 106 0
85 98 0
85 96 0
86 98 0
92 105 0
84 97 0
78 90 0
86 96 0
72 82 0
84 96 0
96 109 0
85 96 0
81 93 0
79 89 0
82 94 0
83 95 0
95 105 0
93 106 0
89 100 0
105 118 0
92 102 0
93 107 0
84 95 0
96 108 0
100 112 0
102 114 0
96 107 0
116 126 0
99 113 0
92 104 0
91 105 0
100 112 0
95 106 0
102 115 0
111 122 0
114 128 0
115 127 0
117 130 0
112 125 0
113 127 0
124 136 0
118 130 0
118 130 0
123 138 0
123 134 0
126 137 0
114 127 0
103 114 0
119 132 0
109 121 0
118 132 0
125 137 0
124 136 0
119 130 0
119 133 0
121 135 0
125 138 0
125 137 0
128 140 0
130 140 0
123 133 0
125 137 0
115 126 0
129 140 0
127 137 0
127 138 0
122 134 0
129 141 0
126 137 0
127 136 0
131 139 0
114 121 0
126 136 0
128 137 0
128 136 0
129 136 0
129 139 0
124 131 0
127 135 0
130 136 0
125 131 0
123 131 0
119 125 0
112 116 0
119 123 0
117 121 0
119 123 0
117 118 0
124 128 0
116 118 0
127 128 0
110 111 0
113 112 0
96 95 0
117 117 0
114 113 0
109 113 0
103 101 0
109 105 0
101 95 0
110 106 0
83 77 0
90 87 0
69 60 0
83 74 0
85 75 0
91 82 0
97 87 0
80 76 0
96 86 0
102 93 0
101 91 0
100 92 0
101 93 11
96 87 0
107 97 0
108 99 0
107 98 0
109 102 0
109 100 0
101 92 0
115 107 0
105 96 15
110 102 0
113 104 0
123 113 0
122 115 0
116 108 0
111 105 0
115 107 0
115 110 15
123 116 0
116 111 0
123 116 0
115 108 15
125 118 0
120 111 20
124 117 15
119 111 0
119 112 0
128 121 20
123 118 0
121 113 0
126 118 20
127 119 20
120 114 0
121 113 25
130 123 28
130 123 28
119 112 15
127 121 15
130 123 20
119 112 15
123 117 20
115 109 25
135 126 28
122 116 20
133 126 31
124 117 28
128 123 31
129 121 31
130 123 15
136 129 36
139 133 41
130 123 31
136 129 34
135 130 31
132 125 39
138 130 31
119 112 25
128 122 31
123 115 31
131 126 34
125 119 20
134 125 43
126 119 31
130 124 31
125 118 25
137 131 39
133 129 34
127 121 28
130 123 28
128 122 41
135 129 31
135 130 39
133 126 31
131 124 36
136 130 48
130 124 39
128 121 41
133 128 36
123 118 36
132 127 39
135 129 46
131 124 31
130 124 31
137 131 41
125 119 45
128 122 46
133 127 43
123 116 41
127 121 43
127 120 45
115 109 39
138 132 46
127 120 43
190 209 128
189 209 120
188 208 111
182 204 71
180 202 52
178 200 43
182 203 52
182 203 52
179 201 65
181 203 31
180 202 52
180 201 59
180 201 43
182 203 43
179 201 52
179 201 59
179 200 59
182 203 43
180 201 31
180 202 59
178 199 0
181 202 0
179 200 0
175 196 0
179 200 0
176 198 0
179 200 0
181 201 0
178 199 0
178 199 0
179 200 0
181 201 31
174 195 0
179 200 0
176 197 0
178 199 0
180 201 0
181 201 0
177 197 0
171 193 0
177 198 0
180 201 0
177 198 0
177 197 0
179 199 0
179 200 0
175 196 31
179 199 0
177 196 0
174 194 0
179 199 0
182 202 0
179 199 0
175 196 0
178 198 0
176 197 0
180 200 0
177 197 0
176 196 0
175 195 0
175 195 0
178 198 0
177 197 0
178 197 31
176 196 0
177 198 0
178 197 0
180 200 0
177 197 0
174 195 0
176 196 0
174 194 0
175 195 0
176 195 0
179 200 0
175 194 0
175 195 0
175 195 0
174 194 0
169 188 0
172 193 31
174 193 0
173 192 0
174 193 31
171 190 0
173 193 0
171 190 0
166 185 0
169 188 0
174 193 0
165 185 0
174 194 52
171 190 59
169 189 43
169 188 31
176 196 52
171 190 59
170 190 71
169 189 52
171 191 59
171 189 71
172 192 31
168 188 0
171 190 0
166 186 0
169 189 0
169 189 0
168 188 0
171 190 0
166 186 0
161 181 0
163 183 0
167 187 0
165 185 0
165 184 0
166 185 0
166 186 0
161 181 0
162 182 0
163 184 0
168 188 0
163 183 0
161 180 0
163 183 0
164 184 0
164 184 0
159 179 0
160 182 0
160 179 0
162 182 0
152 172 0
164 184 0
153 173 0
166 186 0
158 179 0
152 171 0
165 185 0
162 181 0
156 177 0
155 175 0
155 176 0
149 169 0
161 182 0
153 173 0
153 173 0
153 172 0
155 176 0
142 163 0
149 169 0
146 166 0
151 171 0
136 156 0
142 162 0
145 164 0
147 166 0
142 161 0
149 167 0
138 157 0
143 162 0
134 153 0
133 153 0
131 150 0
137 156 0
138 158 0
141 160 0
127 146 0
130 148 0
130 148 0
126 144 0
124 142 0
114 132 0
125 143 0
123 142 0
139 156 0
124 141 0
116 133 0
116 132 0
117 134 0
122 138 0
111 127 0
109 125 0
107 122 0
98 114 0
109 124 0
102 118 0
113 128 0
104 119 0
113 127 0
111 124 0
101 115 0
99 113 0
97 111 0
88 102 0
91 104 0
94 108 0
93 106 0
95 108 0
85 97 0
97 111 0
90 102 0
88 100 0
89 101 0
86 99 0
96 108 0
100 113 0
94 107 0
85 99 0
107 120 0
95 107 0
90 102 0
100 111 0
104 117 0
95 108 0
97 109 0
94 106 0
98 111 0
95 107 0
97 110 0
116 129 0
98 111 0
107 118 0
101 112 0
102 114 0
93 105 0
111 125 0
105 119 0
97 111 0
105 118 0
107 120 0
116 130 0
114 127 0
110 123 0
119 134 0
127 140 0
119 132 0
117 128 0
124 140 0
115 127 0
124 137 0
120 135 0
127 141 0
126 140 0
124 137 0
125 139 0
128 141 0
126 139 0
119 133 0
126 140 0
121 134 0
121 134 0
125 137 0
136 148 0
136 147 0
127 138 0
116 125 0
129 142 0
133 144 0
127 138 0
132 144 0
135 144 0
125 136 0
127 136 0
132 144 0
133 142 0
133 145 0
123 135 0
125 135 0
133 141 0
126 134 0
119 126 0
121 129 0
134 139 0
130 137 0
133 143 0
108 117 0
106 112 0
121 127 0
126 134 0
121 127 0
119 126 0
110 113 0
106 107 0
115 117 0
125 127 0
118 120 0
110 112 0
117 119 0
124 124 0
111 106 0
121 122 0
105 104 0
101 98 0
109 106 0
106 104 0
115 115 0
92 86 0
101 98 0
94 89 0
98 97 0
78 68 0
77 68 0
85 76 0
81 71 0
92 83 0
98 87 0
97 87 0
91 83 0
109 96 0
94 85 15
111 101 0
100 93 0
97 89 0
111 104 0
97 86 0
107 100 0
111 103 0
108 100 0
102 95 0
107 98 0
108 100 0
111 103 15
113 103 0
108 102 15
121 113 0
107 98 0
115 110 0
111 103 0
123 116 0
128 120 20
112 105 15
132 124 0
116 108 0
115 108 15
114 109 15
119 111 0
125 117 20
127 119 15
129 121 20
118 112 20
125 118 20
120 114 25
120 112 0
128 121 28
127 121 15
128 121 20
125 120 20
122 116 20
127 121 15
127 120 28
130 124 25
125 117 20
133 126 28
128 121 20
118 112 25
133 125 28
116 110 28
131 123 15
130 123 15
124 117 25
135 129 28
139 133 31
132 126 28
132 126 34
123 117 25
126 119 25
124 118 20
124 117 25
128 120 31
132 126 25
119 112 20
131 125 34
133 124 34
131 125 41
137 131 48
124 117 28
122 116 20
126 121 25
134 127 41
133 127 45
130 122 46
129 123 46
130 124 41
130 123 36
127 121 36
129 124 36
128 122 41
131 124 48
134 127 46
123 118 36
119 112 31
124 117 41
120 114 34
123 117 43
118 112 41
129 123 50
128 123 48
125 119 34
108 102 41
124 117 39
131 130 43
178 201 0
183 204 65
183 204 97
194 213 138
192 211 138
189 209 117
183 204 65
179 200 43
183 204 52
180 202 31
178 200 31
181 202 43
180 202 31
180 202 52
181 203 43
180 202 65
180 201 52
180 201 31
180 201 43
177 200 0
183 204 43
178 199 52
180 201 43
178 199 59
177 198 0
178 199 0
177 198 0
178 199 0
182 203 0
179 200 0
177 198 0
179 199 0
174 196 0
180 200 0
178 200 0
179 200 0
174 195 0
179 200 0
177 198 0
179 200 0
182 202 31
180 200 0
182 201 0
178 198 0
176 197 0
179 199 0
178 198 0
179 199 0
179 199 0
179 199 0
178 198 0
179 198 0
175 195 0
174 195 0
178 197 0
178 198 0
179 199 0
180 200 0
176 197 0
174 194 0
174 193 0
176 196 0
174 194 0
173 193 0
175 195 0
177 197 0
175 195 0
174 194 0
176 196 0
177 197 0
172 191 0
172 191 0
175 195 0
176 196 0
176 196 0
172 192 0
168 188 31
178 197 0
177 195 0
176 195 0
170 189 0
172 191 0
177 197 0
176 195 0
170 191 0
173 193 31
174 194 0
176 195 52
169 188 43
171 191 31
174 193 43
172 192 43
171 191 43
168 188 52
177 197 65
173 193 52
177 196 71
169 188 65
178 196 71
174 194 0
171 190 0
173 193 0
168 187 0
167 187 0
171 190 0
171 191 0
171 190 0
169 189 0
170 190 0
169 189 0
167 186 0
165 186 0
162 183 0
158 177 0
165 186 0
163 183 0
165 186 0
166 185 0
160 180 0
171 191 0
168 188 0
162 182 0
160 180 0
159 178 0
161 180 0
161 180 0
161 181 0
163 183 0
160 180 0
159 179 0
158 178 0
157 177 0
159 179 0
153 173 0
155 175 0
164 183 0
156 177 0
152 172 0
153 173 0
146 166 0
152 173 0
152 172 0
154 174 0
154 175 0
153 174 0
149 169 0
154 174 0
154 175 0
147 168 0
151 171 0
147 167 0
155 175 0
142 162 0
144 164 0
142 161 0
148 167 0
149 168 0
148 168 0
151 170 0
136 156 0
138 156 0
138 155 0
141 161 0
140 160 0
141 160 0
123 141 0
131 150 0
127 145 0
131 149 0
126 143 0
137 156 0
128 146 0
126 143 0
120 137 0
128 146 0
115 131 0
114 131 0
120 137 0
122 140 0
123 141 0
120 137 0
108 125 0
97 113 0
96 111 0
116 132 0
91 106 0
115 131 0
108 123 0
105 119 0
100 114 0
105 118 0
91 106 0
105 119 0
100 115 0
94 108 0
89 104 0
97 110 0
102 115 0
100 113 0
93 107 0
97 111 0
88 101 0
96 110 0
98 112 0
104 119 0
79 91 0
92 105 0
99 112 0
95 110 0
91 104 0
103 116 0
102 116 0
101 114 0
97 110 0
105 118 0
103 116 0
109 121 0
103 117 0
97 109 0
100 111 0
107 122 0
102 114 0
102 115 0
86 100 0
104 115 0
101 111 0
115 128 0
103 115 0
101 115 0
123 138 0
118 130 0
102 116 0
87 102 0
119 134 0
121 135 0
123 138 0
129 142 0
133 148 0
121 135 0
115 127 0
126 138 0
130 143 0
114 128 0
119 132 0
127 140 0
127 140 0
129 141 0
132 145 0
130 143 0
123 136 0
131 141 0
128 138 0
123 135 0
133 145 0
134 148 0
118 130 0
133 147 0
137 149 0
129 141 0
128 139 0
133 144 0
130 142 0
122 131 0
133 146 0
122 132 0
128 138 0
123 133 0
134 145 0
131 141 0
123 132 0
127 136 0
120 129 0
131 140 0
127 132 0
122 128 0
127 133 0
134 143 0
128 136 0
127 133 0
118 123 0
118 122 0
111 114 0
112 114 0
125 130 0
126 130 0
123 125 0
128 133 0
124 127 0
121 120 0
111 108 0
109 110 0
97 98 0
105 102 0
103 100 0
108 107 0
97 92 0
97 96 0
88 85 0
101 97 0
100 93 0
106 101 0
83 79 0
84 77 0
86 79 0
93 82 0
94 85 0
89 79 0
94 87 0
96 86 0
107 99 0
99 90 0
103 94 0
114 104 0
115 105 0
112 102 0
105 96 0
106 99 0
106 97 0
108 96 15
103 95 0
107 100 0
112 103 0
115 105 15
112 104 15
113 105 0
121 114 0
115 106 0
105 98 0
118 108 0
114 105 0
120 113 0
125 116 20
108 101 0
125 118 0
122 116 15
120 114 15
118 111 20
124 116 20
123 117 0
118 110 15
114 106 15
124 116 15
123 115 25
116 109 15
117 111 20
131 124 20
128 120 31
119 111 15
126 119 20
126 120 20
119 112 15
125 118 15
128 120 31
121 114 28
123 118 25
133 126 31
132 126 20
125 119 20
122 115 28
132 126 34
126 119 20
131 124 31
125 120 28
127 119 28
129 124 39
122 116 28
129 122 39
122 115 25
127 120 36
122 115 20
130 123 34
125 117 36
123 116 34
131 124 41
131 125 34
124 117 41
135 130 36
122 115 45
128 122 25
128 122 25
124 117 34
131 124 41
120 113 31
124 117 39
133 126 39
113 107 39
134 127 28
130 122 43
116 110 28
134 127 41
113 108 36
118 112 39
132 125 48
115 108 41
128 122 46
126 119 43
124 120 43
150 158 41
170 186 28
175 194 0
179 201 0
179 200 0
178 200 0
180 202 0
182 203 65
189 209 125
195 213 143
194 213 150
188 207 108
183 204 52
180 201 52
181 202 43
180 202 52
180 202 59
183 204 43
178 199 0
181 202 43
181 203 43
178 200 0
181 202 65
178 199 31
179 200 43
180 201 43
181 202 59
181 201 76
179 201 31
176 197 43
181 202 59
182 202 31
177 198 31
179 200 0
181 202 0
180 201 0
181 202 31
179 200 0
182 202 0
178 199 0
180 200 0
178 198 0
181 201 0
177 197 0
180 200 0
176 197 0
176 197 31
179 199 31
183 203 0
177 196 0
179 199 0
182 202 0
178 198 0
176 196 0
176 197 0
180 200 0
178 198 0
180 200 0
178 197 0
177 197 0
174 194 0
176 196 0
178 197 0
178 198 0
176 196 0
180 199 0
177 197 0
179 198 31
177 197 0
178 198 0
178 198 31
173 193 0
175 195 0
177 197 0
181 200 0
178 197 0
176 195 0
174 194 0
172 193 0
179 198 0
172 192 31
171 191 31
170 190 0
177 197 0
178 197 31
176 195 0
177 196 31
172 191 65
173 192 43
170 190 31
168 188 52
173 193 52
170 190 0
173 192 59
175 194 52
179 197 93
169 190 59
178 197 81
166 186 52
171 190 0
165 186 0
163 183 0
168 187 0
171 190 0
169 188 0
167 187 0
167 186 0
162 182 0
170 190 0
176 194 0
164 184 0
163 183 0
167 187 0
164 184 0
161 181 0
171 191 0
173 193 0
164 185 0
162 183 0
168 188 0
167 187 0
163 183 0
168 188 0
151 171 0
163 182 0
158 178 0
167 188 0
164 184 0
163 184 0
155 175 0
162 182 0
154 175 0
167 187 0
151 172 0
160 180 0
162 183 0
161 181 0
156 176 0
151 170 0
149 169 0
149 169 0
149 170 0
158 178 0
157 177 0
150 170 0
154 174 0
154 175 0
163 183 0
146 166 0
155 175 0
154 174 0
146 167 0
145 165 0
156 176 0
150 169 0
140 160 0
146 167 0
146 165 0
136 155 0
148 168 0
144 163 0
154 173 0
136 156 0
137 157 0
142 162 0
142 161 0
134 153 0
132 150 0
137 155 0
133 152 0
135 154 0
125 143 0
134 153 0
125 144 0
126 143 0
131 150 0
117 134 0
125 142 0
121 138 0
121 139 0
114 132 0
119 135 0
94 110 0
125 142 0
118 133 0
119 136 0
114 131 0
105 122 0
108 124 0
115 130 0
105 122 0
118 134 0
113 128 0
115 130 0
106 121 0
103 118 0
110 123 0
110 125 0
95 109 0
76 90 0
107 121 0
108 122 0
91 106 0
94 107 0
114 128 0
103 116 0
85 99 0
115 130 0
91 104 0
113 127 0
100 113 0
106 121 0
95 110 0
98 111 0
110 124 0
106 118 0
104 118 0
90 103 0
93 105 0
107 122 0
108 122 0
101 115 0
109 123 0
98 110 0
110 124 0
104 118 0
114 126 0
118 133 0
111 124 0
111 126 0
128 143 0
122 137 0
123 137 0
109 124 0
124 138 0
126 141 0
113 128 0
123 136 0
119 134 0
112 125 0
121 135 0
112 127 0
123 137 0
108 121 0
122 136 0
122 134 0
127 142 0
126 139 0
129 142 0
128 143 0
128 143 0
123 136 0
135 148 0
119 131 0
131 144 0
130 141 0
127 139 0
135 150 0
120 132 0
137 149 0
131 144 0
129 137 0
130 144 0
141 151 0
135 146 0
114 127 0
130 142 0
134 146 0
127 138 0
129 139 0
132 141 0
122 131 0
127 136 0
134 145 0
126 134 0
123 132 0
127 134 0
129 138 0
130 138 0
137 145 0
123 130 0
126 131 0
130 135 0
112 117 0
115 118 0
107 108 0
121 126 0
115 119 0
115 118 0
117 118 0
108 110 0
116 118 0
108 108 0
121 122 0
119 118 0
110 110 0
111 111 0
109 105 0
101 97 0
98 95 0
99 100 0
100 99 0
96 91 0
104 103 0
75 68 0
85 75 0
85 78 0
77 68 0
84 76 0
86 79 0
98 89 0
91 77 0
94 85 0
96 86 0
100 89 0
97 88 0
105 95 0
92 83 0
106 95 0
100 92 0
104 93 0
110 101 0
114 107 0
100 91 0
114 106 0
109 100 15
106 99 0
102 95 0
107 97 0
110 100 0
109 101 0
119 110 0
104 95 0
120 115 0
112 104 0
114 107 15
113 106 0
129 123 20
122 114 15
116 109 0
114 106 20
109 101 0
108 101 0
114 105 15
121 114 31
122 114 20
121 113 20
124 117 20
124 117 28
118 112 34
124 117 0
121 115 15
127 118 15
120 112 15
135 128 25
130 122 25
122 115 20
118 112 28
117 112 15
129 120 28
133 125 28
125 117 25
134 127 20
125 118 34
132 127 34
133 124 34
124 119 15
120 114 25
121 113 28
125 119 31
132 124 43
125 118 34
134 127 39
130 121 28
130 125 31
125 117 31
132 124 39
123 116 28
130 123 52
129 122 31
127 119 41
125 118 39
123 118 25
129 121 34
127 121 31
132 125 46
128 123 45
124 119 41
120 114 39
123 117 41
132 125 46
114 108 41
124 118 45
127 120 43
115 109 31
121 115 43
136 135 43
143 149 34
167 180 20
174 191 0
174 192 0
177 196 0
176 194 0
178 200 0
178 200 0
178 201 0
179 201 0
178 201 0
179 201 0
179 201 0
179 200 31
186 206 101
189 209 133
190 209 133
188 208 114
180 201 71
180 200 52
181 201 52
182 203 43
180 202 31
183 204 52
180 202 0
180 201 31
178 200 43
181 202 59
183 203 81
179 200 65
183 203 59
179 200 59
184 205 85
181 202 0
182 202 65
182 202 43
179 198 59
180 200 31
180 201 43
178 198 31
177 198 31
176 198 0
177 198 0
182 203 0
181 201 0
180 200 0
181 200 0
179 200 0
180 200 31
177 197 0
176 197 0
177 198 0
179 200 0
179 199 0
182 201 0
178 198 31
178 198 0
179 198 0
180 200 0
181 200 0
180 200 0
176 196 0
178 198 0
179 199 31
174 194 0
177 197 0
175 195 0
178 198 0
173 193 0
174 194 0
176 196 0
178 197 0
180 199 0
179 198 0
174 194 0
175 195 0
175 194 0
178 199 0
180 200 0
175 194 0
176 196 0
175 195 0
176 197 31
170 191 0
176 195 43
176 194 65
177 196 52
174 193 43
174 194 31
173 193 65
172 192 43
180 199 52
170 190 43
171 190 43
172 191 43
178 197 59
176 196 59
173 193 65
173 193 52
167 186 0
167 187 0
172 191 0
171 191 0
173 193 0
170 190 0
169 189 0
173 193 0
171 191 0
169 189 0
170 190 0
162 181 0
165 184 0
168 188 0
165 185 0
164 184 0
170 189 0
168 187 0
161 181 0
166 185 0
163 182 0
162 183 0
167 187 0
167 187 0
162 182 0
160 180 0
165 185 0
160 180 0
164 184 0
162 182 0
172 192 0
166 186 0
161 182 0
161 182 0
162 183 0
159 179 0
162 183 0
157 178 0
155 176 0
157 177 0
153 173 0
160 179 0
157 178 0
153 174 0
158 179 0
153 175 0
154 175 0
155 176 0
152 173 0
157 177 0
151 172 0
154 174 0
152 172 0
151 170 0
153 174 0
147 168 0
143 163 0
147 167 0
139 159 0
142 162 0
147 168 0
147 167 0
148 167 0
142 162 0
149 169 0
140 158 0
142 162 0
138 158 0
135 154 0
138 157 0
142 160 0
126 145 0
135 152 0
137 156 0
128 147 0
139 158 0
127 146 0
128 146 0
133 151 0
140 158 0
135 154 0
125 142 0
132 150 0
131 147 0
119 136 0
113 130 0
110 127 0
127 145 0
125 143 0
124 141 0
118 134 0
118 135 0
111 129 0
119 135 0
107 125 0
113 129 0
95 112 0
101 118 0
114 130 0
109 124 0
111 126 0
119 132 0
112 127 0
111 127 0
110 125 0
105 120 0
98 114 0
102 117 0
109 122 0
103 117 0
106 120 0
108 123 0
100 115 0
108 123 0
113 129 0
94 110 0
100 114 0
111 125 0
98 111 0
111 124 0
106 118 0
114 128 0
102 115 0
107 121 0
106 119 0
98 113 0
109 124 0
126 141 0
102 116 0
125 140 0
108 123 0
114 128 0
109 122 0
109 123 0
118 134 0
116 130 0
115 130 0
107 119 0
114 128 0
115 131 0
123 138 0
127 141 0
123 136 0
126 141 0
116 130 0
123 138 0
122 134 0
118 131 0
128 141 0
130 145 0
131 146 0
130 144 0
121 134 0
122 135 0
132 148 0
130 145 0
124 136 0
115 129 0
135 149 0
128 140 0
129 141 0
138 150 0
120 133 0
126 137 0
124 137 0
127 137 0
132 146 0
136 145 0
135 146 0
131 141 0
126 137 0
135 146 0
128 140 0
112 120 0
130 141 0
134 143 0
130 140 0
132 141 0
146 155 0
139 146 0
127 136 0
130 136 0
126 135 0
131 140 0
126 131 0
128 135 0
127 134 0
140 147 0
125 129 0
117 124 0
127 133 0
114 116 0
126 130 0
128 133 0
110 114 0
116 118 0
114 112 0
126 127 0
108 106 0
112 113 0
116 115 0
109 109 0
109 106 0
116 116 0
113 111 0
103 102 0
105 103 0
88 82 0
103 96 0
96 90 0
96 93 0
86 76 0
74 69 0
95 92 0
77 66 0
82 74 0
74 65 0
86 74 0
84 72 0
87 76 0
97 85 0
96 86 0
98 86 0
109 98 0
104 95 0
104 95 0
101 94 0
96 86 0
98 88 0
107 96 0
115 104 0
104 95 0
115 107 15
113 103 0
103 93 0
115 106 0
112 103 15
106 97 0
105 98 0
105 97 0
115 107 15
109 101 0
123 114 0
114 105 15
114 106 20
122 113 0
121 113 20
114 106 25
118 109 15
126 118 20
125 117 20
120 112 20
116 108 0
123 116 31
125 117 20
123 116 15
118 111 20
119 111 15
121 114 28
123 114 28
128 121 34
132 124 39
119 112 25
122 113 25
133 126 25
124 115 20
125 118 34
124 115 25
115 107 25
120 111 34
127 120 36
127 118 20
129 121 36
125 117 34
121 116 20
122 116 28
129 121 28
116 109 31
124 117 25
118 111 31
123 117 39
122 114 31
126 118 20
122 114 39
115 110 34
120 114 34
124 116 31
124 118 39
121 113 20
123 117 39
119 112 39
116 109 34
113 108 28
126 119 43
131 125 48
117 111 34
110 104 31
132 133 34
154 165 20
165 180 15
174 192 0
172 190 0
172 190 0
176 195 0
175 194 0
176 195 0
176 193 0
182 203 0
180 202 0
180 202 0
178 200 0
179 201 0
178 200 0
177 199 0
178 200 0
180 202 0
176 198 0
180 201 31
184 205 81
187 207 104
194 212 143
191 210 136
183 204 89
181 202 85
185 205 59
182 204 52
180 201 43
182 203 52
181 202 43
176 199 31
180 202 43
179 200 65
177 198 43
180 201 43
180 201 59
180 200 52
180 201 31
177 198 43
182 203 59
180 200 0
183 204 52
179 200 43
178 199 0
181 201 31
179 199 31
180 200 59
180 199 43
178 198 0
180 201 43
179 199 0
181 201 0
177 197 0
179 199 0
178 198 0
181 200 0
177 197 0
180 199 0
172 193 0
178 199 0
178 198 0
177 197 0
179 199 0
175 195 0
179 199 0
177 196 43
178 198 0
173 193 0
174 194 31
177 197 31
177 197 0
178 199 0
178 198 0
179 198 0
176 195 0
182 201 43
179 198 31
177 197 43
174 194 31
178 198 31
177 197 52
174 193 0
175 194 59
174 194 31
179 198 52
171 191 31
175 195 43
178 197 52
173 193 31
172 191 52
176 196 52
174 194 31
170 191 43
172 192 31
171 191 65
176 194 52
178 198 59
173 193 31
168 188 0
172 190 0
176 194 0
170 190 0
169 189 0
166 187 0
173 193 0
170 189 0
170 190 0
167 187 0
173 192 0
169 189 0
169 189 0
164 185 0
168 187 0
171 190 0
168 188 0
158 178 0
169 189 0
162 181 0
171 191 0
166 186 0
161 182 0
163 183 0
167 188 0
161 181 0
167 186 0
160 180 0
160 180 0
165 185 0
167 188 0
167 187 0
161 181 0
162 182 0
154 175 0
154 174 0
165 186 0
159 179 0
153 173 0
159 178 0
159 180 0
162 182 0
161 181 0
161 181 0
152 172 0
157 177 0
161 182 0
152 172 0
149 170 0
155 176 0
158 178 0
159 180 0
149 169 0
155 175 0
153 173 0
148 168 0
146 166 0
147 166 0
145 165 0
153 172 0
146 166 0
155 175 0
143 163 0
151 171 0
150 169 0
139 159 0
147 166 0
150 170 0
131 153 0
141 161 0
142 162 0
140 160 0
137 156 0
129 150 0
148 168 0
133 152 0
131 151 0
130 150 0
127 145 0
139 157 0
126 144 0
126 145 0
130 148 0
126 144 0
132 149 0
125 143 0
124 142 0
126 144 0
132 151 0
132 149 0
130 147 0
124 142 0
106 124 0
118 136 0
112 129 0
108 125 0
121 138 0
116 133 0
111 127 0
101 118 0
110 126 0
121 138 0
123 139 0
112 128 0
104 120 0
109 125 0
109 125 0
109 126 0
110 125 0
114 130 0
110 126 0
113 127 0
110 124 0
111 124 0
110 125 0
112 128 0
108 121 0
109 123 0
107 121 0
110 126 0
117 131 0
102 117 0
106 121 0
115 130 0
110 127 0
112 127 0
113 127 0
115 130 0
110 126 0
123 140 0
119 134 0
120 135 0
123 138 0
120 133 0
117 131 0
128 144 0
122 138 0
125 141 0
110 125 0
115 130 0
118 131 0
125 139 0
117 132 0
126 142 0
118 130 0
119 134 0
121 137 0
124 139 0
133 148 0
111 124 0
121 134 0
131 146 0
124 138 0
121 136 0
133 147 0
131 147 0
142 155 0
137 151 0
132 143 0
128 142 0
133 147 0
129 141 0
131 143 0
129 143 0
131 145 0
124 137 0
136 150 0
124 137 0
132 147 0
126 138 0
137 148 0
130 143 0
134 148 0
136 147 0
129 139 0
131 140 0
128 140 0
139 150 0
132 143 0
130 142 0
130 139 0
137 145 0
123 131 0
127 138 0
137 145 0
132 140 0
125 135 0
123 131 0
134 141 0
126 132 0
123 130 0
126 132 0
122 125 0
124 130 0
116 118 0
129 138 0
123 127 0
124 128 0
107 108 0
112 116 0
122 125 0
116 117 0
128 130 0
116 117 0
117 117 0
108 108 0
112 109 0
105 105 0
119 120 0
111 107 0
108 106 0
110 110 0
111 108 0
108 104 0
90 84 0
96 91 0
99 93 0
93 85 0
91 83 0
97 89 0
88 81 0
74 69 0
84 73 0
74 66 0
91 81 0
85 72 0
100 89 0
100 91 0
87 76 0
96 84 0
101 91 0
105 95 0
104 94 0
98 89 0
118 108 0
100 92 0
103 94 0
102 93 0
114 105 0
104 94 0
101 91 0
113 105 15
105 97 0
110 101 15
118 109 15
109 98 0
113 105 25
123 112 0
116 108 15
117 109 20
110 102 20
118 109 20
120 110 15
117 110 20
130 121 25
110 101 15
115 108 0
117 110 20
124 115 20
120 113 20
119 112 15
124 115 25
120 111 20
116 108 20
112 106 0
122 114 25
123 115 25
116 108 20
127 120 20
119 113 20
124 115 20
124 117 25
121 112 25
118 111 28
126 119 39
120 111 31
125 118 25
129 120 36
120 113 34
130 122 28
127 119 31
125 117 39
109 101 20
123 116 39
121 116 34
124 117 31
125 116 41
117 109 15
123 116 31
124 118 39
124 117 39
117 111 31
121 114 31
111 104 31
125 119 36
118 112 34
122 116 39
136 143 28
153 166 20
168 185 15
177 195 0
172 188 0
173 191 0
173 192 0
172 189 0
175 193 0
172 190 0
173 190 0
169 189 0
172 191 0
178 200 0
180 202 0
178 200 0
180 202 0
179 201 0
180 202 0
178 200 0
180 202 0
178 200 0
176 198 0
180 202 0
180 201 0
179 201 0
182 203 0
179 200 52
180 202 65
187 207 101
192 211 125
190 210 128
186 207 104
185 205 89
181 203 43
180 201 0
180 201 59
177 199 31
182 203 65
181 203 52
180 201 59
176 197 0
179 200 43
180 201 65
182 202 71
182 202 43
181 202 43
182 202 65
182 201 71
181 201 52
179 200 43
180 201 59
182 202 52
176 197 52
181 201 59
182 203 65
178 198 43
180 200 43
179 200 52
180 199 43
179 199 43
177 197 31
177 196 31
179 199 31
183 202 52
181 200 43
178 198 52
177 198 31
180 199 43
179 199 31
176 195 52
178 197 43
181 200 65
174 193 52
174 194 0
179 198 43
179 198 0
176 196 0
181 200 52
175 194 59
179 198 52
178 198 31
176 196 43
181 200 52
178 197 31
177 196 31
177 196 59
179 198 31
175 195 31
177 196 65
176 195 0
178 198 0
173 192 52
169 190 43
176 195 65
179 198 81
175 194 59
179 198 76
172 192 31
174 193 0
175 195 0
173 193 0
172 191 0
171 191 0
169 189 0
175 194 0
175 196 0
168 188 0
164 183 0
170 190 0
171 190 0
175 194 0
165 185 0
174 194 0
173 193 0
163 183 0
167 187 0
166 186 0
164 183 0
166 186 0
162 183 0
164 184 0
168 188 0
166 186 0
162 182 0
158 178 0
167 187 0
160 181 0
165 186 0
168 187 0
166 186 0
161 181 0
167 187 0
161 182 0
164 184 0
161 182 0
155 175 0
162 183 0
154 175 0
163 183 0
159 179 0
160 180 0
156 177 0
156 177 0
150 170 0
159 179 0
159 179 0
158 179 0
159 178 0
163 184 0
158 178 0
155 176 0
158 179 0
155 176 0
146 167 0
160 181 0
156 177 0
145 165 0
151 171 0
152 171 0
154 174 0
155 175 0
150 171 0
155 176 0
147 167 0
151 171 0
143 163 0
147 166 0
142 162 0
146 166 0
141 160 0
148 167 0
142 161 0
142 162 0
150 170 0
135 155 0
145 165 0
139 159 0
138 156 0
137 155 0
123 141 0
134 153 0
144 162 0
130 149 0
138 156 0
129 148 0
128 146 0
132 150 0
134 151 0
131 150 0
129 149 0
120 138 0
129 145 0
125 143 0
118 136 0
123 140 0
115 133 0
110 127 0
114 131 0
120 137 0
127 143 0
119 136 0
118 135 0
125 142 0
116 132 0
112 127 0
106 120 0
119 135 0
111 127 0
108 123 0
123 140 0
122 140 0
102 119 0
119 135 0
108 125 0
106 121 0
117 133 0
113 129 0
108 124 0
111 126 0
109 125 0
121 137 0
121 136 0
120 135 0
119 135 0
114 129 0
111 126 0
114 129 0
119 132 0
120 135 0
108 123 0
116 131 0
112 128 0
125 139 0
122 137 0
127 142 0
128 144 0
115 130 0
122 136 0
113 128 0
126 142 0
116 130 0
130 146 0
125 139 0
118 132 0
117 131 0
120 134 0
131 146 0
126 141 0
119 132 0
127 142 0
121 136 0
125 139 0
127 142 0
117 130 0
123 137 0
121 136 0
126 139 0
120 133 0
124 139 0
127 141 0
140 154 0
132 147 0
141 154 0
134 147 0
132 145 0
126 142 0
132 147 0
133 147 0
138 151 0
124 136 0
138 150 0
139 149 0
138 152 0
132 145 0
134 149 0
135 145 0
125 136 0
131 141 0
125 137 0
132 142 0
140 152 0
138 149 0
124 133 0
135 145 0
128 135 0
130 139 0
133 142 0
133 140 0
131 137 0
124 131 0
126 133 0
125 132 0
123 131 0
126 132 0
125 131 0
127 133 0
121 125 0
136 145 0
123 129 0
128 135 0
123 127 0
124 128 0
118 122 0
118 118 0
117 118 0
123 124 0
127 127 0
109 109 0
116 115 0
110 109 0
114 112 0
100 99 0
109 107 0
107 104 0
105 105 0
109 107 0
111 105 0
112 113 0
104 102 0
97 92 0
88 81 0
95 87 0
82 73 0
87 81 0
101 97 0
85 79 0
88 80 0
84 78 0
89 77 0
83 73 0
90 79 0
83 73 0
95 85 0
101 90 0
100 90 0
96 87 0
111 99 0
96 87 0
106 96 15
104 92 0
104 95 15
108 99 15
101 94 0
92 84 0
108 98 0
106 96 15
113 104 15
105 95 0
119 109 20
106 98 20
118 110 0
110 99 0
113 104 0
107 100 0
118 110 20
114 105 28
119 112 0
121 114 20
113 104 28
115 107 20
116 108 15
119 112 28
113 106 15
126 116 25
117 109 20
115 107 28
117 110 15
110 103 25
124 116 25
123 114 20
117 110 28
119 113 25
121 112 28
120 113 28
123 114 31
122 115 36
125 118 28
112 105 0
130 123 25
119 111 31
126 118 31
132 124 34
116 110 34
121 112 41
122 116 28
118 112 25
126 119 28
114 105 25
118 110 34
112 106 31
105 99 15
120 112 34
122 115 36
114 107 28
124 120 31
135 137 31
147 154 20
165 181 0
171 187 0
175 192 0
170 186 0
176 192 0
171 188 0
177 194 0
167 184 0
173 190 0
171 188 0
172 190 0
173 191 0
173 191 0
175 192 0
173 190 0
178 201 0
177 200 0
176 198 0
180 202 0
178 201 0
177 199 0
177 199 0
181 202 0
180 201 0
176 197 0
176 198 0
178 200 0
179 200 0
179 200 0
177 199 0
179 200 0
177 199 0
178 200 0
180 202 31
181 202 52
188 208 108
188 207 108
190 209 123
190 209 120
185 206 111
184 204 89
180 202 59
180 201 31
177 198 0
181 202 43
182 203 59
181 202 65
179 200 31
181 202 43
182 202 52
178 199 0
179 199 59
176 197 31
180 201 0
179 198 43
180 201 71
179 200 43
182 202 65
178 199 52
181 201 85
180 199 59
180 199 59
179 198 65
185 205 65
182 202 52
179 199 43
178 198 52
180 198 71
178 197 43
179 198 52
180 200 59
180 199 52
180 198 52
178 198 52
181 200 43
178 197 52
175 194 31
181 201 31
180 200 52
180 198 52
179 199 43
182 201 52
176 194 43
177 196 52
177 196 43
175 195 0
171 191 31
176 196 52
179 197 31
174 194 31
176 196 59
180 199 65
177 196 71
177 196 65
181 200 71
170 190 52
177 196 59
175 194 0
178 198 0
171 191 0
171 191 0
170 190 0
171 190 0
170 190 0
172 192 0
174 194 0
169 188 0
168 189 0
170 189 0
173 193 0
168 188 0
173 192 0
169 188 0
166 186 0
176 195 0
164 184 0
170 190 0
166 186 0
167 187 0
171 191 0
165 186 0
162 182 0
169 187 0
168 188 0
162 183 0
161 181 0
168 188 0
170 190 0
162 183 0
155 175 0
163 182 0
166 186 0
168 189 0
161 180 0
164 184 0
159 179 0
156 176 0
161 181 0
161 181 0
161 181 0
156 176 0
165 185 0
164 185 0
156 178 0
158 179 0
164 184 0
159 180 0
161 180 0
160 181 0
150 171 0
160 180 0
162 181 0
151 171 0
151 171 0
159 180 0
153 174 0
147 168 0
152 171 0
157 178 0
148 168 0
152 173 0
152 173 0
150 171 0
145 165 0
149 169 0
148 169 0
152 172 0
150 171 0
141 160 0
144 164 0
147 167 0
156 176 0
149 169 0
137 157 0
143 162 0
142 163 0
149 169 0
136 154 0
144 164 0
130 149 0
145 164 0
133 153 0
139 157 0
134 153 0
149 168 0
136 155 0
131 150 0
133 153 0
132 152 0
128 147 0
137 156 0
124 143 0
126 145 0
129 148 0
130 148 0
119 137 0
115 133 0
125 142 0
124 141 0
124 142 0
127 145 0
110 129 0
119 136 0
124 141 0
124 142 0
127 142 0
121 139 0
122 138 0
117 134 0
119 137 0
107 125 0
116 134 0
111 128 0
118 135 0
115 132 0
115 131 0
119 134 0
119 135 0
118 134 0
117 133 0
123 138 0
110 125 0
126 143 0
119 135 0
122 138 0
120 136 0
121 136 0
107 123 0
118 132 0
117 134 0
115 131 0
122 138 0
118 132 0
128 144 0
113 128 0
114 131 0
119 134 0
110 125 0
121 137 0
118 134 0
118 132 0
130 144 0
112 128 0
128 144 0
122 136 0
134 148 0
126 141 0
114 130 0
117 130 0
122 137 0
116 129 0
127 144 0
122 137 0
123 138 0
118 133 0
143 159 0
132 146 0
138 153 0
129 144 0
131 146 0
132 147 0
132 146 0
126 139 0
137 152 0
135 147 0
132 145 0
127 141 0
129 143 0
140 154 0
139 154 0
128 140 0
142 157 0
132 146 0
137 151 0
141 155 0
136 148 0
139 154 0
143 155 0
137 150 0
130 142 0
139 151 0
128 141 0
143 155 0
142 152 0
130 142 0
131 144 0
135 147 0
136 147 0
121 130 0
131 140 0
137 144 0
138 148 0
140 151 0
133 141 0
132 142 0
126 134 0
125 134 0
127 137 0
135 141 0
127 133 0
114 122 0
127 133 0
128 135 0
129 135 0
119 121 0
132 138 0
132 138 0
127 130 0
120 123 0
124 124 0
116 120 0
113 116 0
116 119 0
117 117 0
108 108 0
119 119 0
116 114 0
111 112 0
114 112 0
109 108 0
111 105 0
114 112 0
107 106 0
108 103 0
101 99 0
115 112 0
91 89 0
99 94 0
102 95 0
88 81 0
104 99 0
93 85 0
85 80 0
105 97 0
89 78 0
86 78 0
80 74 0
82 72 0
74 65 0
105 96 0
90 79 0
109 99 0
101 89 0
102 91 0
104 95 0
101 92 0
99 90 0
113 103 15
96 87 0
112 101 0
110 101 0
110 99 20
107 99 15
111 102 0
106 97 20
106 96 0
112 104 20
112 104 20
105 95 15
112 103 0
102 93 20
111 101 0
112 104 15
106 98 28
115 107 15
110 102 20
129 120 25
101 93 20
114 105 20
106 98 20
122 113 31
119 110 20
114 105 0
122 112 31
126 118 34
109 101 15
122 113 25
114 106 28
122 116 25
124 116 39
128 120 41
113 107 25
112 105 25
121 113 25
119 111 31
119 111 28
116 109 28
118 110 31
122 116 41
115 107 31
117 108 39
113 106 34
112 108 28
133 133 25
143 148 20
154 162 31
167 181 15
168 184 0
170 182 0
167 181 0
169 184 0
172 188 0
171 184 0
169 184 0
172 189 0
172 188 0
174 191 0
172 187 0
169 185 0
168 184 0
175 191 0
171 188 0
177 193 0
172 189 0
173 192 0
180 202 0
178 199 0
177 199 0
180 202 0
179 201 0
180 202 0
181 203 0
178 201 0
179 200 0
178 199 0
180 200 0
178 199 0
178 200 0
177 200 0
181 202 0
179 200 0
176 198 0
178 200 0
174 196 0
181 202 0
179 200 0
178 199 0
180 200 0
178 199 0
184 205 81
187 206 101
191 210 128
188 207 108
187 207 123
186 205 108
183 204 89
185 205 89
180 201 71
181 201 0
178 200 52
181 202 65
182 203 31
179 200 65
179 200 0
178 200 43
182 202 59
182 202 59
180 200 71
178 199 65
183 203 65
178 199 31
182 202 43
181 202 59
181 202 31
181 201 43
179 199 0
179 199 52
182 202 65
177 197 31
180 200 59
181 200 43
179 199 43
180 201 31
181 200 31
181 201 59
180 199 65
177 197 52
180 199 52
183 202 59
174 194 59
182 201 76
181 200 65
176 197 43
175 195 0
179 198 31
177 197 76
182 201 89
182 202 93
184 202 76
182 201 81
178 197 59
174 193 31
171 190 0
173 192 0
176 196 0
175 195 0
173 193 0
170 190 0
180 199 0
170 189 0
172 192 0
170 191 0
171 190 0
175 195 0
178 197 0
179 198 0
174 195 0
171 190 0
171 190 0
164 184 0
163 184 0
168 188 0
166 185 0
163 183 0
174 194 0
163 184 0
163 183 0
173 193 0
171 191 0
165 185 0
157 177 0
168 188 0
168 187 0
162 182 0
162 182 0
164 184 0
162 182 0
164 183 0
161 182 0
160 181 0
164 184 0
165 185 0
168 188 0
160 181 0
163 183 0
160 181 0
159 179 0
158 178 0
157 177 0
164 184 0
160 181 0
157 177 0
157 177 0
167 187 0
155 176 0
154 175 0
158 178 0
156 178 0
158 179 0
155 176 0
157 178 0
159 180 0
157 177 0
153 174 0
155 175 0
148 168 0
162 182 0
162 183 0
146 167 0
146 167 0
149 169 0
150 171 0
156 177 0
150 171 0
153 173 0
142 162 0
152 171 0
146 166 0
134 154 0
144 164 0
154 175 0
138 157 0
149 169 0
145 166 0
149 169 0
140 160 0
136 155 0
133 153 0
147 167 0
142 161 0
146 164 0
151 171 0
144 162 0
139 158 0
137 156 0
131 151 0
137 156 0
141 159 0
144 163 0
142 161 0
134 151 0
130 147 0
133 152 0
131 151 0
128 146 0
138 156 0
122 139 0
130 149 0
127 145 0
137 155 0
118 135 0
125 142 0
117 136 0
116 132 0
126 144 0
112 129 0
124 141 0
126 143 0
121 138 0
123 138 0
104 121 0
121 140 0
128 146 0
128 145 0
110 126 0
123 139 0
116 132 0
126 144 0
119 134 0
121 138 0
123 138 0
120 136 0
120 136 0
111 127 0
115 131 0
116 132 0
115 131 0
129 145 0
111 127 0
124 138 0
119 133 0
120 134 0
116 132 0
117 133 0
119 136 0
135 149 0
116 131 0
125 141 0
121 137 0
138 153 0
118 132 0
129 146 0
124 139 0
125 141 0
130 144 0
120 135 0
129 145 0
130 147 0
132 146 0
130 146 0
127 144 0
128 144 0
119 134 0
124 140 0
135 149 0
127 142 0
132 146 0
127 143 0
120 136 0
121 135 0
141 158 0
137 153 0
131 147 0
131 148 0
132 145 0
134 149 0
139 152 0
118 134 0
130 142 0
134 149 0
137 151 0
136 149 0
132 145 0
132 146 0
130 141 0
143 155 0
147 162 0
135 148 0
141 154 0
133 146 0
128 141 0
127 137 0
128 141 0
146 158 0
136 149 0
137 149 0
126 137 0
123 134 0
141 152 0
136 147 0
135 146 0
135 144 0
130 137 0
128 137 0
126 136 0
135 146 0
125 133 0
134 145 0
122 130 0
121 127 0
131 137 0
129 136 0
129 136 0
135 143 0
125 131 0
123 127 0
132 139 0
128 133 0
135 139 0
126 130 0
134 138 0
128 133 0
126 127 0
125 128 0
114 116 0
124 127 0
124 125 0
119 118 0
120 120 0
110 108 0
122 124 0
107 105 0
108 105 0
123 123 0
106 103 0
108 106 0
120 114 0
104 101 0
109 102 0
114 112 0
101 95 0
108 105 0
105 99 0
99 93 0
105 99 0
97 89 0
107 102 0
99 91 0
91 83 0
90 79 0
98 92 0
93 84 0
102 95 20
97 86 15
99 88 0
94 82 0
100 92 15
90 79 15
94 87 15
102 92 0
99 91 0
105 96 15
104 96 0
103 92 15
113 103 0
112 103 20
105 96 0
97 85 20
114 105 0
112 102 20
91 82 0
112 102 15
108 100 20
99 90 0
110 103 20
110 102 28
111 102 15
116 108 15
107 100 28
122 112 28
113 106 15
124 114 28
121 112 28
118 110 28
122 114 28
118 109 20
118 110 15
115 108 31
108 101 25
122 112 34
110 101 20
124 116 31
116 107 34
104 99 15
116 106 25
124 116 39
124 116 25
130 128 28
132 136 15
143 147 25
155 164 15
161 173 0
163 172 0
172 186 0
164 177 0
171 186 0
165 176 0
165 178 0
174 189 0
169 181 0
169 181 0
176 191 0
168 183 0
169 185 0
170 186 0
172 186 0
174 191 0
170 184 0
174 191 0
172 186 0
170 184 0
173 191 0
173 189 0
172 188 0
177 195 0
181 202 0
180 202 0
179 200 0
178 200 0
178 200 0
177 199 0
178 200 0
180 202 0
180 202 0
179 201 0
180 202 0
179 201 0
177 199 0
180 201 0
175 197 0
177 199 0
178 200 0
179 201 0
178 200 0
176 198 0
180 200 0
180 201 0
180 201 0
179 200 0
181 202 0
180 200 0
179 200 0
179 199 0
178 200 0
178 199 0
183 202 65
185 205 81
187 205 85
186 206 97
187 205 111
183 202 89
185 204 85
185 205 104
188 207 111
184 204 93
184 203 85
180 200 85
181 201 81
179 200 59
181 201 43
179 200 52
183 202 59
178 198 52
181 200 43
176 197 31
176 197 31
177 197 52
174 195 43
180 200 31
177 197 31
184 204 59
176 196 0
179 200 59
182 201 59
183 203 76
181 201 76
181 201 101
180 199 81
181 199 81
185 204 85
181 200 81
186 204 97
178 197 59
175 194 52
179 197 43
174 193 0
177 197 0
175 194 0
172 191 0
174 193 0
176 196 0
174 193 0
173 193 0
171 190 0
170 190 0
177 197 0
177 196 0
170 190 0
176 195 0
167 187 0
168 188 0
167 187 0
171 190 0
172 192 0
173 192 0
172 192 0
168 187 0
171 191 0
165 184 0
174 193 0
164 184 0
173 193 0
164 184 0
174 194 0
167 187 0
170 190 0
163 183 0
172 192 0
161 181 0
158 178 0
161 182 0
166 186 0
167 188 0
165 185 0
165 185 0
162 183 0
169 190 0
163 183 0
168 188 0
165 186 0
161 182 0
162 182 0
159 180 0
167 187 0
169 190 0
164 184 0
158 178 0
156 177 0
158 178 0
159 179 0
162 183 0
169 189 0
157 177 0
162 183 0
150 171 0
166 187 0
157 178 0
161 181 0
152 174 0
159 180 0
162 183 0
164 184 0
161 182 0
160 181 0
150 170 0
149 169 0
153 174 0
159 180 0
159 179 0
156 177 0
148 170 0
158 179 0
156 176 0
152 173 0
154 174 0
145 164 0
144 163 0
150 170 0
156 176 0
156 175 0
144 164 0
148 168 0
145 164 0
149 169 0
137 158 0
141 161 0
145 164 0
142 162 0
152 172 0
145 164 0
143 163 0
138 157 0
141 161 0
131 150 0
146 165 0
135 155 0
139 158 0
133 152 0
131 149 0
136 155 0
139 157 0
137 157 0
129 147 0
126 145 0
130 148 0
133 151 0
128 145 0
130 148 0
125 145 0
124 141 0
123 142 0
123 141 0
129 148 0
127 145 0
129 146 0
116 133 0
123 140 0
109 126 0
123 140 0
126 143 0
119 136 0
114 130 0
113 128 0
115 130 0
120 137 0
121 138 0
126 143 0
121 138 0
124 141 0
114 131 0
127 144 0
122 138 0
114 129 0
116 132 0
109 125 0
113 132 0
127 144 0
124 140 0
133 148 0
136 153 0
134 151 0
123 138 0
129 145 0
133 149 0
124 141 0
116 132 0
116 131 0
115 131 0
125 142 0
123 141 0
126 142 0
126 141 0
122 136 0
124 140 0
128 143 0
127 142 0
118 134 0
124 139 0
129 142 0
140 156 0
137 152 0
129 143 0
123 139 0
127 142 0
136 152 0
118 133 0
133 149 0
142 158 0
133 146 0
119 134 0
138 151 0
137 155 0
132 147 0
129 142 0
136 150 0
132 147 0
141 156 0
131 144 0
143 158 0
135 150 0
143 156 0
133 147 0
126 141 0
137 150 0
135 148 0
139 154 0
143 156 0
126 140 0
136 149 0
150 163 0
140 154 0
129 140 0
137 148 0
138 150 0
131 146 0
146 157 0
137 149 0
132 142 0
127 139 0
140 151 0
128 139 0
141 151 0
137 149 0
128 138 0
143 154 0
139 151 0
139 149 0
135 145 0
130 137 0
136 145 0
131 140 0
139 146 0
128 135 0
135 143 0
127 133 0
133 142 0
129 135 0
133 137 0
126 133 0
117 119 0
119 124 0
125 131 0
134 138 0
127 129 0
123 123 0
128 132 0
135 137 0
126 128 0
120 117 0
122 124 0
121 122 0
120 119 0
118 119 0
115 110 0
125 124 0
116 114 0
123 125 0
115 110 0
124 122 0
111 110 0
101 93 0
115 114 0
111 108 0
101 99 0
110 103 0
104 98 0
106 100 0
108 106 0
99 92 0
111 107 0
105 98 0
106 103 0
116 111 0
105 98 0
111 105 0
101 98 0
103 97 0
117 109 0
100 91 0
95 87 0
105 98 0
94 86 15
89 79 0
97 88 0
98 87 0
107 99 15
115 104 0
95 84 20
95 86 0
101 92 0
108 98 0
108 97 20
99 91 0
108 98 25
115 106 28
116 108 20
107 98 15
105 96 20
108 98 25
107 97 0
106 97 25
98 89 0
121 112 25
121 112 34
119 110 36
103 95 0
117 107 31
115 107 34
114 110 20
122 122 20
135 137 15
132 137 25
131 132 20
147 153 31
142 148 0
164 172 0
160 173 0
164 175 0
158 165 0
164 174 0
166 177 0
166 177 0
170 182 0
167 179 0
166 176 0
168 180 0
164 176 0
167 179 0
168 181 0
163 174 0
168 181 0
168 182 0
171 188 0
167 182 0
169 184 0
169 182 0
171 186 0
174 192 0
169 182 0
168 185 0
171 187 0
172 190 0
175 192 0
172 189 0
178 196 0
178 200 0
181 203 0
181 202 0
178 200 0
178 200 0
179 201 0
178 199 0
178 200 0
178 199 0
180 201 0
175 197 0
179 201 0
179 200 0
179 200 0
182 202 0
177 198 0
177 199 0
180 201 0
180 201 0
178 200 0
180 201 0
180 201 0
180 200 0
182 202 0
179 199 0
178 200 0
179 200 0
178 199 0
181 201 0
176 196 0
179 200 0
181 200 0
181 201 0
175 197 0
179 199 0
179 199 0
184 204 0
180 200 0
181 201 0
178 200 31
180 200 43
185 204 76
180 200 65
186 206 97
182 202 76
182 201 85
182 202 81
183 202 59
186 205 97
185 204 101
186 204 97
184 204 81
181 200 93
183 202 76
187 205 104
181 201 76
180 199 85
183 202 85
178 198 52
179 198 65
178 198 31
177 197 0
176 195 0
174 194 0
175 196 0
175 195 0
178 197 0
180 199 0
178 197 0
176 195 0
177 196 0
177 196 0
174 193 0
178 198 0
172 191 0
171 189 0
171 190 0
176 195 0
175 195 0
175 195 0
170 190 0
170 189 0
172 191 0
171 191 0
175 193 0
172 192 0
173 192 0
175 194 0
177 196 0
172 191 0
168 187 0
175 194 0
168 188 0
171 190 0
163 182 0
166 186 0
171 191 0
166 186 0
169 189 0
166 187 0
164 184 0
166 186 0
167 187 0
160 181 0
166 186 0
169 191 0
169 189 0
166 187 0
166 185 0
160 181 0
160 181 0
163 184 0
167 187 0
160 180 0
168 188 0
159 180 0
162 183 0
157 178 0
163 184 0
162 183 0
163 183 0
164 185 0
159 179 0
168 188 0
159 179 0
161 182 0
160 181 0
155 176 0
154 174 0
159 181 0
154 175 0
162 183 0
157 178 0
167 189 0
161 182 0
145 166 0
161 182 0
159 179 0
156 177 0
149 171 0
151 172 0
148 168 0
160 180 0
149 169 0
157 177 0
147 168 0
162 182 0
147 167 0
152 173 0
156 177 0
145 165 0
148 168 0
150 172 0
142 161 0
158 178 0
150 171 0
149 170 0
151 172 0
147 167 0
135 154 0
145 165 0
144 164 0
146 165 0
131 151 0
131 150 0
135 154 0
133 153 0
133 153 0
139 157 0
139 159 0
142 162 0
141 160 0
142 162 0
141 159 0
129 149 0
132 151 0
131 151 0
133 152 0
127 146 0
125 143 0
131 149 0
124 143 0
140 159 0
127 146 0
125 144 0
115 133 0
130 149 0
132 150 0
126 145 0
119 137 0
131 147 0
120 138 0
128 145 0
122 140 0
118 135 0
122 141 0
126 143 0
123 141 0
126 142 0
129 147 0
121 140 0
116 134 0
132 151 0
123 140 0
130 146 0
129 145 0
125 144 0
127 145 0
127 144 0
124 140 0
132 148 0
115 131 0
131 147 0
129 146 0
117 134 0
125 143 0
109 125 0
117 134 0
129 146 0
110 126 0
131 148 0
117 132 0
117 133 0
132 148 0
132 149 0
134 149 0
134 151 0
122 138 0
122 139 0
115 131 0
135 150 0
122 135 0
129 144 0
132 148 0
132 147 0
123 137 0
128 145 0
130 145 0
136 152 0
131 144 0
133 148 0
120 136 0
139 155 0
134 150 0
121 136 0
144 160 0
128 144 0
140 157 0
129 144 0
145 162 0
135 150 0
130 145 0
141 154 0
140 154 0
126 140 0
133 147 0
137 151 0
138 149 0
148 162 0
138 151 0
135 148 0
134 147 0
135 149 0
139 154 0
138 150 0
141 152 0
131 142 0
137 149 0
137 152 0
122 134 0
140 152 0
127 141 0
138 149 0
127 136 0
138 149 0
131 141 0
138 149 0
138 149 0
131 140 0
146 159 0
137 146 0
136 145 0
135 144 0
136 144 0
120 125 0
128 137 0
136 145 0
120 129 0
134 142 0
120 126 0
140 147 0
141 151 0
125 129 0
130 134 0
124 129 0
127 132 0
113 119 0
139 147 0
125 130 0
131 133 0
136 139 0
126 128 0
127 129 0
129 130 0
122 123 0
130 130 0
130 130 0
127 128 0
134 135 0
123 121 0
124 125 0
126 125 0
119 117 0
119 114 0
119 117 0
114 113 0
109 106 0
114 109 0
115 111 0
113 108 0
112 109 0
95 88 0
111 107 0
118 113 0
105 100 0
110 105 0
108 106 0
104 96 0
101 95 0
116 113 0
110 103 0
121 116 0
115 111 0
112 107 0
112 102 0
116 111 0
115 108 0
124 119 0
120 115 0
130 128 0
127 125 0
121 118 0
131 129 0
127 124 15
112 107 0
129 127 15
133 128 15
122 116 28
115 109 0
114 110 0
132 130 15
141 139 25
126 122 15
125 126 0
134 132 25
129 127 20
128 129 0
140 144 15
150 152 0
139 140 20
156 164 0
152 156 0
156 162 0
158 167 0
162 168 0
161 168 0
162 168 0
161 167 0
161 168 0
165 173 0
160 169 0
160 168 0
160 168 0
157 163 0
162 172 0
168 178 0
167 178 0
162 172 0
166 176 0
169 182 0
169 182 0
168 182 0
168 180 0
168 181 0
165 178 0
169 181 0
169 184 0
171 185 0
167 176 0
170 186 0
170 186 0
168 181 0
172 189 0
172 186 0
166 179 0
172 189 0
168 182 0
174 189 0
174 191 0
176 192 0
181 202 0
180 202 0
178 200 0
180 201 0
176 198 0
178 200 0
181 202 0
176 198 0
180 201 0
180 201 0
179 200 0
180 202 0
180 202 0
176 197 0
178 199 0
180 201 0
181 202 0
180 201 0
178 199 0
179 200 0
180 201 0
177 199 0
180 201 0
182 202 0
182 203 0
179 200 0
180 201 0
180 202 0
181 202 0
181 202 0
179 201 0
181 201 0
178 198 0
177 197 0
178 198 0
178 199 0
180 201 0
181 201 0
181 201 0
178 198 0
179 201 0
177 197 0
178 198 0
177 198 0
174 194 0
181 201 0
179 198 0
180 200 0
181 200 0
180 200 0
178 198 0
179 199 0
181 202 0
180 200 0
178 198 0
173 193 0
178 197 0
178 197 0
175 196 0
179 198 0
178 197 0
177 197 0
178 198 0
178 197 0
176 196 0
178 198 0
177 197 0
175 194 0
173 193 0
179 198 0
178 198 0
175 194 0
176 196 0
170 189 0
168 187 0
177 197 0
173 193 0
173 193 0
170 189 0
175 195 0
172 192 0
173 193 0
167 187 0
178 198 0
176 196 0
171 191 0
170 191 0
166 185 0
169 187 0
173 192 0
168 188 0
169 189 0
167 186 0
167 186 0
161 180 0
168 188 0
168 187 0
170 189 0
166 186 0
172 192 0
168 188 0
174 194 0
166 187 0
167 187 0
168 188 0
167 188 0
168 189 0
162 182 0
163 184 0
163 182 0
162 183 0
162 182 0
164 184 0
170 190 0
167 188 0
163 185 0
166 187 0
162 183 0
161 181 0
165 185 0
158 179 0
164 185 0
158 178 0
160 181 0
159 181 0
156 176 0
160 181 0
162 182 0
158 179 0
154 175 0
164 184 0
157 177 0
162 183 0
153 173 0
161 181 0
155 176 0
155 176 0
156 177 0
158 179 0
161 182 0
155 176 0
155 177 0
149 168 0
157 178 0
164 184 0
158 178 0
158 179 0
145 166 0
150 170 0
154 174 0
151 172 0
148 167 0
147 167 0
151 172 0
152 172 0
142 162 0
142 161 0
153 173 0
145 164 0
147 167 0
140 159 0
153 173 0
146 166 0
147 167 0
145 164 0
136 156 0
144 164 0
142 161 0
139 158 0
140 160 0
139 158 0
143 163 0
137 157 0
144 163 0
132 151 0
142 161 0
135 154 0
136 155 0
133 152 0
132 151 0
138 157 0
136 154 0
129 147 0
134 151 0
119 137 0
128 146 0
131 150 0
125 143 0
128 146 0
125 143 0
132 150 0
130 148 0
126 143 0
133 151 0
136 153 0
110 128 0
134 152 0
135 153 0
118 135 0
136 154 0
130 148 0
126 144 0
114 133 0
124 141 0
128 145 0
128 145 0
126 141 0
113 130 0
132 149 0
121 138 0
131 149 0
110 125 0
111 126 0
121 139 0
117 133 0
137 153 0
134 152 0
131 148 0
133 148 0
128 144 0
128 145 0
127 145 0
127 144 0
136 152 0
120 137 0
133 150 0
136 152 0
122 138 0
125 142 0
130 146 0
134 151 0
130 147 0
126 142 0
131 146 0
141 156 0
129 146 0
125 141 0
127 144 0
130 144 0
123 138 0
142 158 0
137 154 0
133 147 0
140 156 0
133 149 0
135 151 0
132 149 0
140 156 0
136 151 0
130 144 0
141 155 0
136 150 0
137 152 0
142 156 0
125 140 0
137 151 0
134 149 0
139 151 0
140 153 0
146 161 0
136 148 0
133 145 0
130 143 0
143 157 0
130 144 0
143 155 0
136 150 0
124 138 0
140 152 0
135 144 0
137 148 0
137 146 0
144 157 0
139 151 0
145 156 0
134 147 0
135 145 0
117 128 0
140 149 0
135 145 0
133 142 0
134 146 0
130 140 0
131 139 0
134 140 0
145 156 0
143 153 0
139 146 0
140 150 0
135 144 0
132 139 0
132 137 0
125 131 0
131 139 0
127 130 0
133 139 0
123 129 0
135 140 0
143 149 0
134 138 0
133 138 0
126 129 0
138 144 0
135 140 0
127 128 0
120 123 0
129 130 0
129 131 0
128 130 0
129 130 0
134 138 0
126 124 0
121 121 0
119 116 0
119 118 0
119 118 0
115 115 0
118 120 0
119 116 0
118 116 0
122 123 0
112 107 0
125 123 0
124 123 0
110 106 0
121 117 0
121 114 0
114 109 0
116 111 0
121 117 0
111 106 0
125 121 0
105 99 0
112 107 0
102 96 0
123 119 0
111 109 0
119 115 0
112 107 0
113 109 0
127 125 0
127 121 0
123 120 0
134 133 0
136 134 0
130 127 0
138 138 0
139 139 0
139 139 0
131 133 0
143 145 0
143 144 0
145 146 0
148 149 0
143 145 0
142 142 0
152 153 0
150 154 0
147 151 0
150 154 0
155 159 0
159 166 0
148 152 0
153 158 0
160 166 0
152 157 0
159 164 0
158 166 0
155 164 0
163 170 0
160 169 0
161 172 0
161 170 0
165 175 0
153 162 0
158 163 0
158 168 0
160 169 0
166 176 0
168 179 0
160 172 0
167 178 0
164 175 0
170 179 0
165 175 0
163 176 0
162 172 0
168 182 0
167 182 0
171 186 0
173 187 0
170 184 0
167 181 0
174 189 0
169 184 0
174 188 0
170 185 0
167 180 0
169 183 0
169 185 0
179 200 0
179 200 0
178 200 0
179 199 0
182 203 0
180 202 0
177 198 0
178 200 0
180 201 0
177 199 0
179 200 0
179 200 0
177 199 0
177 198 0
175 197 0
180 202 0
182 203 0
178 199 0
177 198 0
178 198 0
177 199 0
178 199 0
179 199 0
177 198 0
177 199 0
177 199 0
178 199 0
177 198 0
179 199 0
181 202 0
176 197 0
181 201 0
178 199 0
181 201 0
182 202 0
179 199 0
178 198 0
179 200 0
180 200 0
181 202 0
177 198 0
178 198 0
174 194 0
182 201 0
176 196 0
180 199 0
179 199 0
177 197 0
179 199 0
175 195 0
178 198 0
177 197 0
174 195 0
181 201 0
181 199 0
179 199 0
176 197 0
177 197 0
177 196 0
178 198 0
174 194 0
181 201 0
177 197 0
174 195 0
178 198 0
176 195 0
176 196 0
174 194 0
174 194 0
177 197 0
178 198 0
174 194 0
172 192 0
171 191 0
177 196 0
175 194 0
174 194 0
176 195 0
171 191 0
176 196 0
173 193 0
172 192 0
174 194 0
175 194 0
168 188 0
172 192 0
169 189 0
174 193 0
170 189 0
171 190 0
173 193 0
175 194 0
172 193 0
165 185 0
170 190 0
167 187 0
172 192 0
173 193 0
170 190 0
166 186 0
173 193 0
173 193 0
161 182 0
169 188 0
153 174 0
169 189 0
160 180 0
164 185 0
158 178 0
159 179 0
167 187 0
162 183 0
156 177 0
160 180 0
162 183 0
164 185 0
162 183 0
164 184 0
164 185 0
166 186 0
161 182 0
161 182 0
162 183 0
158 179 0
159 180 0
159 180 0
156 177 0
158 179 0
162 183 0
156 177 0
162 183 0
165 186 0
161 182 0
161 182 0
159 180 0
152 173 0
154 175 0
154 175 0
162 183 0
161 182 0
158 179 0
159 179 0
153 174 0
148 168 0
157 177 0
149 170 0
150 171 0
158 179 0
155 177 0
156 178 0
158 179 0
159 180 0
154 173 0
155 174 0
147 168 0
162 182 0
150 171 0
150 169 0
148 168 0
139 159 0
138 158 0
148 168 0
145 164 0
149 168 0
137 157 0
143 163 0
150 169 0
129 148 0
145 164 0
143 163 0
143 164 0
135 154 0
138 156 0
134 153 0
139 159 0
143 162 0
134 152 0
135 154 0
133 152 0
125 145 0
128 148 0
137 156 0
129 149 0
134 154 0
135 154 0
126 144 0
135 153 0
130 147 0
128 146 0
124 143 0
133 151 0
121 141 0
126 144 0
130 148 0
126 144 0
128 146 0
129 147 0
130 148 0
129 146 0
138 156 0
132 149 0
129 147 0
126 144 0
130 148 0
124 142 0
124 141 0
131 148 0
137 156 0
137 154 0
133 151 0
131 148 0
132 148 0
129 146 0
125 141 0
126 145 0
130 145 0
120 137 0
134 152 0
124 142 0
132 149 0
124 142 0
131 148 0
136 152 0
132 149 0
141 158 0
139 156 0
136 155 0
129 146 0
127 143 0
118 134 0
134 151 0
141 157 0
134 149 0
128 144 0
132 148 0
134 150 0
130 148 0
128 142 0
133 148 0
128 144 0
143 160 0
136 152 0
143 159 0
137 153 0
132 148 0
136 152 0
141 157 0
143 157 0
150 167 0
135 150 0
138 156 0
128 141 0
131 147 0
138 154 0
128 143 0
128 142 0
133 148 0
138 152 0
136 152 0
151 168 0
133 148 0
123 137 0
141 155 0
137 151 0
139 153 0
147 161 0
135 150 0
146 159 0
128 141 0
136 150 0
137 149 0
142 156 0
138 152 0
138 151 0
150 163 0
141 151 0
134 146 0
145 158 0
141 154 0
140 152 0
141 151 0
136 146 0
131 141 0
134 142 0
141 151 0
137 146 0
136 146 0
125 134 0
127 134 0
132 140 0
132 141 0
134 142 0
132 140 0
138 146 0
133 137 0
135 141 0
138 147 0
134 140 0
128 134 0
141 148 0
129 133 0
133 140 0
135 141 0
128 133 0
127 129 0
127 127 0
124 125 0
129 132 0
119 121 0
136 139 0
124 126 0
114 114 0
118 118 0
122 122 0
125 126 0
116 116 0
118 116 0
134 134 0
120 120 0
126 125 0
126 122 0
116 115 0
109 103 0
122 122 0
123 124 0
135 131 0
117 115 0
117 113 0
124 122 0
126 124 0
121 118 0
118 114 0
124 121 0
120 116 0
125 120 0
121 115 0
113 109 0
124 118 0
125 124 0
127 122 0
122 122 0
127 120 0
131 128 0
136 132 0
138 137 0
135 133 0
136 138 0
127 125 0
131 130 0
145 143 0
140 141 0
139 139 0
142 144 0
133 133 0
150 150 0
144 147 0
148 150 0
150 153 0
160 168 0
146 149 0
150 154 0
147 151 0
149 151 0
150 155 0
149 152 0
156 161 0
158 162 0
156 162 0
160 167 0
160 167 0
158 165 0
157 165 0
157 165 0
155 164 0
160 169 0
163 175 0
158 168 0
157 162 0
162 169 0
161 169 0
160 172 0
163 170 0
167 177 0
166 177 0
170 182 0
164 177 0
163 175 0
167 180 0
167 178 0
166 179 0
166 179 0
168 181 0
166 180 0
165 179 0
173 187 0
173 189 0
168 181 0
173 190 0
173 189 0
167 184 0
181 202 0
177 199 0
179 201 0
178 201 0
178 199 0
180 200 0
179 201 0
179 200 0
180 201 0
179 200 0
178 201 0
182 203 0
179 200 0
179 200 0
177 199 0
178 199 0
179 199 0
181 202 0
180 201 0
176 198 0
178 200 0
177 199 0
178 199 0
179 200 0
177 198 0
180 202 0
180 202 0
179 199 0
179 199 0
182 203 0
182 202 0
184 204 0
179 200 0
178 199 0
174 195 0
179 199 0
179 199 0
181 201 0
178 198 0
181 200 0
178 199 0
179 199 0
180 200 0
182 201 0
179 199 0
180 199 0
177 197 0
179 198 0
180 200 0
182 201 0
177 197 0
178 199 0
176 195 0
180 198 0
170 190 0
178 198 0
177 196 0
178 198 0
174 194 0
176 196 0
176 196 0
180 199 0
176 195 0
175 195 0
179 198 0
174 195 0
178 197 0
173 193 0
174 194 0
175 194 0
177 196 0
177 196 0
177 197 0
175 194 0
178 197 0
173 193 0
169 190 0
177 197 0
174 194 0
177 196 0
169 189 0
171 191 0
169 189 0
176 195 0
170 190 0
171 191 0
171 191 0
170 190 0
172 192 0
171 192 0
172 191 0
171 191 0
166 185 0
167 188 0
165 186 0
172 191 0
169 189 0
163 184 0
166 186 0
165 186 0
173 193 0
165 186 0
161 181 0
162 182 0
163 185 0
163 183 0
158 179 0
162 183 0
165 186 0
167 188 0
163 185 0
168 189 0
164 185 0
159 180 0
159 179 0
164 184 0
161 182 0
164 185 0
165 186 0
162 182 0
161 181 0
164 184 0
161 182 0
153 174 0
162 182 0
165 185 0
155 176 0
166 186 0
162 183 0
167 188 0
154 175 0
156 176 0
152 173 0
153 174 0
155 176 0
148 169 0
152 173 0
154 175 0
153 174 0
157 178 0
159 180 0
156 176 0
157 179 0
150 171 0
160 181 0
146 166 0
152 172 0
149 169 0
155 176 0
155 175 0
137 158 0
155 175 0
152 172 0
145 165 0
151 171 0
158 179 0
150 171 0
151 170 0
148 168 0
152 172 0
142 163 0
144 164 0
146 166 0
145 164 0
143 163 0
136 154 0
142 162 0
139 157 0
134 153 0
141 161 0
140 158 0
142 162 0
145 165 0
140 159 0
141 160 0
144 163 0
139 158 0
137 155 0
131 151 0
145 164 0
140 157 0
125 144 0
146 165 0
131 149 0
136 156 0
135 154 0
131 150 0
143 162 0
145 164 0
133 153 0
142 161 0
133 151 0
132 149 0
138 156 0
128 145 0
137 154 0
135 153 0
130 148 0
140 159 0
127 145 0
132 150 0
133 150 0
135 154 0
124 142 0
109 126 0
130 147 0
119 138 0
138 156 0
138 157 0
132 150 0
133 151 0
130 146 0
125 141 0
134 151 0
130 149 0
124 142 0
129 147 0
134 150 0
136 153 0
130 148 0
135 154 0
135 152 0
128 144 0
138 155 0
140 157 0
135 152 0
135 152 0
125 140 0
137 153 0
142 159 0
138 156 0
125 143 0
129 147 0
121 138 0
138 157 0
138 154 0
141 158 0
139 154 0
146 162 0
143 159 0
140 156 0
118 135 0
138 154 0
126 139 0
148 165 0
133 150 0
134 150 0
130 145 0
136 153 0
143 158 0
138 152 0
139 155 0
141 155 0
131 146 0
144 161 0
146 160 0
147 163 0
134 150 0
142 158 0
145 159 0
140 155 0
132 147 0
142 158 0
149 160 0
140 155 0
130 144 0
140 154 0
147 160 0
138 152 0
129 142 0
142 158 0
147 161 0
130 142 0
131 144 0
139 151 0
138 151 0
129 142 0
124 134 0
130 142 0
143 156 0
140 154 0
136 149 0
142 153 0
134 145 0
140 150 0
147 156 0
141 150 0
134 143 0
137 146 0
136 145 0
135 145 0
140 151 0
145 153 0
136 144 0
134 143 0
139 146 0
138 144 0
130 134 0
128 136 0
130 135 0
143 149 0
137 144 0
123 125 0
128 132 0
127 131 0
128 131 0
133 136 0
124 125 0
125 130 0
137 139 0
117 119 0
133 138 0
134 135 0
133 132 0
135 136 0
131 131 0
122 123 0
128 130 0
133 136 0
128 126 0
135 136 0
134 136 0
117 115 0
131 134 0
128 127 0
124 122 0
120 116 0
126 125 0
128 124 0
115 111 0
125 124 0
123 119 0
118 117 0
128 123 0
122 117 0
119 114 0
127 124 0
128 127 0
121 116 0
126 126 0
121 120 0
123 120 0
136 134 0
132 129 0
127 125 0
130 130 0
129 125 0
136 137 0
128 126 0
143 144 0
140 139 0
143 145 0
135 134 0
147 147 0
142 145 0
136 134 0
140 140 0
145 145 0
146 151 0
150 154 0
144 146 0
149 150 0
150 155 0
149 152 0
157 164 0
150 156 0
158 164 0
160 168 0
151 159 0
157 163 0
154 158 0
164 171 0
151 154 0
156 163 0
163 173 0
161 168 0
154 161 0
159 169 0
163 172 0
154 162 0
164 173 0
169 178 0
162 173 0
163 174 0
164 175 0
167 178 0
168 181 0
165 177 0
169 183 0
168 181 0
167 179 0
166 180 0
164 176 0
163 177 0
168 181 0
167 181 0
171 185 0
175 191 0
172 184 0
174 191 0
178 200 0
177 199 0
181 201 0
179 200 0
179 200 0
179 200 0
181 203 0
179 201 0
179 200 0
179 200 0
178 199 0
181 201 0
179 200 0
180 200 0
179 200 0
178 200 0
177 198 0
177 198 0
183 204 0
180 201 0
177 198 0
180 201 0
180 200 0
181 201 0
181 201 0
179 200 0
175 197 0
182 202 0
180 200 0
179 200 0
178 198 0
181 202 0
179 200 0
178 198 0
179 200 0
181 201 0
179 199 0
179 199 0
179 199 0
179 199 0
180 200 0
177 198 0
177 196 0
177 197 0
180 199 0
177 197 0
183 203 0
177 197 0
179 200 0
182 202 0
179 198 0
177 197 0
173 193 0
180 199 0
176 196 0
178 198 0
178 198 0
175 194 0
177 197 0
176 196 0
176 196 0
173 193 0
180 199 0
174 194 0
171 191 0
177 197 0
182 201 0
175 195 0
175 195 0
172 192 0
173 194 0
172 192 0
177 198 0
167 186 0
171 191 0
172 191 0
173 192 0
177 197 0
174 193 0
172 193 0
167 187 0
175 195 0
174 194 0
165 186 0
172 192 0
171 191 0
173 194 0
175 195 0
167 186 0
171 192 0
171 191 0
164 184 0
168 188 0
173 194 0
166 186 0
170 191 0
172 192 0
167 188 0
169 189 0
166 186 0
165 186 0
169 189 0
165 186 0
160 181 0
169 189 0
165 186 0
163 182 0
164 185 0
164 185 0
168 188 0
159 180 0
161 182 0
167 188 0
163 183 0
157 177 0
160 182 0
165 185 0
165 186 0
156 177 0
151 173 0
162 183 0
164 185 0
160 181 0
162 182 0
163 185 0
160 182 0
158 180 0
158 180 0
155 176 0
161 183 0
156 177 0
158 179 0
160 181 0
162 184 0
150 171 0
158 178 0
153 174 0
155 176 0
162 183 0
153 174 0
152 172 0
150 170 0
151 173 0
153 173 0
161 182 0
161 182 0
146 166 0
153 174 0
158 179 0
154 174 0
147 167 0
158 178 0
153 173 0
148 169 0
154 175 0
148 167 0
141 161 0
150 171 0
144 165 0
158 178 0
148 169 0
150 170 0
146 165 0
152 173 0
136 157 0
146 165 0
140 159 0
142 162 0
140 159 0
142 161 0
142 162 0
146 165 0
144 163 0
140 159 0
141 162 0
144 164 0
146 166 0
140 160 0
143 161 0
147 165 0
131 149 0
143 162 0
130 149 0
137 157 0
132 151 0
132 152 0
140 159 0
133 152 0
137 156 0
140 160 0
134 153 0
135 153 0
137 156 0
136 154 0
134 152 0
137 155 0
126 145 0
129 147 0
127 146 0
120 139 0
130 148 0
139 157 0
133 152 0
128 144 0
128 147 0
131 148 0
135 152 0
127 144 0
118 135 0
132 148 0
128 146 0
135 153 0
134 151 0
131 148 0
137 156 0
137 154 0
131 148 0
130 147 0
141 159 0
132 150 0
124 140 0
127 143 0
136 153 0
142 160 0
128 145 0
133 151 0
141 157 0
128 145 0
134 148 0
135 152 0
140 158 0
141 161 0
132 149 0
131 148 0
138 155 0
128 145 0
141 158 0
141 158 0
143 162 0
141 158 0
134 151 0
138 154 0
139 155 0
133 149 0
143 159 0
132 148 0
142 159 0
137 155 0
138 153 0
130 148 0
136 149 0
144 159 0
133 149 0
146 159 0
146 162 0
148 164 0
146 159 0
139 152 0
134 152 0
134 148 0
140 155 0
138 152 0
143 158 0
138 152 0
136 151 0
145 158 0
143 158 0
134 150 0
135 150 0
138 152 0
134 147 0
137 152 0
137 152 0
139 151 0
146 157 0
141 156 0
141 151 0
133 144 0
139 150 0
143 154 0
136 150 0
145 155 0
139 153 0
146 159 0
133 145 0
140 152 0
146 156 0
126 135 0
140 151 0
135 145 0
141 153 0
137 145 0
134 143 0
130 139 0
134 142 0
131 137 0
142 151 0
126 131 0
131 135 0
146 155 0
143 152 0
130 139 0
127 132 0
144 150 0
143 148 0
140 145 0
137 140 0
138 141 0
136 142 0
146 150 0
133 137 0
138 142 0
127 131 0
132 134 0
132 135 0
126 126 0
135 135 0
134 139 0
131 132 0
130 131 0
130 132 0
127 126 0
129 128 0
136 134 0
113 113 0
130 130 0
127 126 0
133 132 0
134 132 0
134 131 0
125 121 0
129 129 0
130 131 0
127 126 0
119 116 0
132 132 0
123 122 0
132 130 0
140 137 0
124 123 0
126 125 0
132 130 0
127 127 0
126 127 0
128 125 0
130 127 0
133 131 0
135 135 0
131 128 0
138 138 0
141 140 0
136 135 0
136 138 0
146 146 0
144 144 0
147 151 0
144 145 0
140 139 0
148 151 0
134 134 0
147 150 0
147 151 0
153 157 0
146 147 0
149 152 0
159 163 0
157 162 0
151 153 0
158 161 0
157 163 0
151 153 0
154 161 0
154 158 0
153 161 0
155 164 0
158 165 0
159 168 0
163 171 0
160 168 0
164 174 0
162 171 0
156 165 0
161 171 0
164 174 0
163 175 0
166 178 0
163 175 0
165 177 0
161 171 0
163 174 0
164 176 0
167 180 0
165 176 0
168 181 0
173 188 0
172 188 0
168 182 0
164 176 0
165 179 0
167 183 0
177 198 0
181 202 0
178 199 0
179 200 0
180 201 0
180 202 0
175 197 0
180 201 0
180 201 0
177 198 0
180 201 0
180 202 0
181 203 0
180 200 0
176 197 0
178 199 0
181 201 0
180 201 0
180 201 0
180 201 0
180 201 0
180 201 0
178 199 0
178 198 0
180 200 0
179 199 0
181 200 0
179 200 0
179 200 0
180 200 0
179 200 0
177 198 0
177 198 0
179 199 0
179 200 0
178 198 0
178 199 0
177 197 0
179 199 0
181 200 0
182 201 0
183 203 0
180 200 0
177 196 0
177 197 0
179 198 0
179 199 0
177 196 0
178 198 0
175 196 0
178 198 0
179 197 0
179 199 0
179 199 0
178 198 0
179 199 0
179 199 0
180 199 0
178 197 0
179 198 0
177 196 0
178 197 0
176 195 0
173 193 0
174 193 0
174 193 0
178 197 0
178 197 0
176 196 0
174 193 0
178 198 0
175 194 0
177 197 0
172 192 0
172 192 0
168 188 0
172 193 0
172 191 0
176 195 0
171 192 0
177 197 0
170 190 0
172 192 0
167 187 0
167 187 0
171 191 0
171 191 0
162 182 0
167 187 0
175 195 0
164 185 0
171 192 0
168 188 0
170 190 0
160 180 0
164 184 0
166 186 0
167 187 0
167 187 0
167 187 0
167 188 0
168 189 0
166 188 0
163 183 0
156 177 0
165 185 0
169 190 0
162 182 0
167 187 0
161 181 0
165 186 0
161 182 0
169 190 0
160 180 0
163 182 0
165 185 0
159 180 0
164 185 0
165 186 0
166 187 0
157 178 0
165 186 0
159 180 0
154 175 0
162 182 0
157 178 0
161 183 0
162 182 0
155 176 0
154 174 0
161 182 0
161 182 0
160 180 0
160 180 0
157 178 0
156 177 0
150 170 0
154 175 0
156 177 0
152 173 0
153 173 0
152 173 0
150 170 0
152 173 0
156 177 0
157 177 0
152 172 0
155 175 0
149 168 0
157 177 0
146 165 0
148 168 0
142 163 0
148 169 0
156 176 0
154 173 0
150 170 0
142 162 0
147 167 0
146 167 0
150 171 0
138 158 0
150 170 0
156 176 0
153 173 0
152 172 0
155 176 0
153 173 0
147 166 0
148 167 0
138 157 0
139 160 0
151 171 0
142 162 0
141 160 0
139 158 0
145 165 0
132 151 0
132 152 0
144 164 0
131 150 0
148 168 0
139 158 0
140 159 0
130 149 0
136 154 0
139 158 0
137 157 0
143 162 0
136 155 0
141 160 0
138 156 0
133 153 0
136 156 0
134 152 0
128 147 0
130 149 0
143 162 0
134 151 0
149 168 0
138 155 0
136 154 0
138 156 0
140 158 0
142 159 0
132 150 0
128 147 0
140 158 0
130 147 0
136 154 0
125 141 0
130 147 0
138 155 0
125 142 0
130 147 0
126 140 0
131 148 0
140 157 0
121 137 0
129 147 0
134 150 0
133 151 0
130 148 0
133 149 0
143 162 0
134 152 0
149 166 0
138 154 0
132 149 0
136 153 0
130 146 0
135 152 0
142 159 0
130 146 0
133 150 0
133 150 0
142 159 0
135 151 0
135 150 0
141 155 0
145 163 0
143 159 0
145 160 0
135 152 0
137 153 0
139 158 0
124 139 0
139 157 0
142 158 0
147 164 0
145 161 0
147 162 0
135 153 0
132 148 0
141 158 0
141 156 0
141 156 0
140 157 0
145 160 0
135 150 0
135 148 0
145 159 0
145 160 0
141 158 0
147 163 0
144 160 0
138 153 0
146 160 0
145 159 0
147 160 0
132 146 0
141 153 0
146 162 0
134 150 0
147 162 0
140 153 0
148 162 0
140 153 0
142 153 0
146 160 0
142 154 0
135 146 0
135 149 0
135 145 0
139 150 0
135 149 0
137 147 0
138 150 0
145 155 0
146 157 0
137 146 0
140 150 0
144 154 0
133 140 0
143 155 0
139 148 0
147 156 0
137 146 0
136 146 0
136 141 0
132 136 0
140 147 0
139 146 0
136 143 0
135 140 0
142 147 0
139 143 0
133 136 0
134 138 0
132 136 0
133 139 0
133 138 0
135 140 0
141 145 0
128 130 0
135 141 0
133 134 0
127 127 0
136 138 0
129 130 0
131 134 0
140 142 0
130 132 0
137 142 0
134 135 0
128 129 0
137 135 0
140 142 0
123 121 0
136 137 0
124 122 0
125 122 0
126 124 0
133 134 0
131 131 0
141 143 0
129 127 0
133 132 0
134 134 0
129 126 0
130 128 0
139 138 0
140 139 0
129 129 0
133 131 0
123 121 0
136 133 0
140 139 0
133 131 0
140 139 0
132 131 0
133 132 0
143 146 0
134 134 0
136 137 0
143 147 0
136 135 0
142 144 0
144 148 0
149 151 0
142 145 0
149 152 0
151 156 0
150 154 0
153 154 0
155 160 0
147 153 0
151 156 0
155 160 0
157 159 0
157 164 0
154 161 0
148 153 0
162 169 0
151 158 0
156 163 0
157 166 0
161 171 0
163 171 0
160 168 0
165 174 0
168 178 0
165 176 0
162 170 0
166 177 0
163 172 0
162 170 0
160 169 0
165 178 0
167 179 0
161 172 0
165 176 0
167 180 0
169 183 0
172 186 0
165 178 0
168 179 0
164 177 0
172 184 0
167 180 0
177 199 0
180 201 0
177 198 0
180 202 0
181 202 0
177 198 0
177 199 0
180 201 0
175 197 0
179 199 0
179 199 0
180 201 0
180 201 0
176 198 0
179 201 0
178 200 0
179 200 0
177 197 0
179 200 0
180 200 0
177 198 0
179 200 0
178 199 0
181 202 0
183 203 0
180 201 0
180 200 0
178 200 0
183 203 0
176 196 0
178 198 0
179 199 0
179 199 0
178 198 0
181 200 0
180 200 0
178 198 0
180 200 0
180 200 0
177 197 0
177 197 0
181 201 0
178 198 0
179 198 0
176 196 0
176 195 0
173 193 0
177 197 0
180 200 0
177 196 0
177 197 0
174 193 0
178 199 0
176 195 0
177 196 0
176 196 0
180 200 0
179 198 0
176 196 0
176 197 0
176 196 0
176 195 0
178 197 0
179 199 0
179 199 0
173 192 0
173 194 0
172 193 0
174 194 0
172 191 0
172 192 0
171 191 0
173 193 0
175 195 0
171 192 0
173 192 0
166 187 0
170 190 0
172 192 0
170 190 0
169 189 0
168 189 0
173 193 0
166 187 0
167 188 0
171 191 0
168 189 0
165 187 0
172 193 0
170 191 0
165 186 0
171 191 0
168 188 0
167 188 0
168 189 0
168 189 0
163 184 0
165 187 0
167 187 0
167 188 0
170 190 0
172 192 0
169 189 0
170 190 0
168 189 0
165 186 0
170 191 0
165 187 0
162 183 0
163 184 0
169 190 0
165 185 0
166 187 0
152 173 0
166 186 0
156 176 0
165 186 0
163 184 0
165 185 0
162 183 0
160 181 0
160 181 0
166 187 0
157 178 0
156 178 0
165 186 0
156 176 0
157 179 0
159 179 0
159 180 0
156 176 0
162 182 0
156 177 0
153 174 0
152 172 0
161 182 0
163 184 0
156 178 0
157 177 0
163 183 0
163 184 0
164 183 0
158 179 0
157 178 0
164 184 0
160 181 0
160 181 0
158 179 0
156 177 0
152 173 0
152 173 0
156 175 0
154 174 0
147 168 0
156 176 0
153 173 0
143 164 0
152 172 0
144 164 0
151 170 0
145 165 0
158 179 0
149 168 0
147 168 0
151 171 0
143 164 0
149 169 0
150 170 0
142 163 0
143 163 0
142 162 0
147 166 0
142 162 0
140 158 0
140 159 0
134 153 0
138 157 0
131 151 0
143 162 0
140 160 0
141 160 0
150 170 0
137 156 0
133 151 0
135 154 0
135 153 0
134 153 0
140 159 0
137 156 0
140 160 0
142 160 0
142 161 0
132 152 0
134 153 0
138 157 0
139 157 0
135 152 0
144 163 0
129 149 0
128 147 0
137 155 0
132 151 0
148 168 0
130 149 0
124 141 0
146 164 0
139 158 0
136 154 0
134 152 0
131 148 0
130 148 0
134 151 0
136 154 0
135 152 0
138 156 0
142 160 0
136 154 0
141 159 0
132 150 0
137 156 0
145 163 0
139 157 0
134 151 0
141 158 0
139 156 0
140 157 0
137 154 0
142 160 0
141 158 0
137 154 0
133 148 0
144 160 0
129 147 0
130 147 0
143 161 0
137 152 0
130 147 0
140 156 0
136 152 0
143 161 0
133 150 0
146 162 0
139 156 0
131 148 0
143 161 0
138 153 0
132 148 0
140 155 0
146 162 0
145 160 0
132 147 0
141 157 0
142 159 0
134 149 0
143 159 0
146 164 0
141 156 0
143 158 0
148 164 0
140 155 0
144 158 0
140 154 0
145 161 0
137 151 0
146 161 0
130 148 0
149 163 0
146 160 0
145 159 0
137 151 0
150 165 0
147 161 0
145 160 0
141 155 0
136 151 0
148 163 0
135 150 0
140 153 0
151 166 0
150 162 0
147 159 0
148 160 0
147 158 0
149 162 0
130 141 0
136 148 0
151 162 0
147 162 0
140 151 0
144 154 0
136 147 0
137 149 0
137 147 0
137 150 0
144 152 0
144 151 0
133 142 0
133 140 0
146 154 0
135 142 0
141 148 0
133 142 0
142 151 0
138 147 0
134 138 0
136 142 0
136 144 0
126 128 0
131 135 0
142 148 0
136 140 0
135 141 0
129 134 0
130 133 0
127 129 0
127 130 0
132 139 0
142 148 0
131 133 0
138 137 0
133 134 0
142 145 0
132 136 0
138 143 0
135 136 0
129 131 0
134 132 0
136 136 0
127 129 0
137 139 0
125 128 0
132 133 0
130 130 0
123 121 0
133 137 0
129 128 0
129 128 0
132 131 0
131 130 0
141 141 0
137 135 0
131 126 0
141 143 0
136 136 0
137 138 0
136 134 0
141 143 0
130 131 0
139 140 0
137 140 0
129 131 0
142 142 0
143 144 0
134 134 0
138 137 0
147 146 0
147 149 0
143 147 0
137 137 0
157 159 0
150 152 0
149 152 0
151 154 0
148 150 0
144 145 0
144 144 0
147 150 0
153 158 0
156 163 0
154 160 0
159 168 0
159 166 0
155 163 0
154 158 0
151 157 0
162 170 0
156 162 0
157 165 0
154 161 0
162 172 0
157 164 0
162 171 0
158 167 0
159 169 0
161 170 0
157 166 0
165 174 0
163 173 0
163 175 0
171 183 0
160 172 0
164 176 0
163 176 0
167 180 0
166 177 0
167 178 0
170 182 0
169 182 0
172 188 0
169 183 0
180 202 0
181 201 0
182 203 0
179 200 0
181 202 0
180 201 0
177 199 0
179 201 0
180 201 0
180 201 0
180 200 0
179 199 0
178 200 0
178 198 0
178 199 0
181 201 0
181 201 0
179 200 0
180 201 0
184 204 0
180 200 0
178 199 0
181 202 0
179 199 0
181 201 0
175 196 0
180 200 0
177 199 0
178 199 0
179 199 0
179 199 0
180 200 0
179 200 0
177 198 0
178 198 0
176 196 0
180 199 0
177 197 0
183 202 0
182 202 0
179 199 0
180 200 0
177 197 0
180 199 0
177 197 0
176 196 0
175 195 0
176 195 0
175 195 0
178 197 0
178 198 0
180 200 0
183 202 0
178 197 0
178 198 0
177 197 0
179 199 0
173 193 0
178 199 0
174 193 0
177 197 0
173 193 0
174 193 0
176 197 0
173 193 0
175 195 0
173 193 0
173 192 0
170 190 0
172 192 0
169 189 0
177 197 0
173 192 0
169 190 0
169 190 0
172 193 0
165 185 0
174 194 0
175 196 0
171 192 0
168 188 0
169 189 0
174 193 0
173 194 0
162 181 0
173 193 0
171 191 0
168 189 0
166 187 0
171 191 0
166 186 0
169 189 0
168 187 0
165 186 0
172 192 0
164 184 0
165 187 0
167 188 0
167 188 0
164 185 0
167 188 0
165 186 0
163 184 0
167 187 0
166 187 0
165 186 0
165 186 0
166 186 0
165 186 0
164 185 0
165 186 0
167 187 0
163 184 0
161 182 0
162 183 0
165 186 0
166 186 0
167 188 0
164 184 0
162 183 0
158 178 0
158 180 0
160 180 0
157 178 0
165 186 0
165 185 0
166 187 0
161 182 0
160 180 0
159 180 0
154 175 0
156 175 0
152 173 0
158 179 0
158 179 0
160 181 0
160 182 0
162 183 0
158 179 0
154 175 0
151 173 0
152 173 0
154 175 0
158 179 0
150 171 0
158 179 0
153 173 0
167 188 0
153 173 0
158 179 0
152 173 0
155 175 0
142 162 0
155 175 0
151 171 0
152 173 0
155 176 0
150 171 0
141 162 0
149 170 0
154 174 0
152 172 0
151 171 0
144 164 0
143 163 0
153 174 0
154 174 0
146 166 0
152 172 0
140 159 0
148 169 0
144 164 0
144 164 0
151 170 0
145 164 0
140 161 0
134 154 0
149 168 0
134 152 0
138 157 0
139 159 0
132 152 0
142 162 0
143 162 0
138 157 0
137 157 0
152 172 0
128 147 0
138 158 0
132 150 0
141 160 0
146 164 0
143 162 0
130 150 0
135 154 0
135 154 0
139 157 0
140 158 0
143 161 0
138 157 0
141 160 0
144 162 0
131 151 0
127 145 0
132 150 0
145 163 0
135 154 0
137 157 0
139 158 0
136 154 0
135 152 0
131 150 0
135 152 0
137 156 0
137 155 0
123 141 0
139 157 0
136 155 0
140 158 0
124 142 0
135 150 0
125 143 0
147 166 0
134 150 0
138 154 0
138 155 0
136 154 0
135 151 0
129 146 0
142 160 0
135 153 0
131 147 0
131 148 0
130 149 0
130 147 0
133 150 0
138 156 0
132 148 0
143 159 0
135 151 0
130 145 0
140 159 0
143 162 0
141 157 0
149 165 0
143 162 0
143 158 0
139 156 0
133 150 0
141 156 0
129 147 0
140 156 0
138 151 0
135 150 0
140 156 0
140 158 0
134 149 0
140 155 0
142 157 0
142 156 0
145 160 0
140 155 0
143 158 0
143 159 0
141 155 0
134 149 0
141 157 0
151 164 0
161 177 0
145 163 0
149 162 0
144 156 0
145 160 0
135 149 0
142 157 0
140 155 0
151 164 0
153 168 0
135 147 0
143 157 0
137 148 0
133 147 0
138 150 0
139 151 0
137 149 0
139 149 0
146 157 0
140 153 0
136 148 0
144 156 0
141 153 0
145 155 0
134 144 0
137 146 0
139 151 0
142 150 0
139 148 0
150 160 0
138 148 0
148 158 0
135 145 0
139 148 0
145 151 0
140 148 0
142 150 0
143 151 0
148 155 0
137 142 0
134 141 0
138 145 0
134 140 0
131 137 0
126 130 0
134 140 0
143 149 0
135 139 0
122 126 0
144 150 0
132 136 0
132 135 0
136 140 0
135 137 0
133 137 0
141 145 0
139 141 0
139 142 0
136 138 0
127 125 0
133 133 0
137 141 0
134 134 0
132 133 0
138 141 0
135 139 0
135 136 0
132 132 0
132 134 0
132 131 0
137 137 0
125 125 0
136 135 0
135 134 0
135 134 0
138 139 0
142 142 0
135 134 0
139 141 0
129 127 0
135 135 0
131 128 0
138 138 0
141 139 0
137 134 0
140 143 0
138 140 0
140 139 0
154 159 0
148 148 0
153 156 0
144 147 0
147 149 0
149 153 0
143 145 0
145 146 0
142 145 0
154 162 0
143 147 0
154 160 0
148 154 0
152 155 0
157 162 0
160 166 0
162 171 0
150 153 0
159 165 0
157 162 0
151 156 0
155 159 0
149 156 0
156 166 0
156 165 0
155 165 0
157 166 0
160 168 0
164 174 0
163 171 0
163 171 0
159 166 0
163 175 0
164 178 0
158 168 0
166 177 0
166 180 0
164 174 0
165 177 0
166 175 0
170 185 0
168 182 0
169 182 0
163 175 0
180 201 0
178 199 0
181 202 0
177 198 0
180 201 0
181 202 0
179 200 0
180 202 0
180 201 0
179 200 0
181 201 0
180 201 0
181 202 0
180 200 0
183 203 0
177 197 0
179 200 0
180 200 0
182 202 0
176 198 0
179 199 0
176 198 0
181 201 0
179 199 0
180 200 0
181 201 0
181 201 0
179 199 0
178 198 0
174 194 0
180 201 0
179 199 0
180 200 0
183 203 0
178 198 0
181 201 0
176 196 0
178 198 0
180 201 0
177 198 0
178 198 0
179 199 0
180 199 0
177 197 0
176 196 0
182 201 0
177 196 0
178 197 0
180 199 0
176 196 0
173 193 0
180 200 0
179 198 0
177 198 0
178 198 0
174 194 0
175 196 0
173 193 0
180 199 0
172 192 0
179 198 0
179 198 0
176 195 0
170 190 0
173 195 0
176 196 0
178 197 0
168 188 0
174 194 0
176 196 0
172 193 0
176 196 0
172 192 0
173 194 0
175 194 0
172 193 0
170 189 0
170 190 0
173 194 0
169 190 0
170 190 0
172 192 0
168 189 0
172 193 0
170 191 0
169 190 0
171 191 0
166 186 0
169 189 0
175 196 0
170 191 0
159 180 0
170 190 0
174 194 0
170 190 0
161 182 0
168 189 0
161 182 0
163 185 0
165 186 0
161 182 0
164 186 0
163 184 0
162 183 0
165 185 0
166 186 0
159 181 0
167 187 0
159 180 0
166 188 0
163 184 0
168 189 0
167 188 0
166 187 0
162 183 0
163 184 0
158 180 0
160 181 0
156 177 0
163 184 0
160 181 0
162 182 0
166 187 0
167 188 0
167 189 0
157 178 0
164 185 0
158 179 0
160 181 0
158 180 0
160 181 0
160 181 0
155 176 0
158 179 0
163 184 0
151 172 0
160 181 0
160 180 0
155 176 0
158 179 0
157 178 0
161 181 0
158 178 0
155 176 0
153 175 0
147 168 0
154 173 0
154 174 0
150 171 0
154 175 0
150 170 0
152 173 0
150 171 0
160 181 0
148 168 0
161 180 0
150 170 0
155 175 0
149 169 0
143 163 0
153 174 0
147 167 0
144 164 0
149 169 0
153 173 0
140 160 0
147 167 0
153 172 0
152 171 0
143 162 0
146 165 0
140 159 0
146 166 0
154 173 0
146 165 0
143 163 0
147 167 0
140 159 0
151 172 0
133 152 0
147 166 0
144 163 0
139 159 0
145 165 0
137 155 0
141 160 0
146 166 0
143 162 0
128 147 0
136 155 0
130 150 0
148 167 0
140 159 0
145 164 0
135 154 0
136 156 0
132 150 0
139 157 0
137 155 0
137 156 0
135 154 0
134 152 0
145 163 0
141 160 0
139 159 0
139 156 0
135 155 0
122 140 0
134 152 0
138 157 0
139 157 0
145 164 0
141 159 0
134 152 0
145 163 0
138 155 0
141 160 0
145 162 0
134 152 0
144 162 0
144 162 0
141 159 0
140 158 0
130 148 0
141 159 0
142 159 0
137 156 0
144 162 0
136 152 0
143 160 0
142 161 0
141 159 0
143 160 0
129 144 0
145 164 0
137 154 0
138 154 0
142 157 0
138 155 0
153 171 0
141 157 0
145 162 0
143 160 0
145 163 0
143 160 0
137 154 0
148 165 0
136 154 0
139 156 0
152 169 0
145 162 0
147 162 0
138 154 0
139 156 0
150 166 0
145 159 0
136 150 0
142 158 0
140 157 0
141 157 0
138 154 0
149 167 0
143 159 0
140 153 0
146 163 0
145 160 0
149 165 0
133 151 0
143 158 0
131 146 0
141 156 0
141 155 0
146 161 0
141 157 0
148 164 0
144 157 0
142 156 0
137 151 0
143 156 0
144 159 0
141 155 0
139 152 0
139 152 0
143 158 0
142 154 0
147 160 0
138 150 0
146 154 0
146 158 0
142 155 0
142 154 0
140 152 0
137 147 0
141 149 0
142 155 0
142 153 0
147 159 0
141 152 0
147 155 0
144 153 0
135 144 0
135 144 0
144 151 0
147 154 0
148 158 0
142 148 0
132 135 0
140 149 0
141 150 0
143 150 0
140 146 0
144 152 0
135 143 0
139 145 0
139 143 0
147 154 0
133 138 0
138 141 0
140 143 0
141 145 0
144 150 0
130 134 0
138 141 0
138 141 0
142 145 0
138 143 0
131 133 0
135 138 0
136 137 0
132 135 0
135 140 0
147 149 0
143 143 0
138 139 0
131 130 0
134 136 0
138 140 0
140 141 0
140 142 0
139 141 0
134 135 0
130 131 0
145 148 0
142 144 0
133 135 0
142 141 0
134 133 0
142 143 0
141 144 0
131 131 0
144 143 0
140 142 0
132 133 0
145 145 0
141 143 0
142 145 0
142 142 0
141 144 0
151 155 0
143 146 0
151 156 0
148 152 0
151 159 0
150 151 0
146 150 0
153 157 0
153 160 0
143 147 0
150 153 0
149 153 0
151 156 0
150 154 0
153 156 0
158 164 0
155 160 0
149 155 0
154 161 0
158 165 0
157 164 0
155 160 0
161 170 0
164 173 0
159 167 0
154 163 0
165 176 0
161 171 0
164 172 0
159 167 0
160 170 0
155 164 0
164 172 0
165 176 0
164 172 0
170 182 0
160 171 0
163 174 0
165 176 0
167 180 0
160 171 0
165 175 0
180 202 0
179 200 0
178 199 0
180 200 0
178 198 0
180 201 0
180 200 0
178 199 0
178 199 0
181 201 0
176 197 0
179 200 0
179 199 0
181 201 0
178 198 0
178 200 0
177 198 0
179 199 0
181 201 0
177 199 0
178 198 0
179 199 0
180 201 0
181 201 0
179 200 0
178 199 0
181 202 0
179 199 0
180 200 0
179 200 0
181 201 0
177 197 0
176 196 0
182 202 0
181 201 0
174 195 0
178 199 0
179 199 0
182 202 0
178 198 0
179 198 0
180 200 0
179 199 0
178 197 0
179 199 0
181 201 0
175 194 0
174 193 0
176 196 0
175 196 0
177 196 0
173 192 0
180 200 0
178 198 0
178 199 0
175 195 0
172 192 0
178 198 0
173 193 0
176 195 0
172 193 0
178 198 0
176 196 0
173 193 0
176 196 0
173 192 0
175 196 0
174 195 0
175 196 0
177 197 0
177 197 0
171 192 0
174 195 0
173 194 0
172 191 0
166 186 0
175 194 0
172 193 0
172 191 0
168 188 0
169 189 0
161 182 0
167 187 0
173 193 0
167 186 0
163 182 0
168 189 0
165 186 0
169 190 0
173 193 0
171 192 0
172 192 0
171 191 0
171 192 0
171 192 0
166 187 0
169 189 0
161 182 0
163 185 0
168 189 0
165 185 0
168 188 0
163 184 0
166 188 0
171 192 0
162 183 0
169 189 0
165 185 0
171 191 0
158 179 0
168 189 0
162 183 0
164 186 0
167 188 0
166 187 0
163 183 0
165 186 0
164 185 0
165 184 0
161 183 0
159 179 0
168 189 0
161 182 0
161 182 0
169 190 0
159 180 0
166 186 0
163 184 0
159 180 0
164 186 0
166 186 0
158 180 0
163 183 0
160 181 0
159 180 0
165 185 0
159 179 0
161 182 0
158 179 0
164 185 0
153 175 0
156 176 0
156 177 0
151 172 0
154 174 0
162 182 0
156 177 0
148 168 0
156 176 0
159 179 0
151 172 0
157 178 0
151 171 0
152 173 0
159 180 0
152 172 0
153 173 0
150 171 0
145 165 0
150 169 0
157 178 0
150 169 0
144 165 0
143 163 0
150 172 0
138 158 0
140 158 0
145 165 0
152 171 0
151 171 0
142 162 0
154 174 0
139 160 0
149 168 0
148 168 0
143 164 0
151 170 0
149 169 0
150 170 0
142 162 0
141 162 0
145 164 0
135 155 0
143 162 0
137 157 0
141 161 0
141 159 0
143 162 0
144 162 0
146 164 0
144 163 0
132 151 0
137 156 0
133 152 0
147 166 0
144 163 0
145 165 0
137 157 0
143 161 0
136 154 0
144 163 0
142 160 0
133 151 0
142 161 0
142 160 0
135 154 0
139 158 0
133 152 0
138 154 0
146 164 0
142 160 0
139 157 0
137 154 0
137 157 0
130 148 0
140 159 0
133 150 0
130 148 0
136 155 0
146 165 0
145 163 0
137 155 0
133 152 0
142 160 0
139 156 0
138 157 0
137 155 0
140 157 0
133 149 0
129 147 0
147 165 0
151 168 0
139 156 0
143 161 0
132 150 0
136 154 0
134 149 0
139 156 0
138 156 0
144 161 0
147 165 0
140 156 0
146 161 0
148 165 0
144 160 0
145 162 0
142 159 0
129 143 0
147 164 0
148 165 0
143 159 0
138 156 0
146 164 0
147 164 0
142 158 0
146 160 0
145 161 0
141 155 0
141 157 0
153 170 0
151 166 0
146 163 0
144 162 0
153 169 0
143 158 0
147 162 0
146 161 0
150 165 0
152 166 0
150 167 0
154 169 0
146 161 0
144 158 0
150 164 0
141 153 0
144 157 0
149 164 0
138 152 0
141 155 0
142 157 0
133 147 0
146 159 0
154 170 0
145 158 0
140 153 0
137 147 0
153 168 0
135 148 0
144 158 0
142 155 0
147 162 0
145 157 0
147 158 0
139 152 0
144 157 0
142 154 0
137 147 0
149 158 0
142 152 0
147 157 0
152 161 0
141 154 0
140 151 0
148 159 0
136 144 0
137 145 0
144 152 0
142 151 0
151 160 0
136 142 0
140 145 0
136 143 0
140 150 0
144 153 0
143 149 0
142 152 0
146 154 0
147 155 0
146 153 0
153 159 0
143 147 0
146 153 0
135 139 0
138 140 0
136 139 0
138 139 0
139 142 0
134 134 0
145 150 0
140 143 0
142 144 0
140 143 0
136 138 0
133 135 0
142 147 0
139 140 0
143 146 0
142 144 0
140 141 0
139 141 0
137 139 0
141 145 0
142 145 0
146 147 0
133 135 0
143 146 0
143 148 0
131 128 0
146 149 0
145 148 0
143 145 0
145 147 0
139 140 0
131 132 0
146 147 0
152 152 0
152 156 0
144 145 0
148 151 0
148 150 0
144 145 0
138 139 0
153 157 0
147 150 0
153 158 0
147 151 0
148 149 0
148 152 0
154 160 0
150 152 0
151 156 0
150 153 0
146 151 0
158 163 0
154 159 0
151 155 0
151 157 0
151 156 0
164 170 0
164 171 0
156 165 0
154 161 0
161 170 0
153 163 0
150 156 0
165 175 0
154 160 0
164 173 0
162 173 0
165 173 0
162 170 0
165 177 0
169 180 0
162 173 0
164 176 0
164 176 0
162 174 0
166 178 0
167 178 0
163 173 0
180 201 0
179 199 0
178 199 0
180 200 0
180 201 0
179 200 0
178 199 0
180 201 0
181 202 0
180 200 0
182 203 0
181 201 0
178 198 0
183 203 0
178 199 0
179 199 0
178 200 0
178 199 0
182 203 0
177 198 0
177 197 0
176 197 0
177 198 0
181 201 0
179 200 0
181 201 0
180 201 0
180 200 0
177 197 0
177 198 0
180 201 0
176 197 0
179 200 0
177 198 0
174 194 0
178 199 0
179 199 0
178 198 0
179 199 0
182 201 0
178 198 0
179 199 0
177 197 0
177 197 0
176 197 0
175 195 0
176 197 0
176 197 0
174 195 0
181 200 0
174 193 0
175 195 0
175 195 0
178 199 0
175 196 0
178 197 0
175 195 0
173 193 0
175 195 0
177 197 0
176 195 0
174 194 0
175 195 0
172 193 0
177 196 0
174 195 0
171 192 0
170 189 0
175 195 0
170 190 0
175 195 0
173 193 0
176 196 0
178 197 0
170 190 0
174 194 0
169 189 0
170 190 0
170 191 0
171 191 0
170 190 0
167 188 0
162 183 0
171 192 0
164 184 0
168 188 0
169 189 0
172 193 0
166 187 0
165 186 0
166 187 0
167 188 0
169 189 0
170 191 0
165 185 0
161 181 0
165 185 0
164 185 0
162 182 0
165 187 0
161 181 0
166 187 0
160 181 0
168 188 0
167 188 0
166 187 0
167 189 0
165 186 0
163 184 0
169 190 0
158 179 0
170 190 0
164 185 0
161 181 0
155 177 0
168 189 0
163 183 0
167 188 0
172 192 0
163 185 0
161 182 0
157 178 0
161 182 0
158 179 0
162 184 0
161 183 0
158 178 0
155 176 0
163 184 0
156 177 0
157 178 0
160 180 0
157 178 0
159 179 0
162 182 0
160 181 0
151 172 0
160 181 0
157 177 0
155 176 0
160 181 0
157 177 0
162 183 0
150 171 0
160 181 0
155 175 0
157 178 0
154 175 0
153 173 0
155 175 0
149 170 0
157 177 0
155 175 0
154 175 0
155 175 0
150 172 0
145 165 0
153 173 0
149 169 0
151 173 0
145 166 0
152 173 0
147 166 0
150 170 0
144 164 0
146 166 0
154 174 0
150 170 0
148 167 0
148 169 0
155 175 0
142 162 0
139 160 0
138 158 0
150 170 0
145 164 0
150 170 0
145 166 0
145 166 0
153 174 0
153 173 0
141 161 0
148 168 0
144 164 0
139 159 0
142 161 0
138 156 0
145 165 0
147 166 0
139 159 0
138 156 0
141 159 0
141 160 0
139 158 0
141 161 0
146 165 0
143 162 0
140 160 0
141 159 0
138 157 0
141 159 0
132 151 0
141 159 0
133 150 0
141 161 0
134 152 0
147 163 0
151 169 0
146 165 0
135 154 0
127 146 0
131 151 0
142 162 0
136 155 0
140 160 0
149 167 0
141 159 0
130 149 0
148 166 0
140 158 0
143 160 0
144 163 0
144 162 0
142 158 0
139 157 0
146 163 0
141 159 0
149 167 0
146 164 0
138 156 0
141 159 0
142 160 0
136 153 0
142 161 0
133 150 0
142 162 0
140 158 0
131 148 0
137 153 0
151 168 0
143 161 0
149 167 0
144 163 0
133 150 0
142 159 0
143 160 0
126 143 0
130 146 0
139 157 0
144 160 0
146 163 0
145 161 0
153 169 0
147 163 0
145 162 0
150 167 0
146 162 0
143 158 0
151 168 0
147 164 0
151 167 0
148 166 0
141 159 0
137 153 0
135 150 0
147 163 0
145 159 0
153 169 0
141 158 0
142 157 0
151 166 0
149 164 0
148 163 0
146 161 0
143 157 0
150 166 0
147 161 0
149 163 0
132 146 0
150 163 0
147 161 0
147 161 0
151 163 0
149 164 0
144 157 0
147 161 0
150 165 0
152 166 0
138 148 0
146 159 0
150 164 0
151 164 0
141 153 0
151 163 0
144 155 0
146 158 0
148 159 0
152 164 0
148 157 0
144 156 0
145 158 0
145 155 0
148 160 0
155 167 0
139 149 0
145 156 0
140 151 0
146 157 0
140 149 0
148 155 0
149 158 0
140 149 0
139 147 0
140 145 0
144 152 0
145 151 0
141 147 0
144 149 0
140 146 0
147 155 0
145 154 0
148 152 0
138 144 0
138 146 0
139 147 0
144 149 0
135 136 0
139 142 0
140 145 0
141 144 0
141 146 0
138 141 0
140 142 0
145 151 0
138 140 0
136 139 0
141 144 0
130 129 0
152 155 0
139 142 0
150 153 0
145 150 0
137 137 0
148 151 0
148 150 0
141 144 0
149 152 0
139 138 0
143 144 0
143 147 0
149 151 0
144 146 0
131 135 0
145 146 0
145 145 0
146 148 0
146 148 0
147 149 0
148 150 0
151 155 0
151 157 0
154 159 0
146 145 0
145 147 0
152 155 0
148 151 0
151 158 0
142 144 0
148 152 0
150 155 0
157 162 0
152 157 0
153 158 0
143 144 0
152 158 0
157 162 0
158 161 0
161 168 0
156 164 0
152 157 0
158 164 0
156 165 0
160 167 0
159 168 0
161 168 0
160 169 0
160 166 0
158 166 0
159 166 0
165 177 0
162 173 0
158 167 0
162 173 0
164 176 0
161 173 0
159 166 0
165 175 0
163 174 0
169 179 0
164 177 0
178 199 0
178 200 0
180 202 0
178 200 0
179 200 0
180 201 0
177 198 0
178 199 0
180 201 0
178 199 0
180 201 0
180 201 0
177 198 0
180 201 0
178 199 0
179 200 0
180 200 0
179 200 0
180 200 0
179 200 0
176 196 0
179 200 0
182 202 0
179 200 0
178 199 0
178 198 0
178 198 0
179 200 0
179 200 0
173 194 0
178 198 0
179 199 0
180 200 0
183 203 0
181 201 0
177 197 0
179 199 0
176 197 0
181 201 0
174 194 0
177 198 0
174 194 0
178 198 0
180 199 0
181 201 0
175 196 0
174 193 0
178 198 0
178 198 0
177 197 0
181 201 0
177 197 0
177 197 0
178 199 0
174 195 0
176 195 0
176 196 0
177 197 0
177 197 0
171 191 0
175 196 0
173 194 0
173 194 0
171 191 0
170 190 0
173 193 0
176 196 0
171 192 0
171 191 0
169 190 0
168 188 0
171 192 0
173 193 0
168 189 0
166 186 0
170 190 0
170 191 0
176 197 0
169 190 0
168 189 0
165 185 0
169 189 0
170 190 0
169 189 0
167 187 0
166 186 0
168 189 0
161 181 0
170 190 0
162 182 0
174 195 0
166 186 0
167 189 0
169 190 0
168 189 0
160 181 0
167 188 0
166 186 0
163 184 0
170 190 0
168 189 0
163 183 0
166 187 0
167 188 0
165 185 0
166 187 0
164 185 0
168 190 0
159 181 0
164 186 0
169 190 0
159 180 0
163 184 0
161 182 0
161 183 0
164 185 0
165 186 0
160 182 0
158 179 0
162 183 0
164 185 0
157 178 0
159 180 0
168 189 0
162 183 0
163 184 0
167 187 0
163 184 0
160 182 0
163 184 0
158 178 0
159 181 0
162 183 0
156 177 0
153 174 0
164 185 0
153 174 0
151 171 0
157 178 0
159 179 0
160 180 0
155 175 0
162 184 0
164 184 0
152 172 0
146 166 0
157 177 0
148 168 0
155 175 0
155 175 0
149 170 0
157 178 0
147 168 0
154 175 0
157 177 0
150 170 0
153 174 0
157 178 0
158 179 0
162 183 0
146 168 0
156 176 0
159 179 0
149 169 0
154 175 0
151 171 0
149 170 0
154 174 0
146 166 0
148 169 0
151 171 0
153 173 0
148 167 0
151 171 0
147 166 0
143 163 0
148 167 0
155 174 0
148 168 0
143 162 0
143 162 0
149 169 0
138 158 0
147 166 0
137 157 0
141 162 0
150 171 0
147 167 0
142 161 0
144 164 0
143 162 0
142 161 0
144 164 0
130 149 0
140 160 0
141 160 0
146 165 0
147 167 0
144 164 0
143 161 0
140 159 0
139 159 0
149 167 0
132 151 0
142 161 0
134 153 0
143 161 0
135 152 0
147 165 0
145 163 0
146 165 0
144 162 0
149 168 0
141 160 0
135 155 0
142 160 0
135 155 0
143 160 0
146 164 0
138 156 0
132 150 0
143 162 0
144 163 0
138 156 0
140 158 0
133 152 0
138 158 0
132 151 0
145 163 0
150 168 0
147 163 0
143 160 0
147 165 0
148 167 0
143 162 0
139 157 0
145 162 0
140 158 0
144 164 0
142 160 0
145 160 0
146 164 0
146 163 0
148 165 0
152 171 0
149 165 0
147 163 0
137 156 0
146 164 0
159 177 0
144 162 0
149 165 0
136 153 0
150 166 0
141 157 0
147 164 0
145 161 0
144 160 0
146 163 0
137 153 0
147 165 0
144 160 0
145 159 0
143 159 0
140 157 0
143 160 0
151 168 0
149 167 0
149 164 0
152 167 0
137 151 0
142 158 0
142 156 0
149 163 0
148 164 0
149 163 0
145 161 0
136 151 0
158 174 0
153 169 0
140 154 0
144 157 0
148 162 0
147 162 0
149 162 0
145 159 0
144 157 0
146 160 0
148 158 0
145 156 0
139 153 0
149 162 0
149 162 0
147 158 0
147 159 0
139 151 0
147 157 0
142 152 0
144 152 0
142 153 0
147 158 0
151 161 0
142 153 0
139 149 0
140 149 0
150 163 0
148 157 0
135 146 0
141 152 0
142 152 0
145 151 0
142 152 0
155 163 0
136 141 0
145 154 0
148 156 0
135 143 0
146 153 0
138 145 0
140 147 0
140 146 0
133 141 0
144 150 0
143 149 0
144 150 0
138 145 0
151 154 0
143 149 0
153 159 0
144 150 0
148 155 0
140 144 0
151 156 0
142 149 0
150 159 0
140 143 0
144 148 0
141 145 0
142 144 0
138 142 0
151 155 0
150 156 0
141 142 0
142 146 0
144 149 0
144 147 0
145 149 0
147 151 0
147 150 0
144 146 0
142 144 0
146 151 0
145 149 0
146 149 0
148 152 0
146 149 0
150 157 0
146 151 0
152 154 0
141 144 0
149 155 0
149 151 0
143 146 0
148 150 0
152 156 0
146 148 0
153 160 0
147 152 0
155 159 0
148 153 0
149 152 0
151 154 0
154 160 0
158 164 0
155 160 0
155 160 0
159 166 0
153 161 0
153 159 0
160 168 0
155 164 0
155 162 0
159 168 0
149 157 0
157 167 0
167 175 0
159 170 0
159 167 0
163 175 0
159 167 0
160 168 0
161 170 0
164 174 0
159 168 0
161 171 0
160 170 0
169 180 0
169 179 0
165 176 0
165 176 0
179 200 0
177 199 0
179 200 0
180 202 0
181 201 0
179 200 0
179 200 0
176 197 0
178 199 0
178 200 0
179 201 0
177 199 0
178 199 0
180 200 0
178 199 0
177 199 0
177 198 0
181 201 0
177 198 0
178 199 0
178 199 0
181 201 0
175 196 0
178 199 0
178 198 0
176 197 0
180 200 0
178 198 0
181 201 0
175 195 0
177 197 0
178 197 0
182 202 0
178 199 0
177 198 0
180 201 0
174 195 0
176 196 0
176 195 0
177 198 0
181 202 0
177 197 0
175 196 0
176 196 0
176 197 0
178 198 0
179 199 0
176 195 0
173 193 0
176 197 0
176 196 0
178 197 0
171 191 0
178 198 0
172 193 0
175 194 0
172 193 0
174 194 0
175 195 0
176 196 0
176 197 0
176 196 0
172 191 0
173 194 0
175 196 0
169 189 0
172 192 0
172 192 0
171 192 0
172 193 0
172 193 0
169 190 0
172 192 0
169 190 0
174 194 0
173 194 0
175 196 0
172 192 0
171 192 0
174 194 0
167 189 0
161 183 0
165 186 0
175 195 0
171 192 0
166 187 0
162 183 0
162 183 0
172 193 0
171 192 0
168 189 0
168 189 0
170 190 0
163 184 0
164 185 0
166 187 0
165 186 0
165 185 0
162 183 0
160 180 0
170 191 0
168 189 0
169 190 0
166 188 0
168 188 0
163 184 0
168 189 0
168 189 0
162 184 0
165 186 0
167 188 0
162 184 0
158 178 0
162 183 0
161 182 0
163 184 0
160 182 0
161 181 0
166 187 0
164 185 0
165 186 0
161 182 0
166 186 0
166 188 0
158 178 0
157 179 0
160 182 0
167 187 0
158 179 0
160 182 0
162 184 0
152 174 0
154 175 0
152 172 0
166 187 0
157 177 0
160 182 0
158 178 0
157 178 0
155 176 0
157 177 0
164 185 0
160 181 0
161 181 0
154 175 0
154 175 0
152 172 0
156 178 0
152 171 0
153 174 0
165 186 0
152 173 0
140 162 0
156 176 0
150 171 0
150 169 0
149 171 0
154 174 0
146 167 0
155 175 0
151 171 0
154 174 0
161 182 0
147 166 0
142 162 0
146 166 0
141 162 0
148 169 0
150 172 0
144 163 0
155 175 0
146 166 0
155 175 0
134 155 0
141 161 0
153 172 0
150 169 0
146 165 0
148 168 0
153 174 0
148 168 0
141 162 0
145 164 0
149 169 0
143 162 0
144 164 0
142 161 0
142 162 0
146 167 0
141 162 0
148 168 0
144 164 0
145 165 0
149 169 0
141 160 0
149 167 0
144 164 0
135 153 0
143 163 0
142 161 0
137 156 0
139 156 0
150 170 0
134 153 0
139 158 0
140 160 0
145 164 0
146 166 0
146 164 0
144 164 0
142 161 0
148 167 0
147 166 0
144 162 0
139 159 0
138 156 0
145 164 0
142 161 0
141 160 0
143 161 0
148 166 0
139 158 0
144 162 0
137 155 0
144 162 0
140 159 0
134 154 0
132 150 0
147 164 0
149 169 0
148 166 0
145 164 0
151 169 0
140 158 0
135 153 0
148 165 0
141 159 0
147 164 0
147 164 0
148 166 0
143 160 0
143 160 0
139 156 0
153 173 0
143 159 0
129 146 0
144 164 0
142 158 0
149 169 0
142 158 0
141 159 0
149 167 0
143 159 0
152 168 0
138 154 0
147 163 0
138 153 0
138 154 0
141 158 0
144 160 0
145 162 0
148 166 0
148 165 0
143 160 0
142 157 0
145 160 0
149 164 0
143 160 0
146 162 0
153 169 0
147 162 0
150 164 0
144 160 0
152 167 0
148 163 0
149 165 0
158 174 0
150 166 0
147 159 0
145 161 0
152 166 0
150 165 0
146 161 0
145 159 0
148 160 0
139 154 0
145 159 0
152 163 0
146 158 0
148 160 0
141 153 0
142 154 0
148 161 0
145 158 0
146 158 0
150 163 0
140 152 0
153 167 0
144 153 0
150 162 0
148 161 0
152 163 0
147 160 0
143 155 0
148 160 0
144 155 0
142 154 0
146 158 0
138 147 0
147 155 0
153 165 0
145 154 0
145 154 0
147 154 0
149 158 0
146 157 0
148 156 0
143 151 0
148 155 0
145 150 0
144 150 0
145 151 0
145 151 0
134 139 0
137 142 0
142 149 0
141 147 0
152 160 0
140 146 0
151 157 0
142 146 0
145 149 0
139 144 0
141 149 0
149 153 0
144 146 0
146 151 0
145 149 0
151 153 0
140 143 0
143 147 0
154 156 0
141 142 0
145 147 0
147 153 0
139 137 0
143 148 0
144 148 0
145 149 0
143 145 0
146 149 0
138 140 0
142 146 0
146 148 0
146 148 0
153 156 0
148 150 0
147 152 0
149 154 0
150 153 0
154 160 0
150 155 0
148 155 0
151 153 0
146 147 0
153 159 0
153 158 0
142 148 0
156 162 0
152 157 0
160 168 0
157 163 0
150 155 0
158 165 0
156 163 0
156 162 0
153 155 0
150 155 0
156 165 0
153 160 0
157 164 0
156 164 0
164 173 0
154 160 0
159 169 0
154 162 0
160 170 0
159 167 0
161 172 0
157 165 0
158 166 0
160 168 0
162 172 0
170 179 0
160 170 0
163 173 0
161 172 0
165 177 0
162 172 0
166 179 0
179 201 0
180 202 0
181 201 0
176 197 0
179 199 0
178 198 0
177 198 0
179 200 0
178 199 0
178 198 0
177 198 0
179 201 0
178 199 0
179 200 0
178 198 0
178 199 0
179 199 0
177 197 0
179 200 0
179 200 0
180 201 0
182 202 0
182 202 0
180 200 0
178 198 0
179 199 0
178 198 0
180 200 0
181 201 0
173 194 0
176 196 0
178 198 0
177 197 0
176 197 0
177 198 0
179 199 0
177 197 0
175 196 0
175 195 0
179 200 0
178 198 0
180 199 0
177 198 0
183 203 0
178 199 0
171 191 0
179 199 0
176 196 0
174 194 0
173 194 0
177 198 0
178 198 0
174 195 0
175 196 0
178 198 0
177 196 0
174 194 0
172 192 0
174 194 0
176 197 0
171 191 0
172 192 0
171 191 0
171 192 0
175 195 0
166 187 0
175 195 0
174 195 0
174 195 0
172 192 0
172 193 0
163 184 0
171 191 0
170 191 0
172 192 0
173 193 0
172 192 0
171 191 0
172 193 0
170 191 0
169 189 0
171 192 0
168 189 0
172 192 0
167 188 0
166 186 0
168 189 0
165 187 0
163 185 0
158 179 0
167 188 0
171 192 0
159 181 0
161 182 0
164 185 0
172 193 0
162 183 0
163 183 0
165 186 0
165 186 0
165 186 0
164 185 0
167 189 0
161 182 0
170 190 0
161 182 0
166 187 0
164 185 0
162 184 0
163 185 0
165 186 0
163 184 0
163 183 0
163 184 0
163 184 0
160 181 0
166 186 0
160 182 0
164 185 0
167 189 0
166 186 0
160 181 0
158 180 0
160 180 0
159 182 0
161 182 0
159 181 0
153 174 0
161 183 0
158 179 0
167 188 0
161 182 0
160 182 0
158 178 0
166 188 0
162 183 0
162 184 0
153 176 0
160 179 0
165 186 0
163 183 0
157 177 0
161 182 0
160 180 0
158 179 0
160 181 0
157 178 0
149 169 0
158 179 0
156 178 0
157 178 0
152 173 0
155 175 0
161 181 0
155 176 0
160 180 0
154 176 0
154 176 0
145 166 0
151 172 0
154 174 0
151 171 0
159 179 0
159 180 0
145 166 0
152 173 0
155 176 0
146 166 0
153 174 0
155 176 0
151 171 0
144 164 0
149 169 0
155 175 0
149 170 0
147 167 0
154 175 0
147 167 0
156 176 0
148 168 0
145 166 0
139 158 0
145 163 0
152 173 0
152 173 0
151 170 0
143 162 0
153 173 0
150 169 0
156 176 0
144 163 0
144 163 0
153 173 0
142 161 0
147 166 0
149 168 0
141 161 0
151 171 0
148 168 0
150 169 0
141 160 0
150 171 0
147 166 0
148 169 0
145 163 0
139 159 0
147 164 0
144 164 0
129 147 0
147 166 0
138 157 0
139 159 0
144 163 0
148 166 0
144 163 0
140 159 0
143 163 0
147 164 0
144 164 0
133 152 0
152 171 0
142 162 0
144 162 0
140 156 0
136 154 0
147 164 0
140 159 0
141 158 0
146 165 0
155 173 0
146 165 0
141 158 0
150 167 0
144 162 0
147 163 0
129 145 0
142 161 0
150 166 0
148 167 0
151 169 0
140 157 0
149 167 0
144 161 0
138 155 0
138 157 0
155 173 0
144 163 0
147 165 0
148 165 0
148 165 0
148 165 0
146 165 0
149 168 0
152 170 0
145 162 0
150 166 0
141 159 0
149 166 0
143 159 0
156 173 0
143 159 0
146 165 0
152 168 0
156 173 0
146 163 0
149 165 0
140 158 0
151 168 0
148 165 0
151 167 0
146 160 0
141 157 0
148 164 0
146 161 0
142 159 0
151 167 0
144 158 0
140 154 0
150 166 0
151 168 0
151 166 0
145 159 0
157 170 0
151 167 0
141 153 0
152 168 0
148 162 0
141 154 0
146 159 0
149 163 0
148 164 0
157 170 0
140 154 0
151 165 0
143 157 0
141 154 0
142 155 0
148 159 0
149 160 0
150 162 0
155 169 0
157 167 0
145 156 0
147 157 0
152 163 0
144 154 0
146 158 0
145 154 0
150 160 0
147 155 0
143 154 0
147 158 0
150 162 0
142 152 0
145 153 0
136 145 0
138 146 0
143 149 0
146 156 0
151 160 0
144 153 0
145 155 0
143 151 0
141 148 0
153 161 0
150 159 0
142 148 0
149 156 0
148 153 0
145 150 0
149 155 0
147 153 0
142 151 0
154 162 0
144 151 0
143 150 0
148 156 0
132 134 0
145 150 0
152 160 0
146 151 0
144 148 0
146 151 0
143 146 0
147 153 0
153 159 0
142 146 0
143 148 0
143 148 0
146 150 0
148 153 0
148 149 0
156 162 0
151 156 0
144 145 0
147 149 0
147 151 0
149 151 0
142 145 0
149 152 0
153 159 0
154 157 0
144 148 0
151 154 0
149 155 0
150 155 0
152 159 0
143 148 0
154 160 0
146 153 0
159 167 0
157 162 0
156 163 0
147 147 0
161 168 0
154 159 0
157 163 0
148 153 0
160 167 0
156 164 0
157 163 0
157 163 0
160 168 0
157 163 0
159 165 0
157 167 0
164 172 0
156 163 0
162 173 0
158 167 0
160 169 0
163 170 0
162 172 0
156 168 0
162 171 0
165 176 0
167 178 0
160 170 0
161 171 0
161 170 0
177 198 0
181 202 0
177 198 0
178 199 0
180 201 0
181 202 0
176 197 0
179 201 0
180 201 0
179 200 0
182 202 0
178 198 0
178 199 0
179 199 0
178 198 0
180 201 0
177 197 0
177 198 0
175 196 0
175 196 0
179 200 0
176 196 0
177 197 0
178 198 0
180 201 0
179 199 0
181 201 0
173 193 0
176 197 0
175 195 0
180 200 0
177 197 0
178 198 0
179 199 0
180 200 0
179 199 0
180 200 0
180 201 0
173 193 0
177 197 0
175 196 0
175 195 0
177 197 0
177 198 0
173 194 0
176 196 0
178 198 0
179 199 0
177 197 0
180 200 0
177 197 0
176 196 0
178 198 0
176 196 0
172 194 0
175 195 0
174 194 0
171 192 0
171 192 0
168 189 0
173 192 0
174 194 0
173 195 0
173 193 0
176 197 0
177 197 0
178 198 0
173 194 0
175 196 0
174 194 0
170 191 0
172 192 0
171 191 0
170 191 0
173 193 0
173 193 0
173 195 0
172 192 0
171 191 0
169 189 0
166 186 0
160 181 0
174 194 0
170 191 0
164 185 0
174 194 0
168 189 0
168 190 0
171 192 0
168 188 0
164 185 0
168 189 0
167 187 0
167 188 0
165 186 0
168 188 0
166 187 0
167 188 0
164 185 0
165 186 0
165 187 0
167 189 0
160 181 0
164 185 0
165 186 0
171 192 0
166 186 0
167 187 0
162 182 0
169 189 0
165 186 0
164 186 0
168 188 0
156 177 0
163 184 0
168 189 0
164 185 0
168 189 0
161 183 0
168 190 0
167 188 0
164 186 0
158 180 0
158 179 0
161 182 0
163 185 0
162 183 0
159 180 0
159 179 0
157 179 0
163 185 0
156 178 0
158 180 0
159 180 0
166 187 0
158 179 0
156 178 0
161 182 0
150 170 0
157 179 0
155 176 0
152 173 0
152 173 0
147 169 0
164 185 0
159 180 0
153 174 0
158 178 0
152 173 0
157 177 0
145 167 0
154 174 0
150 171 0
163 183 0
156 176 0
151 170 0
143 163 0
145 167 0
153 174 0
153 173 0
148 168 0
152 173 0
153 175 0
160 181 0
149 169 0
143 162 0
155 175 0
150 172 0
141 162 0
149 168 0
150 171 0
142 162 0
152 172 0
155 175 0
147 168 0
152 172 0
149 169 0
147 166 0
149 169 0
150 170 0
155 175 0
149 170 0
139 158 0
150 169 0
153 174 0
152 172 0
138 157 0
146 165 0
152 172 0
153 174 0
146 166 0
148 168 0
148 168 0
142 162 0
145 164 0
142 161 0
132 152 0
147 166 0
145 164 0
148 167 0
140 159 0
148 167 0
147 167 0
142 161 0
149 168 0
149 169 0
143 162 0
139 159 0
154 174 0
146 165 0
155 174 0
138 158 0
152 171 0
148 166 0
144 165 0
146 165 0
147 165 0
150 168 0
143 162 0
137 155 0
144 163 0
147 167 0
147 167 0
146 164 0
147 166 0
136 154 0
144 162 0
135 152 0
143 161 0
145 164 0
140 158 0
137 156 0
140 157 0
143 160 0
155 174 0
147 165 0
147 166 0
148 166 0
148 166 0
138 155 0
149 167 0
147 165 0
147 163 0
154 172 0
141 161 0
144 160 0
143 160 0
152 170 0
148 165 0
145 163 0
152 170 0
148 167 0
141 157 0
149 166 0
148 166 0
149 168 0
153 170 0
139 154 0
147 164 0
148 165 0
149 167 0
151 165 0
149 165 0
145 161 0
150 167 0
150 167 0
150 167 0
150 169 0
152 170 0
150 166 0
151 169 0
145 163 0
143 156 0
152 168 0
153 170 0
149 165 0
146 163 0
148 165 0
154 168 0
151 166 0
144 157 0
146 163 0
149 162 0
150 164 0
151 167 0
147 162 0
151 166 0
152 167 0
143 158 0
149 160 0
148 160 0
153 167 0
144 155 0
149 163 0
144 157 0
150 161 0
148 164 0
145 158 0
152 164 0
148 161 0
138 150 0
148 161 0
149 162 0
151 164 0
147 158 0
152 165 0
147 159 0
147 157 0
148 157 0
149 159 0
160 172 0
146 157 0
145 157 0
150 161 0
153 161 0
153 162 0
142 150 0
152 163 0
146 155 0
141 150 0
146 156 0
145 155 0
134 144 0
140 148 0
144 151 0
149 155 0
144 151 0
149 157 0
155 162 0
149 157 0
145 153 0
146 154 0
148 155 0
151 159 0
138 145 0
154 166 0
149 155 0
146 152 0
147 153 0
139 147 0
148 156 0
154 164 0
147 154 0
142 147 0
141 148 0
144 147 0
150 153 0
148 153 0
151 157 0
149 150 0
152 158 0
147 152 0
151 156 0
151 156 0
139 141 0
147 153 0
151 157 0
142 147 0
145 150 0
147 154 0
148 154 0
148 154 0
150 155 0
152 157 0
148 152 0
143 148 0
152 158 0
162 168 0
150 154 0
147 153 0
156 162 0
155 161 0
155 160 0
150 159 0
150 157 0
147 151 0
157 165 0
156 166 0
153 159 0
152 159 0
151 157 0
158 163 0
151 159 0
161 168 0
151 160 0
159 167 0
162 170 0
156 163 0
158 165 0
160 167 0
163 171 0
161 169 0
161 173 0
157 166 0
158 166 0
159 169 0
160 171 0
162 172 0
161 170 0
164 173 0
178 199 0
177 199 0
179 200 0
179 200 0
177 198 0
179 201 0
176 197 0
180 200 0
180 200 0
180 200 0
177 199 0
178 200 0
182 202 0
179 199 0
177 197 0
176 197 0
179 199 0
180 201 0
179 199 0
179 199 0
176 197 0
177 197 0
175 197 0
180 200 0
179 199 0
181 201 0
179 200 0
181 201 0
177 196 0
178 198 0
179 199 0
180 200 0
175 195 0
179 199 0
176 196 0
176 196 0
171 192 0
176 197 0
177 197 0
179 200 0
169 190 0
177 197 0
178 199 0
176 196 0
175 195 0
178 198 0
173 194 0
173 193 0
174 195 0
169 190 0
174 194 0
171 192 0
173 193 0
178 197 0
175 195 0
173 193 0
168 188 0
176 196 0
169 189 0
173 194 0
170 190 0
172 193 0
174 193 0
168 189 0
177 197 0
171 192 0
174 195 0
169 188 0
169 190 0
175 195 0
170 190 0
171 191 0
172 193 0
171 192 0
168 189 0
170 191 0
171 192 0
163 184 0
178 198 0
171 192 0
171 192 0
167 188 0
169 191 0
168 190 0
163 184 0
175 196 0
164 185 0
171 192 0
169 190 0
170 191 0
167 187 0
167 187 0
171 193 0
172 193 0
167 187 0
162 183 0
163 186 0
171 193 0
171 192 0
167 187 0
165 187 0
168 188 0
168 190 0
162 183 0
164 184 0
163 184 0
160 181 0
162 182 0
158 179 0
163 184 0
167 187 0
161 182 0
167 188 0
157 178 0
163 183 0
158 180 0
162 184 0
162 183 0
161 183 0
161 182 0
161 182 0
164 186 0
155 177 0
163 184 0
155 176 0
162 182 0
165 187 0
162 183 0
157 178 0
153 174 0
154 175 0
155 176 0
163 183 0
162 183 0
150 171 0
163 184 0
159 180 0
159 181 0
159 180 0
161 182 0
165 186 0
164 186 0
158 178 0
154 175 0
158 179 0
160 181 0
164 185 0
153 174 0
158 179 0
150 172 0
156 176 0
160 182 0
164 185 0
161 181 0
159 181 0
159 180 0
150 172 0
147 167 0
149 168 0
154 176 0
151 171 0
147 168 0
158 180 0
156 177 0
148 168 0
163 183 0
155 175 0
157 177 0
147 167 0
152 172 0
156 176 0
154 173 0
155 175 0
151 171 0
152 172 0
148 166 0
145 165 0
146 167 0
153 173 0
144 164 0
147 167 0
146 167 0
148 168 0
146 166 0
144 164 0
142 161 0
139 158 0
149 169 0
142 163 0
150 170 0
145 164 0
137 157 0
149 169 0
153 174 0
140 160 0
148 168 0
149 169 0
147 167 0
142 161 0
154 173 0
145 165 0
131 151 0
140 160 0
144 162 0
142 162 0
143 163 0
139 158 0
134 153 0
141 160 0
151 171 0
141 160 0
147 165 0
153 172 0
148 167 0
146 166 0
139 157 0
147 166 0
155 174 0
147 166 0
152 171 0
144 162 0
145 164 0
137 155 0
147 166 0
147 165 0
145 165 0
145 163 0
150 169 0
144 163 0
141 158 0
153 172 0
150 170 0
150 168 0
150 167 0
152 171 0
145 164 0
143 162 0
150 167 0
142 159 0
146 164 0
138 155 0
144 161 0
148 165 0
141 160 0
146 163 0
150 168 0
152 168 0
152 170 0
145 162 0
147 164 0
140 158 0
152 171 0
142 159 0
147 164 0
145 164 0
139 158 0
150 168 0
140 157 0
149 167 0
150 166 0
144 161 0
154 170 0
143 157 0
149 168 0
148 164 0
146 162 0
150 166 0
149 166 0
154 171 0
145 161 0
151 169 0
144 162 0
146 164 0
143 159 0
153 169 0
157 173 0
147 162 0
149 164 0
150 166 0
148 162 0
146 163 0
153 167 0
150 164 0
144 157 0
147 163 0
151 166 0
153 168 0
149 163 0
150 165 0
141 155 0
142 154 0
146 160 0
152 168 0
145 159 0
147 161 0
145 159 0
153 167 0
151 166 0
154 167 0
147 159 0
149 162 0
153 168 0
151 163 0
154 167 0
148 159 0
146 159 0
148 160 0
149 161 0
156 168 0
143 153 0
144 156 0
151 162 0
151 162 0
146 158 0
152 165 0
140 149 0
143 151 0
158 169 0
144 153 0
149 157 0
143 150 0
146 154 0
154 165 0
144 152 0
152 163 0
154 162 0
152 162 0
151 161 0
143 151 0
153 163 0
149 157 0
149 157 0
146 155 0
155 167 0
149 155 0
156 163 0
149 154 0
149 157 0
146 153 0
150 156 0
144 150 0
149 156 0
156 164 0
149 157 0
147 153 0
149 154 0
150 156 0
145 150 0
148 152 0
139 143 0
147 151 0
152 159 0
143 146 0
154 161 0
144 147 0
147 152 0
151 158 0
151 158 0
154 156 0
146 152 0
148 154 0
157 161 0
142 146 0
152 157 0
149 153 0
146 149 0
153 157 0
156 164 0
151 157 0
151 157 0
150 156 0
155 161 0
153 157 0
150 155 0
150 156 0
156 163 0
146 150 0
156 160 0
156 162 0
154 158 0
155 164 0
155 163 0
162 171 0
160 167 0
157 163 0
159 167 0
154 160 0
160 167 0
158 167 0
161 167 0
153 160 0
157 165 0
165 175 0
159 166 0
163 172 0
169 179 0
159 169 0
163 172 0
160 172 0
168 182 0
179 200 0
180 201 0
180 201 0
177 198 0
174 195 0
178 199 0
178 199 0
181 201 0
179 200 0
180 200 0
176 196 0
178 198 0
178 199 0
181 201 0
178 198 0
178 199 0
180 200 0
180 200 0
178 199 0
178 199 0
175 196 0
175 196 0
178 198 0
176 197 0
179 199 0
180 200 0
179 200 0
179 200 0
174 194 0
178 198 0
179 199 0
179 200 0
178 198 0
178 198 0
178 199 0
175 195 0
175 195 0
173 194 0
178 199 0
175 196 0
179 200 0
175 196 0
175 195 0
177 196 0
175 195 0
171 191 0
173 194 0
173 194 0
177 196 0
174 195 0
173 193 0
175 195 0
177 198 0
175 196 0
176 197 0
173 194 0
174 194 0
172 192 0
174 194 0
178 199 0
170 191 0
175 195 0
173 194 0
176 197 0
167 188 0
171 192 0
172 192 0
171 192 0
170 191 0
172 193 0
175 195 0
170 191 0
170 190 0
172 193 0
176 196 0
168 188 0
169 190 0
168 188 0
170 191 0
166 187 0
171 192 0
170 191 0
168 189 0
171 192 0
171 192 0
167 188 0
164 186 0
165 186 0
164 186 0
165 187 0
160 181 0
164 185 0
171 192 0
162 182 0
167 189 0
169 190 0
173 193 0
167 189 0
173 194 0
164 186 0
164 185 0
169 190 0
159 180 0
161 182 0
172 192 0
165 187 0
158 179 0
169 190 0
164 185 0
155 175 0
169 190 0
171 192 0
162 184 0
164 185 0
167 188 0
163 184 0
166 187 0
155 176 0
167 188 0
166 187 0
167 188 0
167 188 0
159 180 0
158 180 0
157 178 0
156 177 0
162 183 0
161 182 0
163 183 0
162 182 0
159 180 0
162 184 0
157 178 0
160 182 0
154 176 0
164 185 0
160 182 0
151 172 0
160 182 0
159 180 0
155 176 0
154 175 0
158 178 0
157 178 0
155 175 0
151 173 0
153 173 0
154 176 0
159 179 0
164 185 0
158 178 0
163 184 0
154 174 0
155 176 0
157 177 0
153 174 0
152 174 0
160 180 0
143 163 0
158 178 0
151 171 0
155 176 0
150 171 0
158 178 0
159 181 0
159 180 0
154 173 0
159 179 0
155 175 0
154 175 0
145 165 0
157 178 0
154 176 0
154 175 0
153 174 0
150 170 0
149 170 0
145 165 0
153 173 0
145 166 0
147 166 0
154 176 0
152 171 0
152 172 0
150 169 0
153 174 0
145 165 0
147 167 0
154 174 0
145 164 0
156 177 0
147 166 0
150 171 0
146 164 0
148 168 0
151 170 0
143 163 0
148 168 0
145 164 0
148 166 0
140 160 0
151 170 0
155 175 0
143 163 0
155 174 0
152 172 0
149 169 0
142 162 0
151 170 0
150 167 0
148 168 0
145 164 0
142 161 0
151 171 0
145 165 0
142 162 0
136 155 0
153 172 0
149 168 0
152 171 0
136 156 0
152 172 0
129 148 0
154 173 0
151 170 0
143 162 0
150 168 0
144 164 0
149 167 0
144 163 0
140 159 0
148 165 0
153 173 0
153 173 0
150 169 0
143 160 0
147 165 0
135 152 0
147 165 0
149 168 0
143 160 0
145 163 0
143 161 0
151 169 0
153 172 0
152 168 0
145 163 0
152 169 0
149 167 0
149 167 0
139 158 0
147 163 0
152 171 0
149 167 0
146 163 0
146 164 0
150 167 0
151 169 0
141 157 0
156 174 0
157 174 0
151 167 0
155 172 0
147 164 0
148 166 0
146 163 0
154 172 0
147 162 0
147 163 0
152 170 0
145 162 0
150 167 0
152 167 0
151 168 0
151 165 0
145 159 0
147 162 0
149 165 0
141 157 0
148 162 0
152 170 0
152 167 0
155 170 0
159 173 0
153 170 0
148 161 0
151 165 0
148 163 0
151 166 0
149 164 0
148 165 0
151 165 0
152 168 0
154 168 0
149 163 0
151 165 0
146 160 0
146 158 0
154 169 0
152 167 0
147 160 0
151 163 0
145 159 0
154 168 0
148 161 0
151 164 0
146 158 0
150 163 0
141 153 0
149 161 0
156 169 0
150 162 0
150 163 0
147 160 0
144 153 0
151 161 0
158 170 0
149 160 0
152 161 0
149 159 0
151 163 0
150 161 0
146 155 0
148 157 0
148 157 0
147 155 0
150 158 0
141 149 0
147 156 0
146 153 0
154 163 0
152 162 0
144 150 0
147 155 0
146 153 0
139 147 0
153 160 0
152 162 0
149 155 0
140 146 0
155 162 0
149 157 0
145 150 0
142 148 0
150 157 0
147 155 0
150 159 0
154 160 0
142 149 0
143 149 0
151 159 0
145 150 0
159 166 0
149 153 0
157 162 0
145 151 0
139 140 0
154 161 0
153 161 0
149 153 0
150 157 0
150 155 0
157 163 0
154 158 0
151 158 0
149 154 0
147 149 0
155 161 0
156 163 0
154 160 0
152 157 0
154 159 0
146 149 0
160 168 0
155 161 0
141 145 0
159 169 0
149 153 0
157 164 0
145 151 0
156 163 0
160 165 0
156 163 0
158 167 0
155 162 0
159 163 0
162 172 0
161 170 0
153 159 0
164 172 0
167 177 0
165 174 0
155 164 0
159 169 0
162 171 0
164 174 0
169 180 0
162 173 0
165 176 0
160 170 0
181 201 0
176 197 0
178 198 0
182 202 0
180 201 0
180 200 0
181 202 0
178 198 0
178 199 0
178 198 0
175 196 0
176 196 0
179 199 0
178 198 0
178 200 0
179 200 0
178 198 0
176 196 0
180 201 0
178 198 0
176 197 0
180 201 0
177 198 0
179 199 0
178 199 0
179 199 0
180 200 0
175 195 0
176 197 0
173 194 0
176 196 0
174 194 0
176 196 0
175 195 0
181 201 0
179 199 0
177 197 0
176 197 0
175 196 0
176 197 0
176 197 0
174 194 0
172 193 0
174 194 0
174 194 0
174 195 0
176 196 0
177 198 0
177 198 0
174 195 0
173 194 0
174 194 0
173 194 0
173 194 0
175 195 0
170 190 0
177 198 0
174 194 0
170 191 0
173 193 0
171 191 0
170 191 0
168 188 0
173 194 0
172 193 0
175 196 0
169 189 0
175 197 0
170 191 0
169 189 0
166 187 0
174 195 0
176 196 0
165 185 0
170 191 0
169 190 0
169 190 0
168 189 0
170 190 0
162 183 0
173 194 0
173 194 0
165 187 0
168 189 0
165 187 0
167 188 0
168 189 0
165 187 0
175 196 0
168 190 0
171 192 0
168 190 0
166 187 0
169 190 0
160 181 0
166 186 0
167 188 0
167 188 0
166 187 0
171 191 0
165 187 0
167 188 0
169 191 0
163 184 0
168 189 0
171 191 0
165 186 0
169 190 0
168 189 0
167 189 0
170 192 0
156 178 0
160 182 0
166 187 0
168 189 0
165 186 0
149 171 0
161 182 0
163 184 0
156 177 0
164 185 0
162 183 0
163 184 0
159 180 0
164 185 0
168 190 0
159 180 0
153 175 0
158 179 0
162 183 0
163 183 0
164 184 0
160 181 0
157 178 0
159 180 0
161 183 0
160 181 0
158 179 0
158 180 0
158 179 0
162 184 0
159 181 0
163 185 0
164 185 0
158 179 0
163 185 0
162 182 0
151 172 0
154 173 0
155 177 0
154 174 0
159 179 0
149 170 0
154 176 0
159 179 0
160 181 0
156 178 0
153 174 0
155 176 0
152 173 0
156 177 0
156 177 0
151 171 0
154 174 0
154 174 0
148 168 0
152 173 0
160 180 0
153 172 0
154 174 0
150 170 0
142 162 0
150 171 0
144 164 0
155 175 0
145 164 0
155 176 0
148 167 0
153 174 0
153 173 0
158 178 0
156 176 0
140 160 0
149 170 0
143 163 0
157 176 0
139 159 0
148 168 0
160 179 0
155 175 0
145 165 0
153 173 0
154 173 0
151 171 0
145 165 0
146 166 0
144 163 0
150 170 0
149 168 0
150 170 0
141 162 0
148 168 0
145 165 0
149 168 0
143 163 0
156 175 0
147 168 0
150 170 0
146 166 0
146 165 0
138 158 0
149 169 0
142 162 0
148 168 0
148 166 0
142 161 0
148 167 0
147 167 0
147 167 0
150 169 0
146 165 0
137 158 0
150 169 0
145 164 0
150 169 0
151 169 0
146 165 0
137 155 0
151 169 0
143 162 0
147 166 0
145 163 0
147 167 0
146 164 0
144 161 0
157 176 0
152 169 0
143 161 0
147 166 0
149 167 0
148 166 0
150 168 0
151 169 0
152 171 0
149 167 0
142 160 0
160 178 0
143 160 0
146 164 0
151 168 0
151 170 0
144 162 0
147 164 0
141 157 0
152 170 0
147 164 0
149 168 0
154 171 0
149 166 0
138 154 0
148 166 0
150 167 0
148 164 0
150 168 0
151 168 0
148 167 0
149 166 0
144 161 0
152 168 0
150 167 0
145 162 0
153 169 0
146 161 0
156 174 0
154 172 0
142 158 0
153 167 0
156 169 0
148 162 0
152 168 0
144 159 0
152 167 0
147 163 0
150 164 0
147 163 0
159 173 0
145 160 0
152 167 0
148 164 0
153 169 0
154 168 0
159 178 0
145 161 0
142 156 0
150 163 0
146 160 0
138 153 0
155 168 0
149 165 0
151 165 0
150 164 0
149 163 0
150 163 0
144 157 0
158 170 0
158 172 0
150 163 0
147 161 0
148 160 0
149 160 0
154 166 0
149 160 0
149 161 0
153 163 0
153 164 0
141 151 0
149 159 0
152 163 0
152 161 0
155 167 0
150 162 0
156 165 0
152 161 0
152 161 0
144 152 0
150 158 0
145 156 0
147 157 0
139 149 0
149 159 0
149 157 0
138 146 0
154 163 0
147 154 0
142 148 0
150 159 0
156 168 0
143 149 0
144 151 0
152 159 0
144 152 0
149 154 0
156 164 0
156 163 0
150 155 0
150 158 0
150 156 0
148 154 0
148 156 0
149 154 0
154 160 0
153 160 0
157 165 0
152 158 0
155 161 0
142 143 0
148 153 0
142 147 0
156 165 0
151 161 0
154 160 0
154 161 0
150 158 0
148 153 0
150 155 0
148 155 0
153 158 0
151 158 0
153 160 0
157 165 0
156 164 0
154 161 0
159 164 0
149 155 0
158 163 0
157 164 0
148 156 0
160 166 0
154 160 0
157 164 0
163 171 0
155 161 0
161 169 0
159 166 0
155 164 0
156 161 0
163 172 0
163 172 0
159 168 0
158 164 0
158 166 0
161 167 0
167 177 0
152 157 0
161 168 0
157 166 0
159 166 0
165 174 0
164 174 0
164 172 0
180 200 0
180 201 0
178 199 0
180 201 0
175 196 0
180 201 0
178 198 0
179 200 0
178 199 0
177 197 0
179 199 0
179 200 0
182 202 0
180 201 0
176 196 0
174 196 0
179 199 0
174 195 0
174 195 0
173 194 0
175 196 0
181 202 0
180 200 0
172 194 0
180 201 0
179 199 0
176 197 0
175 195 0
178 199 0
176 196 0
176 196 0
179 199 0
178 198 0
179 200 0
176 196 0
178 199 0
179 199 0
177 197 0
178 197 0
175 197 0
176 196 0
178 198 0
172 193 0
175 196 0
167 188 0
176 197 0
173 194 0
175 195 0
169 191 0
171 191 0
170 191 0
175 196 0
173 194 0
172 192 0
173 194 0
174 195 0
171 191 0
172 193 0
171 191 0
171 192 0
168 188 0
168 188 0
170 191 0
168 189 0
169 190 0
171 193 0
167 188 0
174 195 0
169 190 0
165 186 0
169 191 0
172 192 0
173 194 0
172 193 0
171 192 0
168 189 0
172 192 0
173 193 0
163 184 0
164 185 0
172 193 0
167 188 0
166 187 0
178 199 0
168 190 0
165 186 0
167 188 0
167 189 0
168 189 0
171 192 0
165 186 0
169 191 0
162 183 0
170 191 0
167 188 0
161 182 0
165 186 0
160 181 0
168 189 0
163 184 0
167 189 0
167 187 0
169 190 0
160 181 0
165 186 0
166 188 0
160 181 0
163 185 0
165 186 0
171 192 0
157 177 0
163 184 0
172 193 0
163 184 0
161 182 0
167 189 0
166 188 0
166 187 0
165 188 0
162 182 0
166 188 0
157 179 0
162 183 0
158 180 0
160 180 0
162 182 0
167 189 0
160 181 0
167 188 0
161 182 0
161 182 0
160 181 0
158 179 0
153 173 0
165 186 0
163 183 0
163 185 0
160 181 0
157 177 0
159 179 0
155 176 0
161 182 0
159 180 0
160 181 0
164 186 0
157 179 0
165 187 0
159 179 0
167 188 0
157 178 0
157 178 0
157 178 0
154 175 0
155 175 0
160 181 0
153 174 0
150 171 0
164 184 0
159 180 0
152 173 0
145 165 0
161 182 0
153 175 0
152 173 0
156 178 0
152 172 0
158 179 0
154 174 0
145 166 0
159 180 0
160 179 0
151 172 0
157 177 0
150 169 0
154 175 0
149 170 0
155 175 0
160 180 0
153 173 0
159 180 0
151 171 0
159 180 0
149 170 0
153 174 0
152 170 0
147 166 0
144 163 0
157 177 0
148 167 0
143 162 0
142 162 0
153 173 0
150 170 0
147 167 0
150 171 0
153 174 0
145 165 0
155 174 0
148 167 0
137 157 0
146 165 0
149 169 0
146 166 0
146 167 0
156 176 0
150 169 0
147 168 0
151 171 0
143 162 0
149 168 0
148 167 0
135 154 0
145 164 0
146 165 0
156 176 0
149 169 0
154 173 0
145 165 0
141 160 0
143 163 0
146 165 0
151 170 0
150 169 0
146 164 0
149 168 0
148 168 0
156 176 0
146 164 0
151 171 0
139 157 0
141 159 0
146 165 0
150 169 0
146 166 0
147 167 0
153 172 0
143 160 0
150 167 0
141 159 0
139 157 0
137 155 0
138 156 0
152 171 0
145 164 0
151 169 0
156 173 0
147 163 0
148 166 0
152 170 0
144 161 0
144 161 0
148 166 0
149 167 0
149 168 0
149 167 0
146 164 0
150 166 0
142 159 0
149 166 0
148 165 0
149 169 0
159 177 0
140 156 0
157 175 0
153 171 0
152 170 0
150 166 0
150 169 0
157 175 0
149 167 0
151 166 0
150 169 0
151 167 0
142 158 0
144 160 0
157 174 0
152 169 0
155 171 0
160 177 0
147 164 0
153 168 0
149 163 0
150 169 0
155 171 0
147 160 0
144 158 0
153 168 0
144 158 0
157 172 0
155 170 0
155 170 0
143 157 0
154 167 0
161 177 0
141 156 0
147 160 0
152 165 0
151 165 0
150 164 0
155 171 0
156 170 0
149 164 0
151 168 0
148 161 0
143 154 0
139 151 0
154 168 0
155 168 0
148 161 0
155 169 0
152 166 0
148 161 0
152 165 0
150 157 0
149 160 0
152 164 0
152 163 0
151 161 0
153 166 0
142 152 0
158 169 0
154 166 0
149 159 0
157 168 0
154 165 0
161 172 0
155 165 0
144 153 0
153 161 0
150 160 0
145 152 0
152 162 0
155 165 0
135 140 0
145 153 0
154 165 0
157 168 0
141 146 0
143 150 0
153 162 0
148 159 0
155 164 0
154 163 0
149 156 0
153 162 0
150 157 0
138 144 0
146 152 0
154 162 0
148 156 0
152 158 0
151 158 0
151 159 0
150 158 0
149 156 0
153 162 0
144 149 0
148 154 0
150 154 0
148 154 0
158 167 0
153 161 0
148 153 0
160 170 0
159 166 0
150 157 0
151 156 0
151 156 0
155 157 0
155 158 0
152 158 0
153 156 0
149 155 0
154 161 0
156 163 0
158 165 0
158 165 0
155 164 0
161 170 0
162 170 0
155 161 0
157 167 0
158 164 0
160 168 0
161 169 0
150 158 0
156 164 0
157 167 0
158 164 0
157 166 0
162 170 0
164 174 0
156 165 0
160 170 0
159 169 0
155 163 0
160 171 0
161 170 0
157 165 0
156 164 0
179 200 0
178 199 0
182 202 0
179 200 0
180 201 0
180 200 0
175 196 0
180 201 0
175 196 0
181 202 0
179 199 0
178 198 0
179 200 0
177 197 0
180 200 0
179 200 0
179 199 0
176 197 0
176 198 0
178 199 0
179 201 0
175 195 0
177 197 0
177 197 0
178 198 0
179 200 0
176 198 0
180 200 0
181 201 0
173 194 0
172 193 0
178 199 0
177 198 0
179 199 0
172 193 0
180 200 0
175 196 0
171 192 0
173 194 0
176 197 0
177 198 0
175 196 0
177 198 0
177 198 0
177 198 0
176 198 0
172 192 0
175 195 0
175 196 0
174 195 0
173 194 0
169 190 0
169 191 0
173 194 0
175 196 0
175 196 0
173 194 0
176 197 0
168 189 0
170 191 0
171 192 0
170 190 0
167 188 0
173 194 0
174 195 0
167 187 0
173 194 0
176 197 0
174 195 0
172 193 0
173 194 0
164 185 0
166 186 0
169 191 0
171 193 0
173 194 0
173 195 0
163 184 0
174 196 0
169 191 0
165 186 0
165 185 0
163 185 0
165 186 0
159 180 0
166 187 0
160 181 0
172 194 0
171 192 0
169 191 0
168 189 0
163 185 0
167 188 0
169 190 0
168 188 0
168 189 0
164 185 0
167 188 0
166 187 0
169 191 0
169 190 0
166 187 0
162 183 0
163 183 0
169 191 0
166 186 0
170 191 0
161 183 0
165 187 0
166 187 0
163 184 0
164 185 0
158 180 0
159 181 0
163 184 0
162 184 0
157 178 0
160 180 0
167 187 0
165 186 0
165 186 0
166 187 0
162 183 0
159 180 0
167 187 0
161 182 0
162 183 0
165 187 0
164 184 0
167 188 0
160 182 0
155 177 0
160 182 0
164 184 0
161 182 0
161 183 0
161 182 0
155 177 0
153 174 0
158 179 0
156 177 0
158 179 0
163 184 0
160 181 0
158 179 0
165 185 0
160 181 0
155 176 0
157 178 0
153 175 0
161 183 0
155 176 0
151 171 0
153 174 0
162 183 0
158 179 0
160 181 0
160 181 0
155 177 0
156 177 0
160 181 0
154 175 0
156 176 0
150 171 0
157 177 0
158 180 0
156 176 0
154 175 0
162 183 0
156 177 0
159 179 0
160 181 0
153 173 0
152 172 0
152 172 0
143 161 0
148 170 0
143 162 0
154 173 0
147 167 0
158 179 0
155 175 0
154 175 0
152 172 0
153 173 0
145 165 0
143 163 0
156 177 0
156 177 0
157 177 0
154 175 0
152 171 0
148 168 0
141 159 0
150 170 0
152 173 0
157 176 0
146 166 0
154 174 0
152 172 0
154 174 0
150 168 0
152 172 0
149 169 0
151 170 0
153 174 0
149 170 0
152 171 0
150 170 0
148 167 0
150 169 0
147 167 0
155 175 0
154 173 0
156 176 0
149 169 0
147 166 0
148 168 0
141 160 0
148 167 0
147 166 0
141 159 0
153 174 0
149 168 0
142 162 0
148 167 0
150 169 0
142 161 0
144 164 0
146 165 0
149 167 0
145 163 0
151 169 0
155 174 0
142 161 0
150 168 0
152 169 0
150 170 0
149 169 0
144 162 0
148 168 0
145 162 0
149 167 0
148 166 0
145 163 0
147 164 0
157 175 0
155 175 0
146 165 0
151 168 0
141 158 0
156 174 0
159 178 0
151 168 0
152 170 0
152 171 0
147 166 0
158 174 0
150 166 0
153 170 0
156 174 0
147 164 0
153 170 0
155 174 0
147 163 0
155 173 0
148 165 0
145 164 0
153 170 0
153 170 0
151 169 0
146 162 0
145 161 0
146 164 0
148 165 0
158 175 0
153 169 0
156 174 0
155 170 0
153 168 0
147 163 0
148 164 0
144 157 0
142 157 0
153 168 0
151 167 0
155 170 0
149 162 0
151 168 0
150 166 0
150 166 0
152 168 0
154 169 0
145 159 0
146 161 0
157 172 0
150 165 0
153 168 0
153 167 0
153 168 0
150 163 0
152 167 0
154 168 0
148 162 0
151 164 0
158 171 0
154 168 0
149 162 0
152 164 0
152 166 0
154 167 0
145 156 0
151 163 0
155 167 0
154 167 0
159 170 0
152 163 0
153 165 0
158 170 0
152 165 0
152 162 0
153 163 0
155 164 0
149 159 0
156 166 0
150 161 0
147 157 0
148 159 0
152 164 0
160 172 0
153 165 0
146 155 0
153 163 0
150 160 0
148 156 0
151 160 0
155 162 0
145 153 0
151 161 0
153 163 0
142 149 0
153 162 0
141 151 0
153 161 0
144 152 0
155 163 0
148 159 0
151 158 0
156 166 0
147 153 0
146 152 0
151 159 0
148 157 0
155 165 0
150 158 0
157 167 0
158 166 0
151 156 0
159 168 0
156 162 0
153 158 0
155 161 0
153 162 0
159 166 0
146 155 0
153 160 0
152 159 0
148 153 0
151 156 0
163 173 0
157 163 0
157 164 0
155 162 0
154 160 0
155 163 0
150 158 0
160 169 0
155 162 0
156 163 0
161 169 0
158 166 0
158 167 0
159 168 0
153 162 0
160 170 0
159 167 0
155 164 0
160 167 0
164 175 0
157 164 0
161 170 0
162 172 0
155 162 0
160 169 0
166 177 0
165 175 0
160 168 0
165 174 0
160 166 0
155 163 0
178 199 0
179 200 0
180 201 0
176 197 0
180 201 0
178 199 0
178 199 0
178 198 0
180 200 0
178 199 0
177 197 0
179 199 0
176 196 0
178 199 0
182 201 0
177 198 0
176 197 0
180 200 0
179 200 0
178 199 0
175 196 0
179 199 0
179 199 0
179 200 0
177 198 0
175 196 0
180 201 0
176 197 0
176 197 0
176 196 0
178 199 0
177 198 0
177 199 0
171 191 0
174 195 0
175 196 0
174 195 0
174 194 0
175 196 0
175 196 0
174 195 0
174 195 0
174 194 0
175 196 0
174 194 0
168 189 0
170 191 0
172 193 0
176 197 0
171 191 0
174 195 0
173 194 0
174 195 0
172 192 0
172 194 0
170 192 0
167 188 0
175 196 0
171 192 0
172 193 0
169 189 0
167 188 0
171 192 0
170 191 0
170 192 0
173 194 0
175 196 0
172 192 0
171 192 0
174 195 0
171 192 0
173 194 0
169 190 0
170 192 0
168 189 0
173 194 0
168 189 0
166 188 0
170 190 0
163 185 0
165 186 0
174 194 0
165 187 0
170 191 0
166 187 0
159 181 0
168 189 0
165 187 0
167 189 0
161 182 0
170 192 0
174 195 0
166 188 0
166 188 0
168 189 0
171 193 0
169 190 0
168 189 0
160 181 0
168 190 0
163 183 0
168 189 0
165 187 0
164 185 0
164 185 0
165 185 0
169 189 0
165 187 0
168 190 0
160 181 0
164 185 0
156 178 0
166 188 0
161 183 0
167 189 0
155 177 0
163 185 0
164 186 0
164 185 0
165 186 0
168 189 0
160 181 0
160 182 0
159 179 0
162 183 0
160 181 0
170 190 0
163 184 0
167 187 0
162 184 0
158 180 0
167 189 0
165 186 0
163 185 0
159 181 0
158 179 0
163 183 0
165 186 0
163 182 0
160 182 0
158 180 0
159 180 0
159 180 0
163 185 0
159 179 0
154 175 0
164 184 0
160 183 0
164 185 0
151 173 0
161 182 0
160 181 0
160 182 0
159 180 0
147 168 0
159 180 0
160 180 0
156 177 0
148 170 0
154 175 0
153 174 0
155 176 0
158 179 0
158 179 0
160 180 0
157 178 0
157 178 0
159 179 0
150 171 0
165 186 0
155 175 0
156 177 0
152 173 0
153 172 0
154 174 0
154 175 0
153 173 0
158 178 0
143 163 0
158 178 0
149 170 0
158 178 0
162 183 0
147 168 0
151 172 0
157 178 0
150 171 0
157 178 0
147 167 0
152 172 0
152 173 0
153 173 0
154 174 0
154 174 0
152 173 0
149 168 0
146 165 0
149 170 0
151 171 0
153 173 0
153 172 0
143 162 0
146 166 0
143 163 0
153 174 0
151 172 0
163 183 0
148 169 0
153 173 0
148 167 0
143 164 0
148 168 0
152 171 0
151 171 0
154 173 0
153 173 0
140 158 0
155 173 0
162 181 0
138 157 0
157 175 0
142 160 0
151 169 0
153 172 0
158 177 0
147 164 0
133 151 0
149 168 0
156 175 0
147 165 0
149 168 0
150 168 0
153 172 0
149 167 0
148 166 0
141 159 0
146 165 0
144 163 0
145 163 0
144 163 0
147 166 0
146 166 0
150 166 0
141 159 0
147 164 0
149 168 0
156 175 0
142 160 0
152 169 0
145 162 0
146 163 0
149 169 0
153 171 0
148 165 0
156 174 0
138 157 0
145 163 0
146 164 0
138 154 0
157 176 0
152 169 0
143 160 0
154 172 0
149 165 0
155 174 0
154 171 0
151 168 0
140 155 0
151 169 0
151 168 0
144 160 0
156 175 0
153 171 0
152 168 0
161 179 0
153 169 0
152 168 0
141 157 0
149 167 0
149 166 0
153 170 0
153 170 0
153 169 0
152 168 0
143 161 0
157 174 0
154 169 0
154 169 0
152 169 0
153 167 0
157 173 0
156 172 0
151 166 0
151 167 0
163 179 0
150 165 0
153 169 0
140 156 0
153 166 0
144 159 0
153 168 0
154 168 0
152 167 0
152 163 0
153 166 0
154 170 0
152 166 0
153 166 0
155 169 0
154 166 0
153 165 0
154 166 0
151 166 0
142 155 0
151 164 0
156 170 0
152 166 0
149 162 0
152 164 0
147 156 0
151 161 0
146 156 0
140 153 0
154 165 0
148 159 0
145 157 0
152 162 0
153 164 0
145 151 0
149 160 0
156 166 0
154 167 0
148 159 0
152 161 0
152 161 0
152 162 0
146 155 0
157 168 0
153 162 0
156 166 0
150 158 0
153 163 0
145 153 0
143 153 0
147 155 0
147 155 0
143 153 0
143 149 0
150 158 0
155 164 0
147 154 0
155 164 0
151 158 0
150 157 0
152 159 0
152 163 0
152 158 0
156 162 0
152 161 0
150 157 0
155 161 0
151 159 0
154 163 0
153 161 0
151 157 0
145 152 0
149 155 0
154 163 0
153 160 0
146 152 0
148 155 0
158 167 0
154 160 0
158 165 0
158 167 0
154 163 0
155 162 0
163 172 0
154 163 0
157 166 0
159 168 0
152 158 0
149 155 0
155 163 0
156 163 0
153 158 0
158 163 0
158 165 0
162 173 0
161 171 0
161 171 0
158 164 0
156 164 0
160 167 0
165 174 0
160 169 0
164 177 0
162 171 0
155 164 0
161 169 0
180 201 0
178 198 0
180 201 0
182 203 0
177 198 0
179 199 0
176 196 0
179 200 0
180 201 0
178 200 0
175 197 0
179 199 0
179 199 0
179 200 0
178 200 0
179 200 0
177 198 0
180 201 0
176 197 0
180 200 0
176 197 0
179 199 0
179 201 0
176 196 0
178 198 0
176 197 0
173 193 0
178 198 0
173 193 0
175 196 0
177 198 0
177 197 0
180 200 0
175 196 0
172 193 0
174 195 0
173 193 0
177 198 0
175 196 0
176 196 0
177 196 0
171 192 0
176 197 0
179 200 0
173 194 0
178 199 0
178 199 0
175 195 0
168 189 0
178 198 0
175 195 0
172 193 0
170 191 0
175 196 0
172 192 0
173 195 0
171 192 0
174 195 0
173 194 0
171 192 0
166 188 0
170 191 0
166 186 0
175 196 0
170 191 0
167 187 0
171 192 0
172 192 0
173 195 0
169 190 0
170 192 0
169 191 0
171 192 0
170 191 0
172 192 0
169 191 0
165 186 0
169 189 0
172 192 0
169 190 0
168 190 0
174 195 0
163 184 0
169 190 0
173 194 0
167 189 0
172 193 0
169 190 0
165 186 0
167 188 0
168 188 0
164 186 0
167 188 0
168 189 0
169 191 0
168 188 0
163 185 0
164 184 0
173 194 0
163 184 0
166 187 0
165 186 0
166 187 0
162 184 0
166 187 0
167 188 0
169 191 0
168 190 0
162 182 0
159 180 0
166 187 0
163 184 0
166 188 0
160 182 0
160 181 0
157 178 0
162 182 0
163 185 0
160 181 0
167 187 0
162 183 0
164 185 0
164 185 0
168 189 0
163 184 0
160 181 0
156 177 0
165 186 0
162 183 0
161 181 0
164 185 0
159 180 0
166 187 0
164 185 0
159 180 0
164 186 0
159 180 0
158 179 0
163 184 0
155 175 0
159 181 0
161 182 0
154 175 0
152 173 0
153 173 0
157 178 0
152 173 0
159 181 0
164 185 0
167 188 0
157 179 0
162 182 0
151 172 0
154 174 0
156 176 0
157 177 0
156 177 0
163 184 0
152 173 0
167 187 0
156 177 0
151 172 0
160 180 0
152 173 0
156 175 0
149 169 0
157 177 0
162 183 0
160 180 0
152 172 0
154 175 0
165 185 0
149 170 0
161 181 0
143 164 0
160 181 0
156 175 0
160 180 0
154 175 0
151 171 0
158 177 0
155 176 0
149 169 0
148 170 0
151 172 0
152 173 0
158 178 0
147 167 0
154 173 0
145 164 0
149 170 0
149 171 0
145 165 0
148 168 0
151 171 0
153 172 0
145 164 0
151 171 0
151 171 0
144 164 0
146 167 0
152 173 0
148 168 0
145 165 0
150 170 0
150 169 0
145 164 0
151 171 0
142 161 0
145 165 0
159 179 0
139 159 0
148 168 0
143 163 0
135 154 0
140 157 0
153 172 0
145 164 0
152 171 0
154 172 0
154 171 0
151 171 0
150 169 0
145 164 0
148 166 0
157 175 0
149 168 0
154 172 0
150 169 0
150 168 0
155 176 0
160 180 0
153 173 0
146 163 0
152 171 0
152 171 0
157 177 0
148 168 0
157 173 0
152 170 0
152 170 0
148 168 0
156 176 0
151 169 0
154 174 0
158 178 0
151 169 0
148 165 0
150 169 0
146 164 0
143 159 0
152 171 0
154 172 0
156 174 0
150 167 0
146 164 0
152 171 0
154 172 0
155 175 0
153 172 0
147 164 0
149 168 0
158 176 0
149 167 0
144 159 0
152 170 0
152 170 0
149 165 0
150 169 0
158 177 0
153 170 0
152 170 0
153 169 0
149 166 0
155 171 0
147 164 0
150 165 0
154 171 0
159 176 0
153 168 0
157 174 0
157 174 0
157 173 0
155 169 0
146 161 0
150 164 0
144 160 0
149 163 0
150 167 0
157 175 0
147 159 0
150 166 0
158 173 0
155 170 0
152 165 0
155 170 0
158 172 0
153 167 0
154 168 0
152 166 0
151 168 0
152 167 0
150 164 0
152 165 0
150 167 0
147 161 0
151 165 0
153 165 0
155 167 0
151 167 0
149 160 0
156 169 0
152 166 0
157 170 0
151 164 0
156 169 0
156 172 0
149 162 0
152 166 0
155 167 0
154 164 0
155 166 0
146 157 0
150 162 0
148 157 0
154 165 0
144 156 0
149 159 0
146 157 0
158 170 0
156 167 0
155 164 0
151 160 0
150 159 0
150 160 0
158 171 0
156 170 0
151 160 0
151 161 0
150 163 0
153 163 0
148 157 0
153 162 0
153 163 0
155 166 0
152 160 0
156 166 0
149 159 0
150 158 0
152 160 0
155 165 0
158 169 0
156 165 0
154 163 0
146 154 0
152 158 0
152 160 0
151 158 0
154 161 0
147 154 0
145 153 0
159 168 0
156 164 0
155 164 0
157 165 0
159 167 0
148 155 0
155 166 0
155 162 0
154 162 0
158 166 0
159 167 0
155 161 0
156 164 0
153 160 0
152 159 0
159 167 0
155 163 0
160 170 0
159 165 0
158 168 0
157 161 0
146 154 0
155 165 0
158 167 0
157 165 0
156 163 0
161 168 0
158 165 0
163 170 0
155 163 0
157 165 0
162 171 0
160 169 0
167 177 0
160 169 0
156 165 0
166 174 0
154 160 0
152 158 0
176 197 0
179 199 0
178 199 0
177 198 0
177 198 0
179 199 0
178 199 0
177 198 0
176 197 0
176 197 0
178 199 0
178 198 0
176 197 0
178 199 0
180 201 0
181 201 0
177 198 0
177 197 0
175 196 0
177 197 0
177 198 0
178 198 0
177 198 0
178 199 0
171 192 0
176 196 0
175 195 0
178 199 0
177 198 0
176 197 0
178 198 0
178 198 0
174 195 0
175 196 0
178 199 0
175 196 0
174 195 0
171 192 0
174 195 0
174 195 0
169 190 0
172 193 0
174 194 0
172 194 0
175 196 0
173 194 0
175 196 0
176 197 0
175 196 0
173 193 0
180 200 0
170 191 0
176 197 0
169 191 0
175 195 0
175 195 0
176 196 0
168 189 0
169 189 0
171 193 0
170 191 0
178 199 0
175 195 0
172 193 0
166 187 0
170 191 0
168 189 0
171 192 0
164 186 0
168 189 0
169 190 0
170 191 0
171 192 0
168 188 0
168 189 0
169 190 0
170 192 0
171 192 0
167 189 0
166 188 0
164 186 0
170 192 0
171 193 0
173 194 0
172 193 0
166 186 0
170 192 0
167 189 0
167 188 0
169 190 0
166 187 0
165 186 0
165 185 0
167 189 0
166 187 0
165 186 0
164 185 0
163 184 0
171 192 0
162 184 0
158 178 0
171 192 0
167 188 0
170 191 0
166 189 0
165 185 0
163 184 0
170 192 0
166 187 0
162 184 0
172 194 0
164 185 0
158 179 0
171 192 0
165 187 0
163 185 0
165 187 0
160 181 0
164 185 0
166 188 0
164 185 0
162 184 0
167 188 0
156 178 0
161 183 0
172 193 0
162 183 0
160 181 0
159 179 0
158 180 0
166 187 0
161 182 0
163 184 0
160 181 0
164 185 0
162 184 0
167 188 0
154 174 0
157 178 0
151 173 0
168 188 0
156 178 0
157 178 0
158 181 0
158 178 0
169 191 0
161 182 0
159 180 0
159 179 0
155 175 0
156 177 0
156 177 0
164 184 0
152 173 0
155 175 0
153 174 0
161 183 0
160 180 0
159 181 0
160 181 0
163 184 0
160 180 0
155 176 0
155 176 0
159 181 0
152 173 0
147 167 0
155 177 0
155 176 0
156 177 0
153 173 0
158 177 0
162 182 0
152 172 0
149 170 0
158 178 0
153 173 0
148 168 0
152 173 0
153 173 0
152 172 0
157 179 0
147 169 0
156 176 0
157 178 0
154 174 0
152 172 0
157 178 0
149 171 0
151 171 0
156 176 0
151 171 0
148 168 0
150 170 0
159 179 0
153 173 0
148 167 0
157 176 0
148 168 0
152 172 0
160 180 0
150 170 0
148 168 0
147 168 0
145 165 0
150 171 0
150 169 0
147 168 0
144 164 0
160 180 0
158 178 0
159 179 0
149 167 0
151 171 0
156 176 0
156 176 0
152 172 0
151 171 0
156 176 0
147 165 0
159 178 0
141 161 0
149 168 0
154 174 0
146 165 0
156 175 0
148 167 0
149 167 0
156 174 0
153 172 0
153 173 0
154 175 0
150 169 0
153 172 0
156 175 0
153 174 0
146 164 0
157 176 0
148 167 0
151 169 0
150 169 0
155 175 0
158 177 0
159 179 0
150 169 0
151 169 0
151 170 0
152 172 0
156 176 0
147 166 0
154 173 0
143 161 0
153 172 0
152 170 0
146 163 0
151 170 0
154 172 0
149 167 0
147 166 0
154 172 0
150 168 0
157 174 0
146 165 0
153 171 0
146 163 0
153 171 0
151 168 0
149 165 0
143 160 0
148 164 0
150 167 0
159 175 0
152 169 0
149 168 0
157 174 0
144 160 0
151 169 0
148 166 0
159 176 0
148 166 0
152 168 0
156 172 0
153 171 0
153 169 0
150 167 0
157 173 0
156 173 0
152 168 0
154 170 0
159 174 0
154 167 0
149 165 0
157 174 0
153 168 0
161 178 0
154 167 0
157 171 0
145 159 0
152 169 0
161 177 0
147 163 0
148 163 0
152 167 0
151 164 0
146 159 0
157 172 0
152 165 0
148 163 0
149 163 0
152 166 0
153 166 0
154 167 0
152 168 0
158 170 0
147 162 0
151 166 0
149 162 0
157 169 0
158 172 0
156 170 0
146 157 0
155 168 0
152 166 0
152 164 0
144 154 0
149 162 0
146 159 0
156 168 0
153 166 0
147 156 0
155 167 0
155 166 0
142 152 0
153 163 0
153 164 0
149 159 0
153 161 0
154 164 0
156 167 0
154 164 0
153 164 0
151 161 0
154 165 0
155 164 0
156 167 0
158 169 0
157 165 0
158 168 0
155 164 0
155 164 0
151 161 0
151 160 0
152 161 0
153 162 0
148 156 0
150 158 0
154 161 0
153 160 0
154 162 0
152 160 0
149 158 0
150 159 0
159 169 0
157 164 0
143 150 0
154 161 0
151 157 0
158 166 0
152 161 0
152 159 0
153 161 0
155 162 0
154 162 0
155 164 0
161 170 0
153 163 0
156 163 0
156 164 0
157 167 0
159 165 0
157 164 0
147 149 0
149 157 0
152 158 0
154 162 0
155 164 0
164 172 0
153 158 0
156 166 0
159 169 0
158 165 0
157 165 0
161 171 0
161 170 0
153 161 0
161 168 0
157 165 0
152 162 0
161 171 0
163 172 0
178 199 0
173 193 0
181 202 0
178 198 0
177 198 0
176 197 0
177 198 0
176 197 0
182 202 0
180 201 0
178 199 0
176 198 0
178 199 0
175 196 0
181 201 0
178 199 0
177 198 0
172 194 0
180 201 0
176 197 0
178 198 0
179 199 0
180 200 0
170 190 0
174 195 0
179 199 0
174 195 0
173 193 0
173 194 0
173 194 0
174 195 0
176 197 0
175 195 0
174 195 0
174 195 0
174 195 0
178 198 0
171 192 0
175 195 0
176 197 0
171 192 0
173 193 0
171 192 0
174 195 0
175 196 0
174 194 0
174 196 0
176 198 0
174 195 0
175 195 0
170 192 0
176 196 0
171 192 0
175 196 0
166 187 0
172 193 0
173 194 0
169 190 0
171 192 0
167 188 0
172 193 0
171 192 0
170 191 0
173 194 0
172 193 0
166 188 0
168 190 0
170 191 0
169 190 0
165 186 0
169 189 0
169 190 0
172 194 0
170 191 0
169 190 0
164 186 0
163 184 0
172 193 0
167 187 0
167 188 0
168 190 0
168 189 0
165 186 0
169 190 0
170 192 0
167 190 0
168 190 0
164 185 0
172 193 0
162 185 0
167 189 0
165 186 0
165 187 0
164 184 0
167 189 0
170 190 0
166 187 0
164 186 0
165 186 0
168 189 0
164 186 0
164 185 0
169 190 0
169 189 0
160 182 0
169 190 0
170 191 0
163 184 0
164 185 0
164 184 0
168 189 0
167 188 0
160 182 0
165 185 0
160 182 0
156 178 0
158 180 0
163 184 0
162 183 0
156 177 0
166 188 0
162 184 0
158 180 0
163 185 0
165 186 0
163 184 0
154 175 0
162 183 0
158 179 0
160 181 0
164 185 0
161 183 0
168 190 0
168 190 0
165 187 0
159 179 0
166 188 0
162 184 0
163 184 0
152 174 0
163 184 0
165 186 0
168 189 0
167 188 0
164 184 0
160 181 0
161 183 0
155 175 0
159 180 0
169 189 0
153 175 0
156 176 0
151 172 0
159 181 0
156 176 0
163 184 0
156 176 0
156 177 0
157 178 0
158 179 0
156 177 0
158 177 0
158 178 0
154 175 0
154 175 0
157 179 0
152 173 0
159 180 0
152 171 0
154 176 0
155 175 0
149 170 0
158 177 0
156 178 0
156 176 0
153 173 0
154 173 0
164 183 0
159 179 0
159 180 0
153 174 0
160 182 0
148 167 0
157 177 0
152 173 0
154 174 0
155 177 0
145 165 0
151 171 0
151 171 0
148 170 0
153 172 0
152 171 0
148 167 0
151 172 0
156 176 0
146 167 0
158 179 0
149 170 0
147 167 0
156 175 0
155 175 0
149 169 0
148 169 0
147 168 0
148 168 0
162 181 0
154 173 0
153 173 0
148 167 0
155 174 0
148 168 0
148 168 0
141 160 0
155 174 0
151 169 0
147 165 0
153 172 0
149 168 0
149 169 0
154 173 0
152 172 0
153 172 0
148 169 0
148 168 0
149 168 0
148 166 0
158 177 0
145 163 0
156 176 0
142 161 0
149 169 0
150 170 0
145 164 0
146 165 0
150 169 0
149 168 0
154 173 0
154 173 0
163 182 0
147 165 0
156 173 0
152 170 0
149 167 0
153 172 0
146 164 0
152 172 0
152 171 0
150 166 0
151 169 0
154 173 0
154 173 0
150 170 0
157 175 0
152 172 0
147 166 0
153 171 0
156 176 0
149 167 0
146 166 0
153 171 0
153 172 0
151 168 0
153 173 0
148 164 0
152 168 0
156 174 0
153 169 0
152 169 0
155 173 0
143 161 0
153 169 0
151 169 0
157 175 0
158 175 0
149 166 0
154 170 0
149 166 0
148 165 0
154 170 0
156 173 0
152 168 0
156 174 0
150 166 0
149 165 0
148 165 0
157 175 0
156 172 0
155 170 0
160 177 0
154 170 0
160 177 0
155 172 0
140 156 0
149 164 0
155 170 0
149 165 0
142 157 0
155 170 0
151 167 0
156 170 0
151 167 0
142 158 0
158 174 0
152 166 0
147 160 0
155 170 0
153 167 0
154 167 0
158 171 0
154 168 0
153 167 0
150 165 0
154 167 0
157 173 0
153 169 0
160 172 0
145 157 0
146 157 0
154 166 0
153 165 0
159 172 0
154 169 0
154 166 0
156 169 0
147 159 0
145 154 0
160 174 0
153 165 0
156 166 0
148 162 0
158 170 0
158 169 0
153 163 0
152 162 0
147 158 0
160 172 0
158 168 0
153 164 0
149 158 0
152 165 0
154 165 0
157 169 0
161 170 0
153 164 0
149 159 0
153 164 0
153 162 0
148 158 0
158 170 0
160 169 0
161 171 0
150 159 0
149 158 0
149 161 0
159 168 0
153 163 0
151 162 0
158 168 0
152 160 0
158 166 0
154 164 0
149 158 0
151 158 0
158 167 0
155 163 0
152 159 0
155 161 0
148 155 0
155 165 0
143 151 0
155 164 0
155 165 0
157 163 0
165 174 0
163 174 0
158 166 0
157 166 0
159 168 0
154 161 0
159 168 0
153 161 0
158 169 0
154 162 0
153 160 0
158 164 0
158 166 0
160 169 0
155 163 0
153 161 0
159 166 0
163 176 0
161 170 0
162 171 0
164 173 0
159 170 0
162 174 0
162 173 0
157 165 0
161 171 0
175 196 0
176 196 0
179 200 0
173 195 0
174 195 0
179 199 0
179 200 0
173 194 0
180 200 0
178 199 0
175 196 0
175 196 0
179 199 0
173 193 0
178 199 0
176 197 0
175 196 0
177 198 0
175 196 0
181 201 0
178 198 0
175 195 0
175 196 0
176 197 0
176 197 0
177 197 0
176 197 0
175 196 0
174 196 0
176 196 0
179 200 0
172 192 0
176 197 0
173 195 0
172 193 0
173 194 0
177 198 0
179 199 0
172 192 0
177 198 0
174 194 0
174 195 0
170 191 0
173 195 0
173 194 0
175 196 0
175 196 0
176 197 0
172 193 0
167 188 0
171 192 0
174 195 0
174 196 0
173 193 0
176 197 0
168 189 0
174 194 0
168 189 0
169 190 0
172 193 0
166 188 0
169 190 0
167 188 0
174 196 0
171 192 0
173 194 0
164 187 0
161 182 0
168 189 0
170 191 0
173 193 0
162 183 0
171 193 0
173 193 0
165 187 0
168 189 0
171 192 0
170 191 0
158 178 0
168 189 0
166 187 0
170 190 0
166 188 0
167 188 0
168 189 0
169 190 0
166 188 0
168 190 0
169 191 0
166 187 0
165 186 0
167 188 0
171 192 0
171 191 0
169 190 0
169 190 0
167 188 0
165 187 0
166 187 0
165 187 0
165 187 0
167 187 0
169 191 0
163 184 0
172 193 0
162 184 0
168 189 0
165 186 0
167 189 0
165 186 0
164 185 0
161 182 0
165 186 0
165 185 0
158 180 0
163 185 0
168 188 0
164 186 0
166 188 0
155 177 0
162 182 0
163 185 0
155 176 0
164 185 0
165 186 0
161 182 0
164 186 0
164 184 0
164 186 0
164 185 0
162 182 0
161 182 0
157 178 0
163 184 0
154 175 0
155 176 0
155 176 0
157 178 0
162 183 0
158 179 0
163 184 0
155 176 0
159 180 0
146 166 0
156 177 0
156 176 0
163 183 0
159 180 0
154 174 0
162 183 0
160 181 0
161 183 0
162 183 0
153 173 0
155 175 0
163 185 0
163 184 0
152 172 0
160 181 0
158 178 0
156 177 0
153 175 0
164 185 0
159 179 0
157 177 0
156 177 0
153 173 0
157 177 0
154 175 0
149 169 0
157 178 0
156 176 0
155 174 0
157 178 0
160 180 0
163 184 0
161 182 0
157 178 0
155 176 0
156 177 0
150 171 0
151 171 0
152 173 0
156 176 0
157 178 0
152 172 0
152 173 0
155 177 0
159 180 0
147 167 0
153 173 0
148 168 0
150 170 0
159 179 0
154 175 0
153 173 0
148 169 0
154 173 0
155 175 0
151 172 0
156 177 0
154 174 0
152 172 0
146 165 0
149 170 0
156 177 0
157 177 0
146 167 0
152 172 0
149 170 0
156 177 0
139 159 0
143 162 0
153 173 0
154 172 0
156 177 0
145 166 0
154 175 0
152 172 0
151 170 0
154 173 0
148 169 0
151 170 0
156 175 0
151 169 0
154 173 0
159 179 0
149 168 0
149 168 0
147 167 0
150 172 0
155 173 0
152 171 0
144 164 0
154 172 0
151 169 0
155 174 0
150 168 0
155 171 0
156 176 0
155 173 0
153 170 0
154 172 0
157 178 0
158 178 0
157 177 0
156 174 0
151 171 0
149 167 0
148 167 0
154 172 0
154 173 0
155 175 0
156 175 0
155 175 0
156 175 0
155 173 0
155 174 0
155 173 0
154 173 0
145 164 0
156 175 0
146 164 0
152 170 0
141 160 0
150 167 0
149 165 0
153 172 0
154 173 0
161 180 0
154 172 0
154 171 0
148 166 0
149 165 0
158 175 0
154 174 0
164 181 0
148 165 0
151 168 0
155 172 0
158 176 0
149 166 0
153 168 0
154 172 0
152 170 0
149 166 0
153 170 0
151 166 0
153 170 0
160 177 0
155 174 0
149 166 0
150 167 0
152 166 0
151 167 0
150 166 0
151 166 0
155 171 0
157 173 0
158 175 0
157 172 0
152 168 0
152 169 0
152 168 0
154 170 0
150 165 0
160 176 0
143 157 0
154 168 0
155 171 0
155 171 0
152 165 0
159 173 0
148 161 0
151 166 0
149 163 0
147 161 0
156 170 0
155 167 0
154 168 0
157 172 0
156 171 0
156 168 0
152 164 0
156 169 0
156 171 0
160 175 0
149 163 0
151 164 0
148 159 0
153 165 0
154 167 0
152 164 0
151 164 0
157 171 0
151 162 0
147 157 0
158 169 0
156 167 0
157 170 0
160 173 0
156 168 0
154 163 0
153 164 0
143 153 0
151 163 0
155 169 0
149 158 0
158 171 0
154 164 0
157 168 0
151 163 0
153 161 0
153 162 0
161 169 0
158 168 0
160 169 0
154 165 0
157 167 0
154 163 0
154 164 0
153 164 0
157 168 0
158 168 0
150 159 0
152 160 0
145 153 0
147 153 0
157 166 0
153 161 0
160 171 0
161 172 0
156 166 0
162 171 0
161 169 0
162 172 0
157 167 0
157 166 0
157 166 0
158 166 0
163 173 0
158 166 0
151 156 0
163 176 0
159 167 0
167 179 0
155 163 0
163 175 0
152 160 0
154 162 0
160 169 0
165 175 0
161 169 0
160 169 0
159 166 0
161 173 0
161 172 0
160 167 0
166 176 0
166 179 0
178 199 0
179 198 0
179 200 0
179 199 0
179 199 0
181 202 0
179 199 0
176 197 0
179 200 0
175 197 0
178 199 0
179 200 0
177 197 0
181 202 0
176 197 0
179 199 0
175 196 0
179 201 0
176 197 0
179 200 0
174 195 0
176 197 0
178 199 0
176 197 0
179 199 0
179 200 0
175 196 0
174 195 0
174 195 0
170 191 0
171 193 0
175 197 0
173 193 0
165 186 0
172 193 0
175 195 0
171 192 0
178 199 0
177 198 0
176 197 0
175 196 0
176 197 0
172 193 0
174 194 0
175 196 0
177 198 0
175 196 0
169 190 0
171 192 0
175 197 0
171 192 0
172 192 0
174 195 0
170 191 0
168 189 0
172 193 0
165 186 0
167 188 0
169 190 0
174 196 0
171 192 0
177 198 0
172 192 0
163 183 0
169 190 0
170 191 0
175 197 0
170 191 0
166 187 0
170 191 0
164 186 0
168 189 0
171 192 0
164 185 0
171 193 0
172 194 0
171 192 0
167 188 0
170 191 0
166 187 0
165 186 0
172 192 0
170 191 0
167 189 0
165 187 0
165 186 0
163 184 0
161 182 0
167 188 0
162 185 0
168 190 0
167 188 0
169 191 0
172 194 0
160 181 0
166 187 0
160 180 0
165 186 0
164 186 0
168 189 0
169 190 0
164 186 0
173 194 0
164 185 0
173 194 0
169 190 0
164 186 0
163 185 0
167 188 0
162 184 0
163 184 0
166 188 0
164 187 0
163 184 0
165 186 0
163 184 0
163 185 0
158 180 0
168 189 0
163 184 0
164 185 0
161 182 0
169 191 0
161 183 0
165 186 0
170 192 0
155 176 0
165 187 0
161 182 0
159 180 0
167 189 0
164 184 0
159 181 0
157 178 0
160 182 0
170 191 0
158 179 0
152 174 0
166 186 0
158 179 0
158 180 0
164 186 0
156 177 0
163 184 0
162 183 0
160 181 0
161 183 0
163 185 0
162 182 0
168 189 0
154 175 0
158 178 0
155 176 0
158 179 0
156 176 0
160 182 0
159 180 0
155 176 0
159 180 0
157 178 0
164 185 0
159 180 0
151 172 0
157 178 0
158 179 0
153 174 0
159 180 0
151 172 0
156 178 0
151 172 0
157 178 0
155 176 0
160 180 0
162 183 0
156 177 0
160 180 0
160 181 0
151 171 0
157 178 0
155 176 0
158 179 0
161 183 0
155 176 0
160 181 0
158 180 0
152 173 0
156 175 0
154 175 0
153 175 0
146 165 0
155 176 0
150 170 0
150 171 0
156 176 0
151 172 0
146 166 0
149 170 0
157 178 0
154 174 0
152 173 0
155 175 0
150 170 0
155 176 0
153 173 0
148 168 0
149 169 0
154 172 0
159 179 0
153 174 0
153 172 0
157 177 0
155 176 0
154 175 0
152 171 0
156 175 0
150 170 0
161 180 0
147 167 0
159 179 0
157 176 0
146 166 0
144 164 0
150 169 0
160 179 0
151 169 0
153 174 0
148 167 0
151 170 0
150 170 0
151 169 0
154 174 0
152 171 0
153 172 0
156 176 0
152 170 0
153 171 0
148 168 0
154 174 0
163 183 0
160 180 0
149 166 0
157 177 0
149 168 0
150 169 0
154 172 0
148 167 0
151 172 0
155 173 0
149 168 0
159 177 0
155 174 0
152 171 0
149 167 0
151 170 0
153 172 0
158 178 0
152 169 0
156 175 0
152 171 0
156 174 0
150 170 0
147 165 0
150 168 0
159 178 0
152 171 0
156 174 0
156 175 0
157 175 0
157 175 0
149 167 0
154 172 0
147 165 0
157 175 0
154 170 0
152 170 0
153 170 0
149 166 0
151 167 0
159 176 0
140 158 0
159 177 0
151 170 0
154 171 0
158 176 0
161 179 0
153 170 0
153 168 0
156 172 0
152 167 0
152 169 0
156 174 0
159 176 0
156 172 0
157 174 0
155 172 0
160 175 0
157 174 0
148 165 0
145 161 0
163 179 0
153 168 0
156 173 0
161 179 0
155 171 0
151 165 0
149 164 0
152 166 0
159 176 0
149 164 0
157 172 0
152 166 0
150 164 0
161 176 0
158 172 0
155 169 0
151 165 0
153 168 0
155 168 0
152 167 0
149 162 0
154 169 0
148 161 0
158 171 0
156 171 0
151 163 0
154 168 0
159 173 0
154 169 0
158 171 0
155 168 0
159 172 0
152 166 0
155 170 0
156 168 0
154 167 0
162 177 0
146 158 0
160 172 0
159 171 0
151 164 0
160 173 0
157 167 0
154 162 0
149 160 0
153 163 0
149 161 0
153 163 0
156 167 0
157 166 0
155 164 0
160 170 0
149 156 0
153 163 0
156 167 0
151 161 0
155 166 0
153 163 0
153 161 0
159 170 0
162 172 0
151 159 0
147 154 0
158 167 0
163 174 0
159 170 0
157 169 0
161 172 0
153 163 0
157 166 0
155 164 0
160 166 0
158 167 0
158 169 0
159 171 0
159 168 0
161 170 0
162 171 0
155 165 0
159 168 0
159 170 0
151 159 0
156 165 0
156 165 0
161 171 0
165 175 0
163 175 0
156 163 0
159 169 0
155 164 0
155 164 0
152 159 0
156 167 0
161 174 0
158 168 0
160 169 0
161 171 0
162 173 0
165 177 0
160 169 0
163 174 0
177 198 0
180 201 0
177 199 0
179 200 0
177 198 0
181 201 0
175 196 0
177 197 0
177 198 0
180 201 0
177 198 0
176 196 0
179 200 0
174 195 0
179 200 0
178 198 0
176 197 0
179 200 0
178 200 0
175 196 0
175 196 0
177 197 0
174 195 0
173 194 0
175 196 0
176 197 0
176 197 0
176 197 0
176 197 0
179 200 0
176 197 0
176 196 0
175 195 0
176 198 0
173 194 0
173 194 0
172 193 0
175 195 0
177 198 0
173 194 0
174 195 0
171 192 0
173 194 0
176 197 0
171 193 0
172 193 0
171 193 0
177 198 0
174 194 0
173 194 0
171 192 0
174 195 0
167 188 0
172 193 0
173 194 0
174 196 0
175 196 0
172 192 0
164 185 0
165 187 0
174 195 0
174 195 0
168 190 0
167 188 0
163 184 0
171 192 0
170 191 0
176 197 0
169 190 0
160 182 0
168 189 0
171 191 0
168 189 0
171 192 0
167 189 0
169 190 0
169 190 0
168 189 0
168 189 0
170 191 0
163 184 0
168 189 0
172 193 0
171 192 0
170 192 0
164 185 0
170 191 0
173 195 0
164 186 0
173 194 0
168 189 0
170 191 0
166 187 0
159 181 0
163 186 0
165 187 0
166 187 0
172 194 0
171 193 0
170 191 0
167 188 0
167 189 0
168 190 0
164 187 0
170 191 0
170 190 0
166 186 0
169 190 0
168 189 0
165 187 0
166 187 0
169 191 0
166 187 0
165 186 0
169 189 0
165 186 0
157 179 0
165 187 0
165 186 0
158 180 0
167 189 0
158 179 0
166 187 0
167 188 0
162 183 0
160 182 0
165 185 0
168 189 0
165 186 0
160 182 0
162 183 0
166 187 0
158 180 0
165 185 0
163 185 0
160 181 0
157 178 0
153 173 0
159 182 0
172 192 0
158 179 0
155 175 0
163 185 0
160 181 0
160 181 0
159 179 0
164 185 0
159 179 0
159 181 0
159 181 0
165 186 0
162 182 0
159 180 0
162 182 0
158 179 0
152 173 0
160 180 0
161 183 0
166 187 0
158 179 0
163 184 0
160 181 0
161 182 0
160 180 0
162 182 0
151 172 0
156 178 0
150 171 0
155 175 0
157 177 0
158 178 0
155 176 0
151 171 0
159 179 0
162 183 0
148 169 0
155 176 0
162 183 0
153 173 0
151 173 0
152 174 0
158 178 0
153 174 0
153 174 0
159 180 0
159 179 0
154 173 0
161 182 0
161 182 0
162 180 0
155 176 0
148 168 0
155 175 0
160 180 0
151 171 0
152 171 0
158 179 0
154 174 0
148 167 0
151 170 0
159 179 0
151 171 0
147 167 0
160 180 0
149 169 0
147 167 0
150 170 0
150 170 0
152 170 0
152 172 0
160 180 0
147 167 0
143 163 0
156 176 0
158 178 0
161 182 0
148 169 0
151 170 0
148 166 0
151 169 0
157 178 0
153 173 0
149 168 0
146 164 0
154 173 0
150 169 0
147 167 0
152 172 0
156 176 0
148 167 0
150 171 0
147 165 0
153 174 0
146 164 0
149 168 0
160 180 0
147 164 0
150 169 0
146 165 0
156 175 0
156 175 0
150 169 0
149 168 0
162 181 0
156 175 0
153 173 0
148 167 0
159 178 0
159 178 0
150 168 0
159 177 0
154 170 0
155 173 0
150 168 0
149 168 0
150 168 0
159 178 0
157 176 0
144 164 0
151 169 0
152 171 0
154 172 0
148 167 0
154 171 0
151 170 0
154 171 0
155 173 0
156 174 0
150 168 0
151 170 0
156 174 0
149 165 0
153 170 0
149 165 0
146 162 0
153 171 0
162 181 0
146 164 0
162 178 0
152 171 0
153 171 0
154 170 0
149 164 0
151 169 0
157 172 0
151 168 0
159 176 0
153 170 0
157 173 0
154 170 0
146 161 0
153 169 0
156 175 0
145 161 0
152 168 0
157 174 0
154 171 0
151 166 0
155 171 0
154 171 0
160 175 0
152 167 0
159 177 0
157 174 0
154 170 0
156 174 0
156 175 0
153 169 0
153 169 0
152 169 0
157 173 0
149 163 0
151 165 0
155 170 0
158 175 0
170 187 0
150 163 0
156 169 0
157 172 0
153 166 0
152 168 0
157 170 0
160 174 0
163 178 0
154 167 0
157 171 0
151 166 0
151 166 0
146 156 0
153 163 0
153 165 0
153 167 0
141 152 0
154 167 0
152 164 0
154 168 0
155 166 0
154 165 0
158 172 0
152 162 0
150 163 0
149 162 0
155 169 0
154 170 0
156 168 0
148 161 0
158 171 0
161 176 0
145 155 0
152 163 0
160 172 0
145 154 0
154 166 0
151 160 0
158 171 0
160 170 0
159 169 0
158 169 0
154 163 0
155 167 0
153 164 0
156 165 0
166 176 0
153 161 0
154 163 0
160 169 0
151 161 0
160 170 0
151 157 0
156 165 0
160 170 0
162 171 0
154 164 0
155 163 0
157 167 0
157 165 0
163 172 0
154 164 0
154 163 0
158 166 0
155 164 0
159 170 0
159 170 0
149 158 0
158 169 0
156 165 0
159 168 0
164 174 0
158 169 0
158 166 0
158 168 0
164 172 0
163 171 0
163 171 0
156 166 0
161 171 0
162 167 0
165 177 0
166 174 0
158 165 0
181 202 0
176 198 0
178 199 0
175 196 0
178 199 0
177 197 0
175 196 0
176 197 0
176 197 0
177 199 0
177 197 0
178 198 0
177 198 0
174 195 0
174 195 0
177 197 0
180 201 0
172 193 0
172 194 0
176 197 0
177 198 0
177 197 0
180 200 0
178 198 0
177 198 0
177 197 0
175 196 0
171 192 0
180 200 0
172 193 0
176 197 0
174 194 0
176 198 0
173 194 0
173 194 0
173 194 0
175 195 0
174 196 0
172 194 0
177 198 0
169 190 0
172 192 0
174 195 0
178 198 0
173 193 0
170 192 0
172 192 0
176 197 0
174 195 0
169 191 0
177 198 0
174 196 0
172 194 0
166 188 0
169 192 0
174 196 0
173 195 0
170 190 0
172 193 0
173 194 0
176 197 0
166 187 0
171 192 0
174 195 0
168 190 0
174 194 0
170 191 0
168 190 0
170 191 0
175 196 0
169 189 0
168 189 0
169 190 0
169 192 0
162 184 0
169 191 0
168 189 0
177 198 0
162 183 0
168 189 0
167 188 0
170 192 0
173 194 0
161 182 0
168 189 0
170 191 0
164 185 0
170 191 0
167 189 0
164 185 0
172 193 0
170 192 0
164 186 0
162 184 0
166 187 0
165 187 0
170 191 0
166 188 0
164 185 0
166 187 0
168 189 0
161 184 0
165 186 0
170 190 0
170 191 0
165 185 0
168 189 0
164 186 0
165 187 0
163 184 0
162 182 0
158 180 0
165 187 0
165 186 0
164 185 0
165 187 0
167 189 0
165 187 0
161 183 0
158 179 0
161 183 0
161 182 0
164 184 0
162 183 0
160 182 0
164 186 0
159 180 0
164 185 0
157 178 0
159 181 0
161 182 0
163 184 0
161 182 0
159 180 0
156 177 0
158 180 0
163 184 0
160 179 0
165 186 0
166 189 0
160 181 0
160 180 0
155 176 0
161 182 0
158 178 0
158 180 0
160 181 0
161 183 0
160 181 0
164 185 0
164 186 0
156 177 0
155 174 0
162 182 0
158 179 0
158 179 0
157 178 0
156 178 0
161 181 0
167 187 0
161 183 0
159 180 0
157 177 0
154 175 0
159 180 0
161 182 0
159 180 0
161 183 0
154 176 0
163 184 0
158 178 0
155 176 0
159 180 0
154 174 0
160 181 0
155 175 0
162 182 0
162 182 0
154 174 0
157 177 0
156 177 0
163 184 0
158 180 0
160 179 0
154 174 0
160 180 0
154 174 0
161 181 0
153 174 0
159 180 0
157 176 0
154 174 0
145 165 0
164 184 0
159 180 0
156 176 0
161 181 0
157 177 0
156 177 0
154 174 0
158 180 0
155 175 0
156 178 0
153 175 0
159 178 0
155 175 0
154 173 0
156 175 0
142 161 0
156 174 0
155 174 0
157 178 0
148 168 0
161 181 0
152 172 0
150 169 0
145 165 0
164 185 0
153 173 0
158 178 0
160 180 0
154 173 0
149 167 0
150 170 0
151 171 0
153 171 0
153 174 0
159 179 0
151 170 0
156 175 0
154 174 0
153 172 0
151 171 0
156 176 0
156 175 0
151 171 0
154 174 0
158 177 0
150 169 0
162 181 0
156 176 0
149 170 0
154 172 0
158 177 0
150 169 0
156 175 0
150 168 0
154 174 0
150 169 0
154 174 0
154 172 0
160 179 0
159 176 0
155 173 0
150 169 0
157 177 0
155 173 0
154 173 0
154 174 0
158 177 0
154 173 0
154 174 0
155 173 0
161 181 0
158 178 0
154 172 0
153 172 0
162 180 0
150 168 0
155 174 0
152 170 0
153 172 0
154 173 0
152 169 0
152 170 0
160 177 0
152 169 0
147 165 0
155 174 0
154 173 0
153 172 0
157 174 0
156 175 0
159 175 0
151 168 0
151 169 0
149 165 0
157 173 0
150 165 0
156 172 0
155 172 0
155 172 0
150 164 0
158 175 0
152 168 0
159 176 0
155 172 0
148 163 0
157 173 0
147 161 0
151 167 0
150 166 0
155 172 0
155 171 0
163 179 0
156 172 0
150 163 0
153 171 0
157 171 0
155 169 0
153 168 0
149 165 0
159 174 0
155 172 0
158 172 0
162 178 0
152 166 0
150 166 0
148 163 0
154 170 0
159 173 0
156 170 0
158 171 0
159 173 0
155 168 0
159 172 0
155 169 0
155 168 0
155 167 0
154 165 0
161 173 0
152 163 0
148 162 0
160 173 0
151 162 0
154 168 0
153 164 0
149 161 0
160 174 0
152 163 0
155 166 0
157 169 0
157 169 0
156 169 0
157 168 0
156 168 0
155 167 0
159 172 0
160 173 0
158 172 0
159 172 0
153 166 0
158 168 0
159 169 0
153 163 0
153 165 0
158 170 0
153 165 0
157 168 0
149 163 0
155 166 0
160 172 0
157 167 0
157 167 0
160 169 0
158 168 0
158 170 0
158 169 0
152 161 0
157 165 0
158 170 0
159 170 0
158 169 0
156 164 0
157 164 0
156 166 0
156 167 0
168 180 0
161 172 0
159 170 0
158 167 0
165 178 0
167 177 0
153 163 0
152 163 0
153 161 0
153 164 0
162 172 0
157 168 0
161 172 0
165 175 0
157 165 0
160 171 0
165 176 0
158 168 0
157 167 0
163 174 0
163 174 0
164 175 0
165 176 0
180 201 0
176 197 0
174 195 0
178 198 0
175 196 0
178 200 0
178 198 0
176 198 0
176 198 0
176 196 0
178 199 0
178 198 0
179 199 0
173 195 0
177 198 0
178 199 0
174 195 0
175 195 0
179 199 0
178 198 0
172 193 0
176 197 0
175 196 0
172 193 0
173 195 0
175 196 0
175 195 0
172 193 0
172 192 0
176 196 0
177 198 0
174 195 0
174 194 0
175 196 0
174 195 0
172 193 0
175 197 0
174 195 0
173 194 0
175 195 0
172 193 0
174 195 0
175 196 0
175 196 0
175 196 0
169 191 0
173 193 0
169 190 0
170 191 0
174 196 0
169 190 0
172 193 0
170 190 0
170 191 0
169 190 0
171 193 0
168 190 0
173 193 0
172 193 0
171 192 0
173 195 0
171 191 0
171 192 0
168 189 0
172 193 0
169 189 0
170 192 0
173 194 0
168 189 0
172 194 0
171 192 0
169 190 0
166 188 0
171 192 0
168 189 0
171 192 0
171 191 0
172 194 0
167 188 0
168 189 0
168 189 0
172 193 0
169 190 0
169 191 0
169 191 0
175 197 0
170 192 0
166 188 0
169 189 0
168 190 0
169 191 0
170 191 0
166 188 0
167 188 0
160 181 0
165 186 0
164 184 0
167 189 0
165 187 0
153 175 0
162 183 0
167 188 0
164 186 0
166 188 0
159 181 0
163 183 0
169 190 0
167 189 0
160 181 0
166 187 0
164 186 0
166 188 0
168 189 0
167 189 0
164 186 0
166 188 0
165 184 0
165 185 0
167 189 0
166 187 0
165 186 0
161 184 0
158 180 0
168 190 0
162 183 0
158 180 0
159 180 0
162 183 0
166 187 0
167 189 0
169 191 0
165 186 0
165 187 0
164 185 0
163 185 0
163 184 0
159 180 0
166 188 0
158 179 0
165 185 0
160 182 0
162 183 0
156 177 0
164 186 0
162 183 0
157 179 0
153 174 0
162 183 0
155 176 0
159 179 0
154 176 0
155 176 0
160 182 0
160 180 0
160 180 0
166 187 0
163 183 0
161 183 0
159 180 0
161 182 0
158 179 0
162 183 0
162 183 0
158 179 0
163 184 0
161 182 0
155 176 0
155 177 0
154 175 0
156 176 0
160 181 0
158 179 0
152 173 0
149 170 0
161 181 0
159 180 0
163 184 0
155 176 0
164 185 0
161 183 0
160 182 0
154 174 0
154 174 0
152 172 0
164 184 0
161 181 0
157 179 0
151 172 0
160 179 0
152 173 0
161 182 0
154 175 0
149 168 0
165 185 0
151 172 0
147 168 0
150 170 0
153 174 0
154 174 0
165 186 0
158 178 0
153 174 0
148 168 0
153 173 0
156 176 0
150 170 0
152 171 0
145 165 0
147 166 0
148 168 0
160 179 0
150 170 0
159 179 0
150 169 0
150 170 0
151 170 0
151 171 0
155 174 0
159 179 0
157 177 0
160 179 0
163 183 0
157 176 0
155 175 0
158 178 0
149 169 0
149 168 0
151 170 0
155 176 0
151 170 0
158 178 0
151 169 0
149 168 0
158 177 0
155 172 0
148 167 0
158 176 0
155 174 0
155 174 0
152 173 0
154 174 0
158 178 0
156 176 0
156 175 0
154 173 0
156 175 0
157 176 0
161 181 0
154 173 0
145 165 0
150 169 0
144 163 0
160 178 0
149 170 0
162 182 0
149 168 0
146 165 0
148 165 0
154 174 0
154 172 0
151 170 0
153 170 0
150 168 0
150 169 0
151 169 0
157 175 0
152 170 0
151 169 0
151 168 0
155 174 0
151 169 0
140 156 0
152 171 0
159 178 0
160 178 0
151 167 0
156 174 0
161 178 0
150 167 0
154 173 0
159 176 0
154 171 0
159 178 0
157 172 0
150 169 0
161 179 0
158 175 0
151 169 0
163 180 0
156 173 0
154 173 0
154 170 0
153 171 0
152 170 0
150 167 0
153 168 0
155 171 0
153 168 0
156 173 0
160 177 0
158 173 0
157 173 0
162 179 0
152 168 0
155 173 0
159 175 0
150 166 0
156 170 0
158 174 0
158 174 0
149 164 0
156 172 0
163 177 0
149 164 0
149 165 0
153 167 0
155 170 0
158 174 0
151 166 0
156 172 0
149 162 0
162 177 0
158 174 0
161 177 0
158 175 0
153 165 0
152 165 0
154 167 0
159 173 0
157 171 0
154 168 0
150 161 0
159 171 0
150 164 0
158 172 0
163 176 0
160 174 0
159 171 0
155 166 0
158 170 0
145 158 0
159 171 0
153 163 0
151 164 0
154 166 0
155 166 0
161 173 0
160 173 0
158 170 0
158 172 0
148 161 0
163 177 0
157 169 0
159 171 0
158 168 0
150 163 0
152 163 0
157 170 0
152 164 0
149 160 0
152 162 0
159 171 0
150 161 0
160 172 0
156 168 0
156 165 0
157 164 0
159 170 0
165 177 0
163 175 0
159 172 0
152 164 0
161 171 0
159 170 0
163 171 0
159 168 0
158 168 0
163 174 0
161 171 0
158 168 0
167 179 0
150 161 0
165 175 0
162 173 0
156 166 0
158 167 0
163 174 0
155 165 0
152 160 0
153 161 0
162 171 0
157 166 0
161 169 0
156 165 0
160 172 0
162 171 0
164 173 0
161 170 0
161 173 0
168 179 0
180 201 0
176 197 0
175 197 0
179 200 0
176 197 0
178 199 0
177 198 0
174 195 0
173 194 0
176 197 0
180 201 0
175 195 0
174 196 0
178 199 0
174 195 0
178 199 0
178 200 0
177 199 0
178 199 0
174 195 0
174 195 0
178 199 0
174 195 0
172 194 0
178 199 0
171 192 0
175 198 0
174 195 0
176 197 0
176 198 0
176 196 0
172 194 0
174 195 0
176 197 0
176 197 0
173 195 0
168 190 0
173 194 0
172 193 0
174 195 0
174 195 0
175 197 0
169 190 0
176 196 0
177 198 0
172 193 0
174 195 0
176 197 0
171 192 0
166 188 0
175 197 0
168 189 0
171 192 0
177 197 0
169 191 0
169 191 0
175 196 0
170 192 0
171 192 0
173 195 0
174 196 0
175 197 0
168 189 0
170 191 0
167 188 0
167 188 0
168 190 0
171 192 0
172 193 0
172 193 0
169 190 0
167 188 0
169 191 0
168 188 0
168 188 0
174 195 0
168 191 0
171 192 0
170 191 0
165 187 0
164 185 0
167 187 0
172 193 0
167 189 0
169 190 0
172 193 0
160 182 0
163 185 0
164 185 0
171 193 0
166 188 0
167 188 0
168 189 0
168 190 0
169 189 0
170 192 0
166 186 0
170 191 0
172 193 0
166 186 0
166 187 0
167 188 0
163 185 0
165 186 0
165 187 0
174 195 0
168 189 0
161 181 0
167 189 0
170 192 0
168 189 0
170 192 0
163 184 0
163 185 0
164 186 0
164 186 0
171 193 0
167 188 0
166 187 0
169 191 0
164 184 0
169 190 0
162 185 0
165 187 0
160 181 0
161 182 0
165 186 0
163 185 0
165 186 0
163 183 0
167 187 0
163 185 0
162 183 0
157 179 0
160 182 0
163 184 0
160 181 0
162 182 0
158 179 0
163 184 0
166 187 0
160 180 0
158 178 0
163 184 0
158 179 0
167 188 0
162 183 0
156 176 0
157 178 0
165 186 0
165 186 0
155 175 0
165 185 0
159 180 0
155 176 0
159 181 0
162 184 0
156 177 0
162 182 0
162 183 0
158 178 0
159 179 0
159 180 0
155 175 0
162 182 0
146 167 0
156 177 0
158 180 0
157 178 0
155 175 0
156 177 0
152 172 0
158 179 0
149 170 0
155 176 0
160 181 0
164 184 0
159 180 0
162 183 0
159 180 0
158 178 0
162 182 0
161 181 0
160 181 0
158 179 0
165 185 0
161 181 0
155 173 0
154 175 0
155 176 0
157 177 0
155 175 0
155 175 0
144 166 0
158 179 0
153 173 0
152 170 0
153 173 0
158 179 0
150 168 0
156 177 0
154 175 0
154 174 0
150 170 0
156 177 0
151 170 0
154 174 0
149 169 0
156 175 0
163 184 0
150 170 0
157 176 0
154 173 0
155 175 0
159 180 0
154 174 0
142 163 0
153 173 0
154 174 0
152 171 0
156 176 0
138 157 0
157 177 0
148 168 0
162 184 0
158 179 0
156 177 0
156 176 0
159 178 0
156 176 0
155 174 0
160 178 0
149 168 0
145 164 0
157 175 0
151 170 0
152 171 0
154 172 0
153 172 0
155 174 0
160 180 0
149 169 0
153 172 0
152 173 0
158 177 0
149 169 0
150 170 0
161 180 0
156 176 0
152 171 0
146 163 0
162 180 0
160 179 0
149 167 0
158 178 0
149 167 0
148 168 0
159 178 0
154 174 0
160 177 0
154 174 0
152 170 0
155 175 0
159 178 0
153 172 0
152 173 0
151 168 0
159 178 0
151 170 0
150 169 0
158 177 0
153 171 0
155 173 0
149 168 0
153 170 0
158 176 0
158 176 0
158 175 0
158 176 0
154 170 0
162 181 0
152 169 0
155 172 0
160 179 0
153 170 0
152 170 0
160 179 0
161 180 0
145 161 0
158 175 0
157 176 0
151 169 0
152 171 0
153 171 0
157 175 0
160 177 0
156 173 0
156 173 0
153 170 0
156 172 0
153 169 0
164 182 0
162 177 0
153 169 0
155 171 0
158 174 0
152 167 0
160 176 0
155 170 0
156 171 0
155 170 0
158 171 0
155 173 0
147 163 0
152 167 0
161 177 0
156 171 0
155 172 0
156 170 0
154 169 0
161 176 0
153 168 0
152 165 0
154 167 0
156 169 0
156 171 0
161 176 0
150 164 0
158 176 0
153 166 0
157 171 0
157 171 0
157 169 0
158 173 0
160 175 0
155 170 0
158 172 0
150 161 0
148 159 0
154 167 0
159 171 0
155 168 0
157 172 0
159 172 0
156 169 0
156 168 0
157 171 0
163 176 0
158 172 0
153 164 0
155 166 0
158 171 0
156 168 0
156 166 0
156 167 0
151 162 0
154 165 0
151 162 0
154 164 0
153 165 0
157 167 0
156 167 0
152 163 0
157 168 0
159 169 0
154 166 0
154 165 0
160 168 0
156 165 0
152 163 0
158 169 0
153 162 0
161 171 0
155 166 0
161 171 0
156 164 0
157 168 0
163 175 0
165 175 0
159 170 0
154 162 0
155 164 0
166 179 0
161 173 0
165 178 0
160 168 0
163 175 0
161 174 0
162 173 0
159 170 0
158 168 0
166 178 0
159 170 0
163 174 0
153 164 0
161 174 0
160 170 0
163 174 0
160 171 0
168 180 0
177 198 0
175 196 0
177 198 0
176 196 0
177 198 0
175 196 0
172 194 0
178 198 0
175 196 0
177 198 0
172 193 0
175 196 0
174 195 0
176 197 0
175 197 0
169 191 0
174 195 0
171 191 0
177 198 0
176 197 0
171 192 0
176 197 0
174 196 0
175 196 0
177 197 0
172 192 0
176 197 0
174 196 0
175 196 0
171 193 0
170 192 0
175 195 0
174 195 0
166 187 0
177 197 0
172 193 0
173 194 0
176 198 0
177 198 0
174 194 0
171 193 0
178 199 0
170 191 0
174 195 0
177 198 0
175 196 0
171 191 0
173 194 0
175 196 0
168 190 0
174 195 0
168 190 0
173 194 0
170 192 0
166 187 0
169 190 0
168 189 0
168 190 0
176 197 0
171 193 0
168 189 0
172 194 0
168 190 0
170 191 0
174 195 0
172 193 0
166 188 0
169 190 0
174 194 0
169 190 0
168 189 0
166 187 0
173 195 0
171 193 0
174 195 0
167 189 0
169 189 0
170 191 0
175 196 0
164 186 0
166 187 0
169 190 0
172 194 0
169 190 0
165 187 0
167 189 0
167 189 0
165 187 0
169 191 0
169 190 0
165 187 0
166 187 0
166 188 0
168 190 0
162 183 0
163 184 0
165 187 0
168 190 0
160 182 0
169 191 0
172 193 0
168 190 0
167 188 0
168 189 0
163 184 0
160 181 0
168 190 0
164 185 0
164 186 0
168 189 0
167 188 0
159 180 0
167 188 0
164 185 0
168 189 0
164 185 0
168 189 0
163 186 0
163 186 0
168 189 0
161 181 0
163 183 0
166 188 0
170 191 0
161 181 0
164 185 0
159 181 0
158 180 0
164 185 0
160 182 0
162 183 0
165 186 0
163 184 0
162 183 0
161 182 0
164 185 0
164 185 0
162 183 0
160 181 0
154 175 0
157 178 0
164 186 0
165 186 0
158 178 0
154 176 0
159 180 0
163 184 0
158 180 0
164 186 0
157 179 0
154 174 0
155 176 0
159 180 0
154 176 0
158 180 0
162 182 0
163 184 0
162 183 0
169 191 0
161 182 0
159 181 0
154 174 0
158 177 0
155 176 0
155 177 0
161 182 0
163 185 0
157 179 0
152 174 0
156 175 0
159 179 0
160 181 0
160 181 0
163 185 0
158 179 0
155 175 0
155 178 0
154 175 0
164 186 0
157 176 0
150 172 0
156 176 0
156 177 0
158 179 0
154 175 0
160 181 0
160 181 0
159 179 0
157 178 0
149 169 0
156 178 0
157 178 0
161 181 0
152 172 0
156 176 0
158 180 0
150 170 0
162 182 0
157 178 0
158 179 0
160 181 0
151 171 0
157 176 0
146 167 0
159 179 0
151 171 0
152 169 0
157 177 0
152 173 0
154 175 0
157 176 0
159 179 0
153 172 0
160 179 0
157 177 0
154 175 0
151 171 0
155 175 0
156 176 0
159 179 0
156 174 0
153 172 0
147 165 0
160 180 0
162 183 0
162 182 0
156 176 0
154 174 0
156 175 0
166 188 0
160 180 0
157 175 0
150 171 0
156 176 0
161 182 0
153 173 0
154 174 0
161 180 0
154 172 0
161 180 0
158 178 0
152 172 0
152 172 0
157 176 0
150 167 0
159 179 0
160 179 0
164 184 0
155 173 0
154 173 0
149 167 0
156 175 0
153 173 0
149 167 0
158 176 0
155 175 0
157 176 0
158 178 0
156 175 0
157 176 0
158 177 0
157 176 0
151 168 0
150 170 0
161 180 0
159 178 0
164 182 0
154 172 0
153 170 0
159 179 0
153 170 0
159 177 0
163 183 0
161 179 0
156 173 0
153 171 0
158 176 0
151 170 0
148 166 0
156 173 0
157 175 0
152 169 0
158 177 0
163 182 0
152 169 0
155 172 0
155 172 0
153 170 0
162 181 0
158 176 0
154 172 0
160 178 0
154 171 0
166 183 0
154 172 0
159 176 0
157 175 0
155 171 0
157 176 0
160 177 0
161 177 0
153 171 0
162 178 0
166 182 0
155 171 0
155 171 0
157 172 0
161 178 0
153 168 0
156 172 0
151 164 0
156 171 0
150 164 0
150 166 0
154 170 0
156 172 0
158 173 0
161 175 0
157 172 0
150 165 0
155 170 0
158 174 0
153 168 0
161 176 0
162 177 0
152 166 0
158 172 0
151 165 0
161 174 0
156 171 0
152 165 0
150 163 0
144 156 0
159 174 0
158 173 0
150 162 0
160 172 0
157 170 0
159 173 0
151 163 0
161 174 0
154 167 0
161 175 0
152 167 0
158 171 0
159 170 0
161 173 0
154 168 0
163 175 0
158 168 0
155 167 0
158 169 0
163 172 0
156 170 0
155 165 0
159 171 0
158 171 0
155 166 0
157 169 0
158 171 0
159 172 0
161 171 0
161 174 0
165 177 0
158 171 0
152 161 0
160 173 0
156 166 0
155 164 0
163 174 0
156 166 0
158 167 0
164 178 0
158 171 0
156 166 0
163 175 0
162 173 0
161 173 0
162 171 0
165 175 0
153 162 0
162 172 0
157 169 0
160 169 0
167 178 0
157 168 0
161 173 0
161 171 0
151 160 0
163 174 0
160 169 0
158 166 0
160 170 0
162 172 0
163 176 0
159 168 0
164 173 0
161 171 0
159 169 0
161 171 0
175 197 0
175 197 0
174 196 0
176 198 0
173 194 0
178 199 0
177 198 0
175 196 0
172 193 0
174 195 0
173 194 0
174 195 0
173 195 0
175 196 0
179 200 0
171 193 0
179 200 0
177 198 0
177 198 0
176 197 0
174 195 0
174 195 0
176 197 0
171 192 0
177 197 0
175 196 0
175 196 0
175 197 0
170 192 0
174 196 0
170 191 0
174 195 0
171 192 0
174 196 0
176 198 0
175 196 0
172 193 0
173 194 0
174 195 0
175 195 0
177 197 0
172 193 0
169 190 0
174 194 0
172 192 0
173 194 0
174 196 0
173 194 0
175 196 0
171 193 0
171 193 0
170 191 0
172 194 0
165 187 0
174 195 0
172 193 0
172 193 0
171 193 0
169 190 0
170 191 0
168 190 0
168 190 0
169 191 0
167 189 0
168 189 0
165 186 0
167 189 0
170 191 0
170 192 0
171 192 0
169 191 0
175 196 0
173 194 0
176 198 0
171 192 0
165 187 0
167 188 0
170 191 0
171 192 0
162 184 0
162 184 0
169 190 0
165 186 0
168 189 0
167 189 0
165 187 0
170 193 0
169 190 0
168 190 0
169 191 0
167 189 0
164 186 0
166 187 0
173 193 0
165 186 0
168 190 0
163 184 0
165 186 0
164 186 0
169 191 0
169 191 0
166 187 0
156 177 0
166 187 0
156 178 0
170 191 0
167 188 0
173 194 0
167 188 0
168 190 0
168 190 0
166 187 0
163 184 0
160 181 0
165 186 0
165 186 0
167 189 0
159 181 0
167 188 0
164 185 0
167 188 0
166 187 0
156 177 0
163 185 0
165 187 0
162 184 0
164 184 0
161 183 0
156 179 0
163 184 0
163 185 0
165 187 0
167 189 0
162 182 0
159 180 0
160 182 0
158 178 0
162 183 0
167 189 0
163 184 0
156 176 0
153 175 0
162 183 0
165 186 0
162 183 0
161 181 0
164 185 0
158 179 0
157 178 0
166 188 0
155 177 0
163 183 0
163 185 0
160 181 0
163 184 0
158 179 0
164 185 0
155 176 0
157 178 0
156 177 0
150 171 0
169 190 0
163 183 0
155 176 0
161 182 0
161 182 0
162 183 0
163 184 0
157 176 0
161 182 0
154 175 0
161 182 0
157 178 0
156 177 0
158 179 0
152 173 0
161 182 0
153 172 0
162 182 0
156 178 0
156 176 0
147 168 0
156 177 0
154 172 0
156 176 0
153 174 0
157 177 0
158 179 0
158 178 0
155 175 0
162 182 0
154 174 0
150 171 0
163 184 0
153 173 0
157 176 0
158 179 0
147 166 0
159 180 0
152 172 0
158 178 0
156 176 0
153 173 0
158 179 0
158 176 0
155 175 0
154 175 0
149 169 0
150 169 0
148 168 0
155 174 0
157 178 0
152 173 0
154 174 0
151 170 0
154 173 0
154 173 0
153 173 0
158 178 0
156 177 0
157 177 0
156 176 0
157 176 0
160 180 0
155 174 0
154 173 0
157 177 0
148 167 0
156 175 0
158 179 0
156 175 0
154 173 0
159 180 0
156 175 0
154 173 0
154 173 0
155 174 0
155 173 0
149 169 0
159 178 0
154 173 0
147 166 0
153 174 0
154 175 0
155 174 0
161 180 0
147 166 0
153 172 0
151 169 0
151 171 0
155 175 0
162 182 0
156 174 0
153 173 0
154 174 0
158 178 0
155 175 0
151 170 0
151 169 0
152 170 0
148 167 0
158 178 0
154 173 0
157 176 0
158 176 0
164 183 0
159 178 0
158 177 0
152 170 0
157 175 0
161 179 0
156 177 0
155 173 0
155 174 0
157 175 0
163 182 0
159 179 0
157 174 0
154 172 0
154 173 0
160 178 0
154 169 0
160 177 0
160 178 0
154 171 0
149 168 0
162 180 0
160 179 0
155 171 0
164 182 0
155 172 0
149 165 0
157 176 0
159 176 0
156 172 0
159 177 0
157 172 0
152 169 0
157 174 0
162 179 0
154 171 0
157 172 0
157 176 0
165 182 0
157 174 0
159 175 0
154 172 0
153 168 0
154 170 0
155 173 0
159 176 0
158 175 0
151 167 0
155 172 0
158 171 0
153 169 0
151 167 0
154 170 0
155 173 0
151 167 0
156 173 0
161 177 0
145 158 0
161 177 0
155 169 0
160 175 0
159 174 0
155 168 0
158 173 0
155 170 0
156 168 0
150 164 0
159 172 0
159 175 0
155 168 0
161 176 0
159 171 0
157 170 0
156 171 0
162 176 0
158 173 0
152 165 0
149 163 0
156 170 0
162 174 0
159 172 0
157 169 0
158 170 0
155 166 0
161 172 0
153 166 0
159 171 0
156 168 0
152 163 0
157 172 0
155 166 0
157 168 0
165 177 0
161 174 0
159 173 0
159 170 0
160 172 0
165 176 0
162 177 0
158 169 0
160 170 0
158 169 0
159 170 0
159 171 0
159 171 0
161 171 0
160 173 0
158 171 0
162 173 0
158 171 0
155 165 0
159 169 0
159 172 0
164 174 0
160 173 0
163 174 0
159 169 0
160 170 0
159 171 0
156 168 0
161 168 0
165 175 0
162 171 0
157 165 0
159 169 0
161 169 0
162 171 0
161 171 0
154 163 0
161 174 0
154 163 0
161 173 0
166 179 0
155 165 0
158 169 0
175 196 0
172 193 0
180 201 0
179 200 0
177 198 0
179 199 0
177 198 0
178 200 0
173 194 0
176 198 0
179 200 0
176 197 0
177 198 0
174 195 0
175 196 0
174 196 0
176 197 0
168 189 0
175 196 0
176 198 0
173 194 0
173 195 0
176 198 0
174 196 0
174 195 0
178 199 0
171 192 0
170 191 0
174 195 0
171 192 0
170 191 0
169 190 0
173 195 0
174 196 0
175 196 0
174 194 0
174 196 0
174 195 0
170 191 0
172 193 0
170 192 0
168 190 0
172 193 0
170 191 0
172 193 0
167 187 0
169 190 0
175 196 0
169 191 0
171 192 0
175 195 0
177 198 0
172 193 0
173 194 0
175 197 0
176 197 0
172 192 0
174 196 0
171 192 0
172 193 0
171 192 0
169 190 0
175 196 0
170 191 0
167 187 0
169 190 0
168 189 0
170 192 0
174 194 0
164 184 0
171 192 0
171 193 0
164 187 0
163 185 0
163 185 0
169 191 0
169 191 0
172 192 0
170 191 0
167 188 0
171 193 0
167 188 0
173 193 0
165 187 0
165 186 0
171 192 0
166 186 0
171 193 0
170 192 0
170 192 0
164 186 0
164 186 0
169 191 0
161 183 0
168 190 0
164 186 0
163 185 0
168 189 0
169 190 0
166 186 0
168 189 0
162 184 0
167 190 0
167 189 0
165 185 0
169 190 0
170 191 0
160 183 0
164 185 0
166 188 0
162 183 0
167 188 0
163 185 0
167 189 0
166 188 0
169 190 0
166 188 0
172 193 0
166 187 0
163 185 0
172 194 0
165 187 0
158 180 0
167 188 0
160 181 0
162 184 0
164 186 0
165 187 0
168 189 0
157 178 0
160 180 0
166 188 0
165 187 0
160 182 0
161 183 0
165 187 0
165 186 0
159 180 0
163 184 0
164 185 0
158 179 0
162 184 0
156 177 0
160 181 0
162 184 0
160 180 0
165 186 0
158 179 0
156 176 0
163 185 0
160 180 0
163 184 0
162 183 0
164 186 0
161 182 0
160 181 0
160 182 0
153 174 0
160 181 0
162 182 0
158 178 0
157 177 0
152 173 0
152 173 0
158 178 0
163 184 0
159 179 0
155 176 0
158 179 0
156 177 0
154 174 0
157 179 0
160 182 0
157 177 0
153 173 0
156 176 0
153 175 0
153 174 0
151 171 0
156 177 0
157 178 0
157 178 0
162 183 0
159 179 0
158 179 0
166 186 0
160 181 0
156 177 0
155 175 0
147 166 0
161 181 0
153 174 0
158 178 0
159 178 0
161 181 0
151 171 0
162 182 0
151 172 0
159 180 0
156 176 0
162 183 0
157 178 0
157 178 0
154 173 0
164 185 0
153 173 0
158 177 0
153 173 0
148 167 0
154 174 0
153 173 0
153 172 0
152 172 0
160 180 0
157 177 0
161 180 0
157 177 0
154 175 0
157 177 0
155 176 0
158 178 0
150 169 0
153 173 0
151 172 0
157 177 0
150 168 0
158 177 0
161 181 0
148 170 0
150 170 0
156 174 0
163 184 0
150 168 0
149 169 0
152 170 0
157 178 0
154 173 0
148 166 0
152 170 0
157 179 0
154 172 0
152 171 0
154 173 0
161 181 0
156 176 0
160 178 0
158 178 0
155 175 0
160 181 0
155 174 0
164 183 0
150 169 0
162 182 0
155 174 0
151 170 0
151 170 0
157 176 0
157 176 0
160 178 0
161 181 0
154 172 0
161 180 0
157 175 0
152 171 0
164 182 0
149 167 0
164 182 0
143 160 0
153 171 0
151 169 0
155 174 0
158 175 0
150 168 0
155 174 0
157 176 0
151 169 0
150 168 0
158 175 0
159 177 0
151 170 0
161 179 0
160 178 0
156 174 0
153 171 0
158 175 0
158 175 0
160 177 0
163 179 0
156 173 0
153 171 0
159 178 0
154 171 0
158 175 0
161 179 0
151 170 0
156 173 0
158 172 0
152 169 0
161 179 0
157 174 0
162 180 0
158 172 0
152 170 0
155 173 0
159 177 0
153 169 0
156 173 0
158 174 0
159 177 0
158 174 0
151 168 0
155 172 0
160 174 0
160 176 0
155 170 0
150 167 0
156 172 0
156 169 0
159 176 0
159 175 0
158 174 0
163 179 0
154 170 0
158 173 0
172 189 0
150 163 0
151 163 0
151 163 0
154 169 0
157 173 0
159 175 0
156 171 0
154 167 0
161 176 0
160 173 0
154 168 0
158 173 0
152 167 0
158 172 0
157 170 0
154 168 0
158 170 0
164 180 0
155 168 0
152 165 0
154 168 0
158 172 0
161 174 0
155 169 0
160 172 0
164 180 0
163 178 0
154 166 0
160 173 0
152 168 0
159 173 0
158 171 0
162 176 0
152 164 0
156 170 0
160 173 0
160 174 0
158 170 0
155 167 0
159 171 0
157 170 0
162 176 0
160 171 0
154 163 0
155 168 0
159 171 0
154 164 0
159 170 0
156 167 0
164 175 0
164 177 0
160 171 0
161 172 0
158 167 0
162 173 0
158 169 0
158 169 0
157 168 0
157 169 0
160 171 0
153 162 0
165 177 0
161 174 0
159 171 0
160 172 0
164 173 0
167 178 0
154 165 0
162 174 0
157 168 0
160 170 0
165 175 0
164 177 0
158 170 0
163 174 0
174 196 0
174 195 0
177 199 0
174 195 0
179 200 0
171 193 0
177 197 0
178 199 0
179 200 0
176 196 0
177 198 0
177 198 0
172 193 0
177 198 0
177 198 0
171 193 0
174 195 0
171 192 0
173 194 0
175 197 0
176 197 0
177 199 0
174 195 0
177 198 0
173 195 0
168 190 0
175 197 0
178 199 0
174 195 0
175 196 0
177 198 0
175 196 0
168 189 0
170 191 0
176 196 0
175 197 0
173 194 0
171 192 0
177 198 0
170 191 0
169 191 0
168 189 0
172 193 0
175 195 0
167 189 0
169 190 0
169 190 0
167 188 0
171 192 0
171 191 0
171 192 0
173 194 0
167 189 0
170 192 0
174 195 0
165 186 0
170 192 0
171 192 0
170 191 0
171 193 0
167 189 0
169 190 0
174 196 0
173 194 0
174 196 0
172 193 0
172 194 0
173 194 0
176 197 0
169 190 0
170 191 0
169 191 0
169 191 0
173 195 0
167 190 0
168 190 0
158 179 0
174 196 0
169 191 0
166 188 0
166 187 0
174 195 0
163 186 0
169 190 0
169 190 0
161 182 0
168 190 0
169 190 0
168 190 0
162 183 0
173 195 0
168 190 0
167 189 0
167 189 0
166 188 0
168 189 0
162 185 0
173 195 0
172 193 0
163 185 0
161 183 0
166 187 0
169 191 0
164 186 0
163 184 0
166 187 0
170 191 0
169 190 0
167 189 0
164 185 0
164 186 0
162 184 0
171 193 0
159 181 0
163 184 0
166 187 0
162 183 0
164 185 0
162 184 0
165 187 0
169 191 0
166 187 0
164 186 0
158 180 0
168 188 0
158 179 0
165 186 0
165 188 0
157 179 0
162 184 0
167 187 0
164 185 0
159 180 0
160 181 0
162 183 0
161 182 0
162 183 0
158 179 0
156 178 0
157 178 0
165 185 0
157 179 0
167 188 0
165 186 0
161 183 0
160 180 0
160 182 0
163 184 0
159 181 0
159 180 0
160 181 0
161 182 0
164 185 0
161 182 0
162 183 0
164 186 0
162 184 0
161 183 0
159 180 0
159 179 0
158 180 0
167 189 0
155 175 0
167 187 0
162 182 0
156 177 0
160 181 0
160 181 0
158 180 0
161 182 0
162 183 0
157 178 0
161 181 0
162 183 0
159 181 0
158 180 0
147 167 0
158 179 0
151 172 0
152 174 0
157 178 0
156 178 0
157 178 0
163 184 0
153 175 0
158 179 0
156 176 0
158 178 0
152 173 0
160 181 0
152 171 0
155 175 0
152 173 0
153 174 0
158 179 0
160 181 0
163 183 0
149 169 0
158 178 0
156 177 0
149 171 0
164 186 0
156 178 0
163 183 0
156 177 0
156 176 0
163 183 0
150 171 0
149 169 0
160 181 0
158 178 0
154 175 0
154 173 0
156 177 0
159 180 0
158 177 0
149 169 0
163 182 0
160 181 0
152 172 0
162 181 0
154 174 0
154 174 0
151 171 0
155 176 0
159 178 0
159 178 0
161 181 0
158 177 0
158 178 0
160 179 0
152 171 0
149 168 0
156 176 0
157 177 0
157 176 0
151 171 0
150 170 0
158 178 0
159 178 0
160 179 0
156 176 0
154 175 0
158 177 0
161 180 0
159 177 0
154 174 0
151 169 0
154 173 0
160 180 0
159 179 0
152 173 0
159 177 0
154 173 0
163 183 0
156 174 0
161 180 0
152 171 0
156 174 0
156 175 0
161 181 0
158 176 0
161 181 0
155 173 0
161 180 0
158 176 0
157 175 0
154 174 0
159 179 0
156 174 0
164 182 0
162 179 0
159 179 0
161 180 0
155 172 0
157 174 0
164 179 0
152 170 0
156 173 0
159 177 0
158 174 0
153 171 0
157 174 0
151 169 0
149 167 0
153 169 0
156 174 0
152 169 0
157 175 0
162 179 0
158 176 0
152 170 0
149 166 0
155 172 0
162 180 0
160 178 0
154 172 0
153 170 0
156 174 0
156 173 0
159 178 0
151 166 0
161 178 0
160 180 0
158 175 0
158 176 0
157 175 0
158 176 0
155 172 0
157 173 0
153 169 0
161 179 0
157 172 0
158 174 0
159 176 0
156 171 0
156 172 0
157 174 0
150 163 0
157 172 0
157 172 0
155 170 0
157 171 0
158 172 0
154 169 0
161 177 0
157 174 0
154 168 0
155 171 0
161 177 0
155 169 0
159 174 0
158 172 0
155 169 0
155 170 0
158 172 0
148 162 0
158 170 0
155 169 0
157 172 0
160 175 0
161 177 0
157 171 0
159 174 0
156 170 0
159 173 0
154 167 0
166 180 0
150 164 0
157 171 0
158 170 0
154 168 0
162 177 0
161 175 0
153 165 0
150 160 0
165 180 0
163 176 0
155 168 0
155 168 0
156 167 0
159 172 0
152 163 0
160 171 0
155 163 0
161 174 0
159 172 0
163 176 0
161 172 0
163 175 0
153 164 0
162 175 0
154 164 0
156 168 0
153 162 0
162 174 0
152 159 0
160 172 0
161 171 0
163 176 0
166 181 0
158 172 0
157 167 0
162 172 0
161 172 0
160 174 0
159 170 0
160 171 0
164 177 0
158 168 0
163 173 0
167 181 0
160 172 0
162 172 0
164 177 0
161 172 0
164 177 0
155 164 0
162 171 0
160 169 0
174 195 0
177 198 0
173 193 0
177 198 0
173 194 0
173 194 0
171 193 0
176 198 0
179 200 0
174 195 0
174 196 0
175 196 0
178 199 0
176 198 0
174 195 0
178 200 0
174 195 0
175 196 0
175 196 0
175 196 0
175 197 0
174 196 0
174 195 0
175 195 0
172 193 0
173 195 0
179 199 0
176 198 0
177 199 0
171 192 0
171 192 0
174 196 0
172 193 0
174 195 0
169 190 0
176 198 0
176 197 0
173 194 0
170 192 0
173 194 0
172 194 0
175 196 0
172 194 0
171 192 0
172 193 0
169 190 0
169 191 0
172 193 0
171 193 0
170 192 0
171 193 0
171 193 0
168 189 0
166 187 0
168 190 0
177 198 0
168 189 0
169 191 0
172 194 0
170 191 0
171 193 0
175 196 0
170 192 0
166 188 0
175 196 0
167 188 0
172 194 0
171 193 0
168 189 0
168 190 0
169 191 0
166 187 0
171 193 0
169 190 0
168 189 0
170 191 0
169 190 0
173 195 0
169 191 0
164 186 0
169 191 0
167 188 0
165 186 0
166 188 0
170 192 0
170 192 0
163 184 0
167 189 0
166 187 0
169 191 0
170 190 0
171 193 0
167 188 0
170 192 0
165 187 0
170 192 0
172 194 0
163 185 0
168 191 0
163 184 0
167 189 0
172 193 0
166 187 0
167 188 0
164 186 0
165 187 0
167 188 0
160 181 0
169 190 0
162 183 0
169 191 0
168 189 0
165 186 0
167 190 0
160 182 0
163 185 0
164 186 0
170 191 0
161 182 0
167 188 0
165 187 0
163 183 0
159 181 0
160 181 0
157 178 0
160 182 0
159 180 0
160 181 0
163 184 0
162 183 0
161 183 0
163 184 0
161 181 0
163 182 0
167 188 0
161 182 0
162 183 0
160 181 0
163 185 0
160 181 0
161 182 0
160 182 0
160 182 0
160 181 0
164 185 0
161 182 0
162 182 0
164 185 0
164 186 0
163 183 0
164 184 0
159 180 0
160 182 0
166 188 0
166 187 0
163 184 0
158 180 0
162 183 0
165 186 0
161 183 0
164 184 0
151 173 0
158 180 0
162 182 0
154 175 0
153 173 0
154 175 0
160 181 0
162 183 0
160 180 0
160 182 0
160 181 0
156 177 0
158 178 0
156 176 0
161 183 0
156 177 0
168 189 0
153 173 0
160 180 0
159 179 0
158 178 0
158 179 0
159 179 0
155 176 0
160 180 0
156 176 0
156 176 0
168 188 0
158 178 0
162 182 0
164 184 0
162 183 0
156 178 0
150 171 0
153 174 0
161 181 0
155 176 0
159 180 0
163 184 0
158 176 0
155 174 0
151 172 0
152 174 0
155 175 0
162 183 0
155 176 0
156 176 0
151 171 0
153 173 0
157 177 0
152 172 0
156 176 0
153 174 0
151 170 0
155 175 0
157 178 0
157 177 0
153 172 0
150 170 0
161 182 0
158 179 0
155 174 0
158 178 0
149 168 0
153 172 0
157 176 0
154 175 0
150 169 0
153 172 0
148 169 0
154 174 0
152 171 0
148 167 0
157 177 0
162 181 0
165 185 0
155 176 0
156 176 0
161 181 0
154 174 0
151 170 0
151 169 0
158 175 0
158 175 0
153 174 0
159 179 0
155 175 0
160 180 0
152 171 0
155 175 0
155 173 0
152 171 0
158 178 0
151 169 0
157 177 0
146 165 0
158 177 0
156 175 0
162 180 0
151 171 0
155 172 0
155 173 0
153 173 0
161 183 0
159 177 0
153 173 0
155 174 0
158 176 0
153 172 0
150 169 0
158 175 0
158 176 0
159 176 0
160 180 0
161 180 0
150 167 0
157 175 0
160 179 0
155 172 0
161 182 0
151 168 0
156 175 0
161 180 0
161 178 0
157 174 0
154 171 0
154 171 0
150 167 0
155 173 0
148 165 0
156 174 0
160 178 0
158 176 0
155 172 0
157 174 0
161 179 0
157 173 0
158 175 0
153 168 0
158 175 0
162 180 0
160 175 0
155 170 0
159 176 0
157 174 0
158 175 0
160 175 0
156 174 0
151 166 0
168 187 0
156 174 0
161 177 0
161 177 0
163 179 0
150 164 0
157 175 0
154 169 0
162 179 0
152 168 0
160 177 0
151 165 0
157 175 0
161 176 0
156 171 0
165 180 0
160 176 0
152 167 0
164 181 0
159 174 0
155 170 0
159 174 0
165 181 0
162 175 0
163 178 0
161 177 0
162 176 0
158 173 0
160 175 0
156 169 0
159 174 0
157 171 0
157 168 0
164 177 0
158 173 0
162 179 0
160 174 0
150 163 0
159 173 0
155 169 0
152 165 0
155 166 0
153 166 0
161 175 0
160 175 0
155 168 0
162 175 0
153 165 0
155 168 0
153 166 0
163 178 0
161 172 0
157 169 0
164 178 0
159 172 0
158 170 0
162 175 0
153 165 0
159 170 0
155 167 0
163 176 0
155 167 0
155 166 0
158 170 0
159 171 0
163 174 0
157 166 0
162 174 0
164 176 0
167 180 0
162 172 0
152 162 0
156 168 0
153 164 0
165 175 0
158 166 0
156 166 0
156 169 0
158 173 0
151 162 0
162 172 0
161 172 0
162 173 0
160 171 0
157 168 0
163 174 0
160 172 0
164 175 0
164 176 0
158 170 0
178 199 0
177 198 0
178 199 0
175 196 0
175 197 0
177 198 0
176 197 0
173 193 0
172 193 0
171 192 0
175 196 0
172 194 0
177 198 0
176 197 0
176 197 0
174 195 0
176 197 0
171 192 0
178 199 0
176 197 0
177 197 0
173 195 0
176 197 0
169 190 0
173 194 0
172 193 0
172 194 0
172 194 0
172 193 0
176 198 0
173 194 0
173 194 0
174 195 0
174 195 0
176 196 0
176 197 0
173 195 0
165 187 0
174 196 0
173 195 0
172 194 0
170 191 0
172 193 0
171 192 0
165 187 0
169 190 0
175 197 0
168 189 0
175 196 0
170 192 0
174 195 0
167 189 0
168 189 0
167 189 0
170 191 0
171 192 0
171 193 0
169 192 0
173 195 0
172 193 0
167 188 0
166 188 0
171 192 0
171 193 0
170 192 0
174 195 0
176 198 0
173 194 0
170 191 0
166 188 0
174 195 0
171 192 0
172 193 0
172 194 0
172 193 0
164 186 0
175 196 0
170 192 0
170 191 0
169 190 0
167 189 0
166 187 0
166 188 0
163 184 0
174 195 0
169 191 0
165 187 0
168 191 0
169 191 0
170 191 0
161 183 0
174 196 0
167 188 0
168 190 0
168 189 0
166 189 0
164 185 0
167 189 0
163 184 0
167 188 0
168 191 0
169 190 0
169 190 0
167 190 0
166 188 0
165 187 0
173 194 0
164 186 0
165 186 0
168 190 0
170 191 0
167 189 0
167 188 0
165 187 0
163 185 0
166 188 0
167 188 0
166 188 0
168 189 0
163 183 0
168 190 0
168 190 0
163 184 0
159 180 0
164 185 0
163 184 0
166 187 0
162 183 0
166 188 0
166 188 0
163 185 0
161 182 0
163 185 0
165 186 0
165 186 0
166 188 0
166 188 0
165 186 0
165 186 0
166 187 0
158 179 0
159 180 0
166 188 0
159 181 0
159 180 0
159 180 0
160 181 0
168 189 0
158 179 0
153 174 0
159 179 0
157 178 0
162 184 0
157 178 0
160 182 0
162 184 0
150 172 0
157 177 0
163 185 0
157 178 0
165 187 0
152 172 0
156 178 0
159 180 0
158 179 0
159 180 0
166 187 0
166 187 0
161 182 0
160 180 0
148 170 0
160 182 0
152 174 0
156 177 0
161 182 0
156 178 0
157 178 0
155 177 0
160 181 0
158 179 0
162 182 0
163 184 0
165 186 0
165 187 0
163 183 0
163 185 0
155 176 0
155 176 0
159 178 0
151 171 0
158 179 0
150 170 0
161 180 0
158 179 0
153 173 0
162 182 0
159 179 0
156 176 0
162 183 0
160 180 0
154 175 0
156 177 0
158 177 0
148 169 0
151 169 0
159 180 0
164 185 0
159 180 0
156 175 0
158 179 0
155 176 0
147 169 0
156 177 0
156 176 0
154 174 0
153 172 0
152 171 0
155 176 0
160 182 0
156 177 0
156 177 0
157 177 0
154 174 0
156 176 0
150 171 0
152 172 0
162 182 0
162 183 0
152 172 0
151 171 0
157 176 0
160 180 0
156 176 0
155 174 0
153 174 0
151 171 0
160 180 0
158 178 0
159 179 0
158 177 0
164 184 0
146 167 0
149 168 0
157 178 0
156 175 0
161 180 0
151 168 0
156 174 0
150 168 0
148 168 0
157 177 0
159 179 0
165 184 0
155 174 0
154 173 0
154 173 0
155 174 0
158 175 0
165 184 0
162 183 0
159 179 0
160 179 0
152 170 0
160 178 0
152 172 0
158 178 0
160 180 0
152 171 0
159 178 0
155 174 0
156 175 0
156 174 0
156 174 0
157 176 0
153 171 0
141 158 0
161 181 0
163 180 0
159 178 0
150 169 0
164 183 0
156 175 0
156 174 0
156 175 0
156 174 0
157 175 0
161 178 0
163 182 0
151 167 0
151 168 0
163 184 0
159 176 0
151 170 0
163 181 0
163 178 0
154 172 0
163 180 0
160 178 0
152 167 0
158 178 0
157 177 0
157 173 0
159 177 0
158 174 0
161 178 0
165 183 0
159 177 0
150 168 0
154 172 0
157 173 0
160 177 0
159 177 0
158 174 0
163 182 0
158 173 0
156 172 0
168 186 0
156 171 0
159 175 0
161 178 0
162 178 0
157 173 0
159 174 0
161 177 0
151 166 0
160 176 0
158 173 0
160 176 0
164 180 0
158 174 0
161 176 0
160 172 0
154 172 0
153 169 0
161 178 0
157 171 0
159 174 0
153 169 0
161 176 0
160 176 0
162 177 0
154 168 0
155 170 0
159 173 0
150 161 0
156 171 0
158 172 0
159 172 0
159 172 0
155 168 0
151 166 0
156 169 0
158 172 0
160 172 0
163 178 0
153 167 0
165 179 0
158 173 0
166 181 0
155 165 0
150 163 0
168 179 0
155 169 0
160 171 0
157 168 0
160 175 0
163 177 0
161 176 0
158 171 0
160 171 0
157 170 0
156 170 0
155 165 0
163 178 0
150 164 0
162 175 0
156 168 0
160 172 0
163 175 0
160 172 0
164 177 0
165 176 0
157 166 0
164 177 0
158 170 0
160 171 0
163 175 0
161 172 0
163 174 0
158 169 0
158 168 0
164 175 0
167 181 0
166 177 0
158 169 0
164 176 0
166 177 0
160 169 0
164 178 0
158 171 0
174 195 0
178 199 0
173 195 0
177 198 0
172 193 0
178 199 0
176 197 0
174 195 0
180 201 0
175 197 0
174 196 0
175 196 0
175 196 0
176 197 0
174 195 0
175 196 0
173 195 0
173 194 0
173 195 0
170 191 0
170 191 0
175 196 0
172 193 0
172 192 0
174 196 0
176 197 0
174 196 0
172 193 0
173 194 0
170 191 0
173 194 0
175 195 0
174 195 0
172 194 0
173 195 0
175 196 0
176 197 0
176 198 0
175 197 0
175 195 0
166 188 0
172 194 0
171 192 0
175 196 0
177 199 0
172 195 0
175 196 0
173 194 0
175 197 0
172 194 0
175 196 0
167 189 0
168 189 0
172 193 0
169 190 0
174 196 0
172 193 0
175 197 0
169 191 0
173 195 0
170 191 0
166 188 0
173 194 0
171 193 0
171 192 0
169 190 0
160 180 0
167 188 0
169 190 0
168 190 0
172 193 0
169 191 0
170 190 0
167 189 0
168 190 0
167 189 0
167 189 0
168 190 0
166 188 0
171 193 0
171 192 0
166 188 0
169 190 0
165 187 0
169 192 0
170 191 0
162 183 0
167 189 0
171 192 0
164 185 0
165 186 0
169 190 0
167 188 0
163 184 0
170 191 0
167 188 0
164 186 0
172 194 0
167 188 0
164 185 0
170 191 0
166 188 0
169 191 0
168 190 0
166 189 0
162 182 0
166 188 0
172 193 0
174 195 0
159 181 0
164 186 0
161 183 0
161 181 0
172 193 0
161 181 0
164 185 0
170 191 0
173 194 0
160 181 0
164 186 0
162 183 0
162 184 0
169 189 0
166 187 0
171 193 0
160 182 0
157 177 0
161 182 0
163 184 0
163 184 0
164 184 0
166 187 0
170 193 0
162 184 0
157 177 0
162 184 0
163 184 0
164 184 0
160 181 0
162 182 0
161 182 0
161 183 0
160 181 0
165 185 0
163 184 0
169 191 0
166 188 0
158 179 0
164 186 0
168 189 0
161 182 0
158 180 0
162 184 0
159 181 0
162 183 0
168 189 0
164 185 0
163 184 0
160 183 0
155 175 0
160 181 0
160 181 0
161 182 0
167 188 0
155 176 0
160 181 0
159 179 0
159 181 0
157 177 0
156 176 0
159 180 0
159 178 0
161 181 0
167 188 0
160 180 0
152 173 0
162 182 0
156 178 0
162 184 0
167 188 0
159 179 0
161 182 0
155 176 0
160 181 0
158 179 0
164 184 0
155 176 0
158 178 0
158 178 0
163 185 0
156 178 0
156 177 0
148 170 0
151 172 0
161 181 0
156 176 0
156 177 0
158 179 0
158 177 0
155 176 0
158 178 0
156 176 0
153 174 0
159 179 0
150 170 0
150 171 0
159 179 0
156 178 0
156 177 0
155 175 0
155 177 0
158 179 0
159 180 0
154 173 0
161 182 0
161 181 0
154 173 0
152 171 0
163 183 0
166 186 0
159 179 0
157 176 0
156 176 0
147 168 0
154 173 0
163 184 0
154 175 0
159 179 0
156 176 0
153 172 0
156 177 0
150 170 0
161 182 0
158 179 0
157 177 0
154 174 0
153 172 0
151 171 0
160 179 0
160 181 0
160 180 0
155 175 0
158 178 0
159 179 0
151 170 0
156 177 0
157 177 0
157 177 0
159 178 0
161 179 0
151 171 0
156 175 0
158 179 0
158 178 0
151 172 0
156 176 0
154 174 0
161 179 0
158 177 0
161 180 0
158 177 0
157 174 0
164 185 0
151 170 0
156 174 0
156 175 0
154 171 0
160 179 0
160 179 0
155 174 0
157 175 0
156 174 0
154 173 0
155 174 0
155 174 0
161 179 0
151 170 0
158 177 0
158 178 0
160 179 0
154 171 0
151 170 0
161 179 0
159 178 0
160 177 0
162 181 0
161 178 0
163 182 0
157 173 0
153 170 0
151 168 0
154 172 0
155 172 0
158 176 0
158 175 0
159 177 0
158 176 0
156 176 0
158 175 0
153 171 0
161 179 0
160 177 0
154 172 0
157 173 0
159 175 0
161 178 0
165 183 0
162 180 0
160 176 0
161 178 0
154 169 0
164 182 0
159 176 0
159 177 0
160 178 0
154 170 0
153 168 0
153 170 0
160 175 0
159 174 0
158 176 0
161 177 0
158 174 0
162 177 0
161 178 0
149 164 0
159 175 0
156 170 0
163 178 0
154 168 0
158 173 0
164 180 0
156 170 0
157 173 0
155 169 0
160 175 0
158 171 0
163 180 0
158 173 0
151 164 0
157 171 0
160 174 0
160 175 0
160 172 0
158 172 0
160 174 0
160 174 0
155 169 0
165 180 0
162 178 0
159 173 0
155 168 0
168 182 0
160 174 0
163 177 0
160 174 0
160 172 0
157 171 0
156 170 0
156 169 0
156 171 0
159 172 0
153 167 0
161 173 0
154 165 0
161 175 0
164 177 0
163 176 0
157 169 0
160 171 0
161 173 0
162 175 0
157 172 0
161 175 0
155 165 0
160 170 0
167 179 0
165 176 0
153 164 0
157 168 0
158 173 0
167 181 0
161 172 0
161 175 0
163 176 0
159 173 0
154 165 0
169 182 0
156 169 0
163 177 0
159 169 0
158 169 0
162 174 0
162 174 0
158 169 0
159 171 0
165 176 0
161 173 0
159 172 0
159 171 0
180 201 0
178 198 0
173 195 0
175 197 0
178 199 0
172 193 0
173 194 0
179 199 0
174 195 0
175 196 0
174 196 0
176 197 0
175 196 0
174 195 0
175 197 0
177 198 0
173 193 0
178 198 0
176 197 0
174 195 0
177 198 0
175 196 0
174 195 0
174 195 0
176 199 0
172 194 0
177 197 0
172 194 0
172 194 0
179 200 0
170 191 0
175 197 0
172 194 0
172 194 0
173 195 0
172 193 0
171 192 0
173 194 0
178 199 0
165 186 0
172 195 0
167 189 0
173 195 0
170 191 0
173 195 0
172 194 0
174 195 0
170 191 0
167 189 0
169 192 0
173 195 0
174 196 0
165 187 0
172 194 0
174 196 0
167 188 0
169 190 0
169 191 0
175 195 0
170 192 0
164 185 0
166 187 0
169 191 0
171 193 0
173 194 0
169 191 0
173 194 0
172 194 0
173 194 0
164 185 0
174 196 0
170 191 0
171 192 0
168 190 0
172 193 0
171 192 0
171 193 0
165 186 0
172 193 0
174 196 0
164 185 0
164 186 0
166 188 0
163 185 0
165 186 0
165 186 0
171 192 0
166 187 0
166 187 0
164 186 0
162 183 0
169 189 0
165 187 0
168 190 0
167 190 0
167 188 0
171 193 0
169 189 0
168 189 0
166 187 0
166 188 0
168 190 0
164 185 0
169 191 0
167 188 0
169 191 0
164 186 0
170 192 0
155 176 0
169 190 0
165 187 0
171 193 0
162 183 0
168 189 0
168 189 0
167 188 0
165 187 0
163 185 0
158 179 0
168 190 0
168 189 0
164 185 0
159 181 0
170 191 0
165 186 0
163 184 0
161 184 0
161 182 0
166 188 0
162 182 0
163 185 0
161 182 0
162 183 0
157 178 0
162 183 0
166 188 0
164 185 0
163 185 0
160 181 0
165 186 0
168 189 0
161 183 0
164 185 0
167 189 0
165 185 0
160 183 0
165 186 0
166 188 0
169 190 0
159 181 0
158 179 0
163 184 0
162 183 0
158 179 0
164 186 0
167 188 0
156 176 0
161 181 0
159 180 0
164 186 0
159 180 0
158 178 0
160 180 0
161 182 0
152 172 0
159 180 0
161 183 0
158 179 0
155 176 0
162 182 0
164 185 0
162 183 0
164 185 0
158 179 0
164 186 0
157 178 0
152 173 0
154 175 0
162 182 0
161 181 0
159 180 0
158 179 0
157 177 0
165 186 0
164 184 0
159 179 0
157 178 0
157 179 0
154 174 0
162 182 0
163 184 0
152 173 0
164 185 0
155 175 0
155 175 0
165 186 0
164 185 0
151 170 0
161 182 0
163 183 0
163 183 0
158 179 0
160 181 0
158 179 0
155 175 0
151 173 0
157 178 0
157 176 0
159 179 0
154 175 0
161 181 0
159 179 0
160 178 0
162 181 0
165 186 0
153 172 0
155 176 0
157 179 0
147 167 0
161 180 0
151 172 0
159 179 0
153 173 0
164 184 0
155 176 0
150 169 0
161 181 0
156 176 0
162 180 0
154 174 0
156 176 0
155 175 0
155 175 0
152 172 0
147 165 0
157 176 0
154 174 0
157 179 0
167 187 0
159 179 0
153 172 0
151 169 0
164 183 0
158 178 0
160 180 0
160 180 0
157 176 0
156 176 0
158 178 0
158 178 0
162 183 0
160 178 0
155 176 0
153 171 0
156 176 0
153 174 0
153 174 0
158 178 0
162 182 0
155 173 0
156 176 0
157 176 0
159 179 0
150 169 0
159 178 0
160 180 0
153 173 0
160 179 0
150 167 0
162 180 0
158 179 0
160 177 0
164 182 0
156 175 0
153 172 0
153 171 0
157 175 0
156 173 0
164 182 0
161 179 0
162 180 0
162 179 0
164 183 0
158 177 0
158 176 0
155 174 0
155 172 0
159 176 0
163 182 0
163 182 0
155 173 0
157 174 0
160 178 0
157 173 0
161 178 0
159 177 0
166 184 0
166 185 0
155 174 0
158 176 0
152 170 0
161 177 0
162 179 0
151 170 0
152 169 0
167 184 0
157 173 0
153 170 0
153 170 0
160 178 0
149 167 0
157 174 0
161 178 0
152 168 0
156 174 0
154 169 0
158 175 0
151 166 0
161 177 0
164 182 0
162 177 0
163 181 0
156 171 0
163 179 0
162 178 0
164 181 0
153 169 0
159 174 0
160 177 0
159 174 0
164 181 0
159 176 0
155 169 0
163 179 0
159 172 0
150 164 0
158 172 0
162 177 0
156 172 0
160 175 0
153 169 0
160 174 0
163 177 0
153 167 0
156 171 0
156 170 0
157 172 0
157 172 0
153 171 0
160 175 0
159 175 0
157 172 0
162 176 0
157 172 0
156 170 0
157 172 0
158 174 0
162 175 0
156 168 0
161 175 0
167 183 0
160 175 0
161 174 0
160 174 0
161 174 0
159 171 0
162 176 0
162 175 0
157 168 0
155 167 0
156 168 0
167 182 0
157 168 0
167 182 0
153 165 0
159 171 0
163 176 0
163 176 0
158 168 0
162 176 0
155 169 0
158 169 0
162 173 0
159 172 0
161 174 0
157 169 0
157 167 0
158 171 0
159 173 0
157 169 0
158 171 0
149 160 0
164 175 0
165 179 0
164 176 0
167 180 0
163 177 0
153 164 0
163 177 0
160 173 0
172 193 0
177 199 0
176 197 0
175 197 0
176 196 0
171 192 0
174 195 0
176 198 0
177 199 0
176 197 0
175 197 0
174 195 0
176 197 0
175 196 0
174 196 0
175 195 0
175 197 0
174 196 0
172 193 0
176 198 0
175 197 0
173 194 0
171 193 0
173 194 0
169 191 0
169 191 0
164 185 0
176 198 0
173 195 0
171 191 0
176 197 0
171 193 0
172 193 0
171 192 0
174 195 0
173 194 0
173 194 0
172 194 0
174 196 0
169 190 0
171 192 0
169 191 0
174 196 0
172 193 0
169 190 0
175 196 0
172 194 0
166 188 0
170 191 0
174 195 0
174 196 0
174 194 0
167 189 0
173 194 0
164 186 0
169 190 0
172 193 0
166 187 0
173 194 0
168 190 0
169 191 0
169 191 0
170 192 0
163 184 0
169 192 0
167 188 0
168 190 0
167 189 0
167 190 0
171 193 0
168 189 0
170 192 0
169 190 0
171 192 0
167 190 0
173 194 0
173 194 0
169 191 0
168 189 0
166 188 0
172 192 0
168 189 0
170 191 0
172 193 0
173 195 0
172 193 0
164 185 0
173 194 0
168 190 0
171 193 0
165 187 0
166 188 0
166 188 0
170 191 0
162 183 0
162 184 0
165 186 0
171 193 0
168 190 0
165 186 0
164 186 0
166 187 0
171 192 0
162 183 0
168 190 0
169 190 0
167 188 0
164 185 0
169 190 0
165 187 0
165 186 0
169 191 0
162 183 0
164 186 0
158 180 0
172 194 0
170 192 0
165 185 0
162 183 0
159 181 0
164 186 0
164 186 0
166 188 0
168 189 0
162 184 0
156 177 0
167 189 0
167 189 0
159 180 0
165 186 0
166 188 0
161 182 0
164 185 0
160 182 0
159 180 0
156 178 0
165 187 0
162 185 0
156 178 0
165 187 0
164 187 0
162 183 0
162 184 0
160 180 0
166 188 0
162 182 0
159 180 0
163 184 0
165 186 0
157 178 0
163 184 0
155 176 0
165 186 0
167 188 0
157 177 0
163 184 0
157 178 0
160 181 0
160 181 0
155 176 0
159 179 0
161 182 0
163 185 0
159 180 0
156 178 0
169 191 0
164 186 0
161 182 0
159 180 0
155 175 0
158 179 0
162 184 0
157 177 0
164 185 0
162 184 0
154 175 0
158 179 0
162 182 0
163 183 0
162 183 0
154 174 0
152 173 0
160 181 0
148 169 0
158 180 0
162 183 0
159 180 0
156 176 0
161 182 0
156 177 0
162 183 0
161 183 0
161 182 0
154 176 0
164 185 0
152 173 0
161 182 0
155 176 0
152 173 0
160 179 0
157 178 0
160 181 0
153 173 0
163 183 0
157 178 0
157 177 0
152 172 0
155 176 0
160 180 0
155 176 0
152 173 0
156 176 0
160 181 0
160 181 0
158 177 0
157 178 0
155 176 0
161 182 0
161 180 0
158 178 0
162 183 0
157 178 0
158 178 0
161 180 0
152 173 0
162 182 0
158 178 0
148 168 0
150 171 0
149 168 0
156 176 0
161 181 0
155 175 0
155 176 0
160 180 0
154 174 0
164 185 0
161 181 0
165 186 0
161 180 0
159 179 0
154 174 0
163 183 0
158 177 0
160 181 0
158 179 0
155 173 0
162 182 0
155 175 0
158 177 0
158 179 0
155 175 0
165 183 0
158 176 0
158 178 0
157 176 0
155 175 0
154 173 0
153 172 0
162 181 0
158 177 0
153 173 0
160 180 0
159 178 0
158 175 0
159 178 0
156 176 0
161 180 0
156 175 0
160 180 0
157 177 0
155 175 0
158 177 0
154 173 0
156 174 0
150 169 0
151 170 0
156 174 0
157 174 0
163 182 0
162 181 0
163 182 0
156 172 0
157 176 0
152 170 0
153 170 0
157 176 0
157 174 0
160 179 0
158 177 0
156 175 0
160 178 0
162 180 0
156 173 0
156 174 0
159 177 0
161 177 0
161 178 0
154 173 0
166 184 0
161 178 0
165 184 0
151 168 0
161 179 0
158 175 0
164 180 0
164 183 0
154 171 0
163 181 0
157 174 0
157 173 0
153 168 0
161 176 0
159 176 0
157 175 0
156 170 0
154 168 0
156 173 0
155 171 0
157 174 0
160 177 0
150 166 0
156 171 0
155 170 0
154 170 0
156 173 0
156 172 0
157 172 0
160 175 0
157 172 0
160 179 0
166 181 0
162 177 0
158 172 0
165 179 0
156 170 0
155 171 0
160 177 0
155 171 0
159 171 0
155 170 0
155 169 0
159 175 0
158 173 0
153 168 0
161 176 0
158 171 0
159 173 0
157 173 0
166 183 0
152 167 0
160 170 0
156 171 0
163 177 0
154 169 0
160 176 0
160 175 0
164 181 0
157 170 0
160 177 0
157 172 0
159 174 0
158 171 0
165 179 0
161 175 0
159 174 0
162 177 0
163 175 0
162 175 0
159 173 0
156 171 0
154 168 0
164 180 0
153 166 0
167 181 0
156 168 0
163 176 0
161 176 0
158 172 0
158 171 0
165 177 0
163 175 0
163 175 0
157 169 0
158 169 0
158 172 0
163 176 0
162 174 0
160 170 0
165 178 0
168 178 0
162 175 0
157 168 0
156 168 0
162 177 0
157 171 0
161 171 0
159 170 0
162 175 0
160 171 0
176 198 0
175 196 0
174 195 0
172 194 0
172 193 0
178 199 0
179 200 0
179 200 0
171 193 0
175 196 0
175 196 0
175 196 0
180 201 0
174 195 0
170 192 0
176 197 0
174 196 0
173 194 0
172 193 0
172 194 0
175 197 0
171 192 0
174 196 0
175 196 0
173 195 0
171 193 0
173 194 0
175 196 0
174 195 0
172 193 0
172 193 0
173 195 0
173 194 0
168 190 0
170 191 0
177 198 0
176 197 0
169 191 0
171 193 0
169 190 0
174 196 0
169 190 0
173 194 0
171 193 0
170 192 0
167 189 0
170 192 0
173 194 0
169 190 0
173 196 0
169 190 0
169 190 0
170 192 0
168 190 0
171 192 0
166 187 0
168 189 0
167 189 0
167 189 0
173 194 0
173 195 0
168 190 0
164 186 0
176 197 0
170 192 0
166 188 0
167 189 0
170 192 0
167 188 0
170 192 0
172 194 0
169 190 0
166 187 0
167 190 0
160 181 0
163 185 0
162 183 0
163 185 0
169 190 0
161 183 0
164 187 0
168 190 0
169 191 0
172 193 0
169 190 0
169 190 0
167 189 0
169 190 0
164 186 0
168 189 0
169 190 0
168 190 0
167 188 0
168 190 0
158 180 0
165 187 0
170 190 0
170 191 0
172 194 0
167 188 0
165 187 0
168 189 0
167 189 0
164 185 0
163 183 0
161 181 0
162 183 0
167 189 0
168 189 0
168 189 0
165 187 0
165 187 0
167 188 0
162 183 0
171 192 0
161 182 0
166 187 0
168 189 0
166 187 0
170 191 0
165 186 0
167 188 0
168 191 0
166 187 0
161 182 0
162 183 0
162 183 0
162 183 0
164 186 0
160 182 0
164 185 0
165 186 0
163 183 0
167 188 0
161 183 0
156 177 0
161 183 0
162 183 0
166 187 0
164 185 0
165 186 0
160 181 0
162 183 0
166 187 0
154 175 0
164 185 0
160 181 0
162 183 0
159 181 0
154 176 0
167 188 0
166 186 0
163 185 0
162 182 0
168 189 0
164 185 0
162 183 0
165 186 0
162 182 0
156 177 0
156 176 0
158 177 0
166 187 0
161 183 0
159 179 0
159 180 0
155 177 0
160 181 0
165 185 0
162 182 0
164 185 0
157 178 0
161 182 0
158 178 0
166 187 0
163 184 0
167 188 0
153 175 0
163 184 0
158 178 0
157 178 0
157 178 0
160 179 0
165 186 0
158 179 0
167 188 0
160 181 0
158 179 0
156 177 0
153 173 0
162 183 0
154 174 0
158 179 0
148 168 0
161 181 0
149 170 0
157 177 0
159 179 0
158 178 0
157 178 0
157 178 0
165 185 0
154 176 0
163 185 0
159 180 0
159 179 0
158 178 0
157 177 0
158 179 0
157 178 0
153 173 0
158 179 0
166 186 0
153 172 0
159 179 0
147 167 0
153 172 0
158 178 0
158 179 0
155 174 0
163 184 0
156 175 0
151 172 0
159 180 0
164 184 0
162 182 0
156 177 0
156 175 0
155 176 0
163 181 0
153 172 0
151 171 0
154 175 0
151 171 0
159 179 0
156 176 0
160 180 0
166 185 0
159 180 0
152 171 0
152 172 0
160 179 0
158 177 0
161 181 0
161 181 0
161 182 0
162 181 0
156 176 0
163 182 0
158 177 0
160 179 0
161 181 0
160 179 0
160 178 0
162 182 0
162 181 0
160 180 0
163 182 0
156 175 0
161 181 0
161 181 0
159 178 0
158 177 0
161 180 0
157 174 0
159 179 0
156 176 0
154 174 0
163 183 0
165 186 0
158 175 0
161 181 0
157 176 0
154 174 0
153 172 0
159 177 0
162 181 0
161 180 0
169 188 0
165 182 0
156 176 0
161 180 0
158 176 0
154 173 0
161 180 0
159 179 0
161 179 0
157 174 0
157 175 0
159 177 0
152 169 0
157 175 0
160 177 0
154 170 0
155 171 0
158 176 0
157 175 0
157 174 0
157 175 0
157 174 0
157 175 0
155 172 0
156 174 0
158 175 0
164 183 0
160 179 0
161 180 0
156 173 0
158 175 0
160 178 0
163 181 0
164 180 0
159 177 0
158 174 0
154 173 0
159 176 0
159 175 0
163 182 0
156 170 0
163 180 0
153 170 0
157 174 0
157 174 0
157 172 0
152 168 0
163 182 0
155 169 0
161 177 0
162 179 0
153 168 0
162 180 0
157 173 0
153 167 0
154 170 0
157 171 0
162 179 0
160 177 0
162 177 0
152 169 0
164 182 0
163 179 0
157 173 0
157 176 0
160 170 0
163 179 0
159 176 0
158 172 0
163 179 0
157 172 0
158 172 0
158 172 0
162 177 0
164 180 0
157 172 0
161 176 0
159 175 0
164 177 0
163 178 0
163 180 0
162 177 0
156 171 0
159 173 0
156 169 0
159 173 0
155 168 0
166 181 0
163 177 0
157 172 0
157 171 0
155 168 0
159 173 0
167 183 0
158 172 0
161 172 0
161 174 0
162 175 0
162 176 0
155 168 0
160 176 0
153 166 0
160 173 0
153 164 0
160 170 0
163 177 0
161 173 0
158 174 0
158 171 0
163 177 0
168 182 0
159 171 0
156 169 0
166 180 0
165 177 0
169 182 0
162 174 0
168 181 0
163 175 0
158 169 0
162 176 0
162 176 0
175 196 0
175 196 0
173 194 0
178 198 0
175 197 0
174 196 0
171 192 0
176 197 0
177 198 0
174 195 0
173 193 0
171 192 0
172 192 0
172 194 0
172 194 0
174 196 0
175 197 0
172 194 0
172 194 0
174 195 0
175 196 0
173 194 0
176 197 0
174 195 0
175 197 0
176 196 0
174 195 0
175 197 0
172 193 0
174 195 0
172 194 0
171 193 0
173 194 0
171 192 0
172 193 0
169 190 0
174 195 0
172 194 0
173 195 0
171 193 0
177 198 0
174 195 0
171 191 0
169 191 0
175 196 0
175 196 0
166 187 0
173 195 0
170 192 0
163 185 0
172 193 0
165 186 0
170 192 0
172 192 0
170 191 0
173 195 0
175 197 0
173 194 0
173 194 0
167 188 0
170 192 0
166 188 0
170 191 0
174 195 0
169 190 0
174 196 0
171 193 0
173 194 0
169 191 0
166 186 0
170 192 0
162 184 0
167 189 0
164 186 0
167 189 0
170 192 0
166 187 0
162 184 0
169 190 0
169 190 0
171 192 0
169 191 0
166 188 0
170 192 0
171 192 0
170 191 0
174 195 0
168 190 0
171 192 0
163 185 0
170 191 0
166 188 0
167 189 0
163 185 0
164 185 0
167 189 0
167 189 0
168 190 0
166 188 0
169 191 0
162 184 0
162 185 0
161 183 0
169 190 0
174 196 0
165 187 0
171 193 0
169 191 0
170 192 0
166 189 0
166 187 0
165 187 0
160 182 0
167 188 0
168 190 0
158 179 0
165 186 0
164 185 0
169 191 0
162 184 0
162 183 0
170 191 0
167 188 0
169 191 0
168 190 0
166 187 0
167 189 0
167 188 0
169 190 0
161 183 0
165 186 0
162 184 0
168 190 0
160 182 0
164 184 0
164 185 0
161 181 0
161 183 0
168 191 0
158 179 0
165 186 0
167 188 0
168 190 0
159 180 0
161 182 0
165 187 0
158 179 0
160 182 0
161 182 0
164 185 0
169 190 0
162 183 0
160 182 0
161 182 0
164 185 0
160 182 0
162 183 0
163 183 0
169 191 0
159 180 0
164 185 0
166 187 0
163 184 0
164 185 0
158 179 0
163 185 0
167 189 0
155 176 0
157 177 0
158 179 0
163 183 0
162 184 0
163 185 0
161 181 0
159 180 0
161 182 0
162 184 0
161 182 0
159 180 0
163 184 0
165 186 0
155 176 0
163 183 0
162 183 0
162 183 0
161 183 0
162 182 0
165 186 0
167 187 0
165 183 0
161 182 0
157 178 0
159 181 0
159 180 0
160 180 0
162 183 0
157 179 0
155 175 0
161 182 0
163 183 0
158 179 0
158 178 0
150 168 0
165 185 0
155 176 0
155 174 0
154 175 0
165 185 0
164 184 0
159 179 0
158 179 0
152 172 0
161 181 0
160 180 0
163 184 0
156 177 0
160 180 0
150 170 0
156 178 0
160 181 0
155 176 0
153 174 0
162 183 0
161 181 0
160 181 0
157 179 0
160 180 0
159 179 0
154 174 0
159 180 0
159 178 0
150 169 0
156 175 0
154 172 0
159 178 0
163 182 0
152 170 0
160 179 0
159 179 0
156 176 0
161 181 0
160 179 0
156 176 0
158 178 0
159 179 0
151 170 0
162 181 0
163 183 0
156 175 0
160 180 0
159 178 0
163 181 0
161 182 0
160 179 0
158 178 0
160 178 0
155 176 0
162 180 0
162 182 0
159 179 0
156 175 0
161 179 0
161 181 0
156 174 0
154 173 0
156 173 0
157 176 0
158 176 0
158 176 0
155 174 0
159 178 0
158 176 0
161 181 0
153 174 0
165 183 0
161 180 0
156 173 0
162 180 0
160 180 0
162 179 0
156 175 0
158 176 0
161 180 0
165 183 0
158 177 0
160 177 0
150 169 0
160 179 0
157 175 0
162 181 0
157 175 0
160 178 0
161 180 0
165 184 0
158 177 0
160 179 0
158 178 0
162 180 0
166 183 0
156 174 0
158 176 0
164 181 0
157 174 0
162 179 0
154 171 0
154 170 0
162 182 0
154 171 0
152 168 0
160 178 0
157 173 0
162 180 0
160 177 0
155 172 0
157 175 0
165 183 0
164 182 0
164 182 0
155 170 0
157 176 0
158 174 0
160 177 0
159 178 0
162 178 0
153 170 0
147 162 0
158 173 0
159 176 0
161 178 0
165 182 0
157 171 0
158 174 0
147 160 0
156 171 0
166 183 0
163 180 0
158 175 0
154 168 0
156 173 0
155 169 0
157 171 0
165 182 0
158 172 0
161 177 0
158 174 0
164 179 0
160 175 0
157 173 0
156 172 0
153 165 0
161 176 0
163 178 0
162 178 0
166 181 0
160 175 0
162 177 0
165 180 0
157 170 0
155 170 0
164 180 0
162 174 0
156 170 0
160 174 0
154 168 0
164 179 0
163 178 0
168 184 0
162 176 0
164 179 0
161 174 0
159 172 0
160 173 0
158 172 0
156 169 0
163 179 0
160 176 0
164 179 0
157 171 0
163 178 0
157 171 0
165 180 0
166 178 0
157 169 0
160 175 0
157 170 0
162 177 0
165 178 0
157 169 0
158 170 0
162 175 0
164 177 0
160 173 0
160 172 0
161 174 0
162 173 0
171 184 0
160 172 0
165 178 0
163 175 0
163 177 0
173 194 0
176 197 0
176 197 0
177 196 0
175 195 0
172 193 0
173 195 0
176 197 0
175 197 0
175 197 0
173 195 0
174 196 0
171 192 0
174 196 0
174 195 0
172 193 0
174 196 0
171 192 0
172 194 0
175 196 0
174 196 0
168 190 0
171 192 0
173 194 0
175 196 0
168 190 0
177 198 0
171 192 0
171 193 0
174 195 0
175 196 0
172 193 0
168 190 0
173 195 0
175 197 0
174 196 0
169 190 0
171 192 0
168 190 0
176 197 0
172 193 0
168 190 0
175 197 0
171 193 0
174 196 0
169 190 0
170 192 0
176 198 0
167 188 0
173 194 0
170 192 0
174 195 0
170 190 0
174 195 0
170 192 0
172 193 0
170 191 0
171 192 0
165 187 0
167 188 0
172 193 0
171 192 0
170 191 0
173 194 0
165 187 0
171 192 0
173 195 0
174 195 0
169 190 0
175 196 0
166 187 0
165 186 0
168 189 0
164 186 0
168 189 0
174 196 0
168 189 0
169 191 0
173 195 0
170 192 0
168 189 0
169 190 0
174 195 0
167 189 0
169 190 0
168 190 0
167 190 0
173 194 0
165 186 0
164 185 0
169 190 0
170 192 0
166 189 0
166 188 0
169 189 0
165 187 0
168 189 0
165 186 0
162 184 0
167 189 0
166 187 0
165 187 0
170 191 0
174 195 0
162 184 0
170 192 0
161 183 0
160 181 0
166 188 0
164 185 0
170 190 0
164 185 0
160 182 0
163 186 0
165 186 0
167 188 0
167 189 0
164 186 0
168 190 0
166 187 0
162 184 0
166 188 0
165 187 0
166 188 0
165 186 0
166 187 0
160 181 0
159 181 0
162 184 0
164 185 0
162 184 0
165 187 0
164 185 0
165 186 0
164 185 0
165 186 0
166 187 0
164 186 0
162 183 0
166 188 0
161 181 0
163 183 0
156 177 0
165 186 0
161 182 0
160 182 0
152 173 0
159 180 0
162 184 0
167 189 0
158 179 0
165 186 0
166 187 0
158 179 0
160 182 0
161 181 0
156 177 0
167 188 0
161 183 0
158 180 0
159 179 0
158 178 0
160 181 0
163 185 0
163 183 0
166 187 0
161 182 0
160 182 0
160 180 0
162 183 0
162 183 0
159 179 0
164 185 0
166 188 0
158 178 0
156 177 0
167 187 0
148 168 0
160 182 0
167 186 0
160 181 0
162 183 0
158 178 0
164 186 0
164 184 0
162 183 0
160 181 0
162 183 0
159 179 0
156 178 0
163 184 0
157 178 0
157 177 0
162 183 0
154 176 0
157 177 0
156 177 0
163 185 0
159 178 0
150 171 0
163 185 0
160 180 0
154 174 0
154 175 0
164 184 0
163 181 0
158 178 0
163 183 0
157 177 0
166 187 0
158 177 0
152 172 0
158 178 0
156 178 0
156 176 0
158 179 0
160 180 0
156 175 0
159 179 0
152 172 0
152 173 0
156 175 0
155 174 0
162 183 0
163 182 0
161 181 0
161 181 0
160 179 0
164 183 0
156 176 0
155 175 0
165 186 0
158 178 0
157 176 0
155 176 0
162 182 0
164 184 0
164 184 0
155 175 0
153 172 0
160 180 0
163 183 0
159 179 0
159 178 0
159 178 0
162 181 0
162 181 0
159 180 0
160 179 0
159 177 0
158 177 0
160 180 0
161 180 0
152 170 0
159 178 0
160 180 0
158 176 0
153 173 0
166 186 0
155 175 0
160 178 0
155 176 0
157 176 0
153 172 0
157 175 0
160 178 0
157 178 0
162 181 0
153 172 0
156 175 0
162 182 0
162 179 0
157 176 0
155 175 0
160 179 0
161 180 0
163 182 0
160 178 0
156 176 0
164 183 0
159 178 0
165 184 0
162 182 0
155 173 0
155 174 0
161 180 0
160 181 0
153 169 0
157 176 0
160 180 0
161 181 0
160 180 0
159 178 0
160 180 0
162 180 0
152 169 0
157 176 0
162 181 0
161 181 0
164 183 0
150 166 0
162 179 0
163 183 0
154 172 0
159 176 0
159 176 0
161 178 0
159 177 0
160 177 0
158 175 0
154 173 0
168 187 0
161 179 0
159 177 0
157 172 0
161 178 0
153 171 0
166 184 0
162 179 0
163 181 0
154 169 0
155 172 0
160 178 0
161 178 0
163 181 0
159 177 0
154 170 0
163 181 0
160 174 0
156 173 0
159 177 0
159 176 0
145 160 0
160 175 0
158 174 0
161 177 0
159 174 0
164 181 0
167 184 0
155 172 0
158 173 0
157 172 0
154 170 0
165 181 0
159 173 0
162 178 0
164 180 0
158 174 0
164 178 0
167 184 0
156 173 0
159 174 0
160 173 0
161 178 0
162 177 0
157 172 0
162 178 0
160 174 0
161 176 0
164 180 0
161 176 0
161 175 0
155 170 0
164 179 0
159 173 0
164 178 0
161 176 0
165 178 0
160 172 0
160 174 0
164 179 0
164 178 0
163 176 0
157 174 0
158 172 0
159 173 0
164 179 0
160 175 0
161 174 0
159 173 0
158 171 0
162 175 0
157 172 0
160 171 0
165 179 0
163 177 0
157 171 0
161 172 0
158 171 0
165 177 0
163 178 0
165 179 0
157 168 0
161 174 0
161 175 0
162 176 0
160 173 0
160 173 0
164 178 0
164 177 0
178 199 0
173 195 0
174 195 0
177 198 0
176 197 0
171 192 0
175 197 0
175 196 0
172 193 0
176 198 0
174 195 0
172 193 0
173 195 0
175 196 0
176 197 0
179 201 0
177 198 0
170 192 0
176 197 0
173 195 0
170 192 0
174 195 0
172 194 0
163 185 0
174 195 0
172 193 0
172 193 0
172 194 0
175 197 0
171 192 0
179 200 0
172 194 0
172 193 0
170 190 0
174 195 0
175 196 0
170 192 0
172 194 0
167 189 0
169 191 0
172 194 0
169 192 0
171 192 0
169 191 0
168 189 0
168 190 0
169 190 0
173 194 0
175 197 0
173 194 0
172 194 0
169 190 0
173 194 0
169 191 0
170 193 0
166 186 0
171 193 0
170 192 0
170 191 0
172 193 0
166 187 0
171 193 0
168 190 0
176 198 0
171 192 0
170 192 0
172 194 0
169 190 0
171 192 0
167 189 0
162 183 0
167 188 0
169 190 0
170 191 0
170 191 0
170 191 0
172 194 0
171 192 0
170 192 0
170 192 0
171 192 0
169 191 0
168 190 0
167 189 0
170 192 0
162 185 0
173 194 0
169 191 0
167 189 0
165 188 0
166 188 0
166 188 0
167 189 0
167 189 0
171 193 0
171 193 0
161 184 0
175 197 0
170 193 0
164 187 0
170 191 0
166 188 0
162 184 0
165 187 0
164 186 0
166 188 0
167 189 0
168 190 0
173 194 0
164 187 0
166 187 0
165 186 0
166 187 0
160 180 0
163 183 0
161 182 0
163 184 0
169 190 0
170 192 0
164 186 0
167 188 0
167 189 0
168 190 0
169 191 0
164 185 0
163 185 0
157 179 0
168 190 0
163 185 0
159 179 0
166 188 0
166 187 0
167 188 0
164 186 0
162 182 0
163 185 0
168 189 0
165 187 0
167 188 0
164 186 0
158 179 0
164 186 0
161 182 0
163 185 0
164 186 0
163 184 0
154 175 0
163 184 0
162 184 0
162 184 0
165 186 0
168 190 0
161 182 0
168 189 0
165 187 0
163 183 0
161 184 0
155 176 0
157 179 0
161 182 0
163 183 0
163 185 0
164 184 0
166 187 0
169 190 0
157 179 0
162 182 0
160 181 0
160 181 0
164 185 0
164 185 0
167 188 0
158 180 0
156 177 0
163 184 0
162 183 0
160 180 0
154 176 0
167 188 0
155 176 0
157 177 0
160 182 0
168 189 0
158 180 0
159 181 0
163 183 0
158 178 0
154 175 0
162 184 0
168 190 0
160 180 0
164 184 0
156 178 0
166 188 0
161 183 0
162 182 0
160 180 0
160 181 0
154 174 0
153 174 0
162 183 0
157 176 0
161 182 0
159 179 0
153 173 0
150 171 0
159 179 0
157 178 0
159 181 0
155 175 0
159 180 0
160 179 0
162 182 0
165 186 0
157 177 0
160 180 0
159 178 0
158 178 0
160 180 0
160 181 0
156 174 0
161 180 0
154 173 0
159 179 0
154 173 0
157 177 0
150 169 0
164 184 0
163 183 0
158 179 0
158 177 0
151 172 0
161 182 0
161 180 0
164 185 0
168 189 0
160 181 0
154 173 0
163 183 0
158 178 0
159 178 0
152 170 0
157 177 0
166 186 0
151 170 0
159 178 0
162 183 0
156 175 0
159 177 0
161 181 0
162 181 0
155 175 0
157 177 0
154 174 0
164 185 0
160 179 0
158 179 0
158 179 0
161 182 0
163 182 0
158 179 0
164 183 0
160 180 0
162 182 0
162 180 0
157 176 0
160 181 0
158 178 0
162 182 0
153 172 0
157 176 0
159 180 0
163 183 0
156 175 0
155 176 0
155 174 0
157 176 0
156 175 0
152 171 0
163 182 0
164 183 0
153 171 0
161 179 0
159 177 0
153 173 0
154 171 0
158 175 0
160 179 0
157 175 0
160 179 0
163 182 0
156 174 0
158 176 0
158 176 0
159 177 0
162 182 0
158 177 0
162 180 0
162 180 0
160 179 0
158 177 0
157 175 0
160 177 0
160 176 0
163 181 0
159 177 0
166 184 0
159 177 0
159 178 0
163 180 0
160 177 0
161 179 0
157 175 0
160 179 0
161 177 0
159 176 0
155 172 0
151 168 0
163 180 0
163 180 0
159 175 0
158 176 0
162 180 0
156 171 0
160 177 0
161 177 0
160 176 0
160 174 0
155 173 0
158 175 0
158 173 0
162 179 0
161 177 0
159 175 0
160 177 0
160 174 0
156 172 0
154 168 0
160 176 0
159 175 0
166 182 0
158 174 0
159 174 0
155 171 0
159 175 0
158 175 0
160 175 0
157 172 0
161 176 0
158 172 0
155 171 0
163 178 0
162 178 0
163 179 0
165 179 0
161 177 0
156 170 0
155 167 0
157 172 0
163 177 0
157 171 0
157 172 0
154 171 0
163 178 0
162 176 0
162 179 0
166 182 0
159 172 0
167 181 0
167 177 0
166 181 0
155 170 0
154 167 0
159 171 0
160 176 0
168 180 0
156 169 0
164 178 0
158 172 0
162 177 0
158 171 0
167 181 0
160 172 0
164 179 0
155 168 0
163 177 0
159 172 0
161 175 0
160 173 0
160 174 0
160 176 0
156 167 0
162 176 0
168 183 0
164 177 0
170 185 0
165 180 0
159 172 0
163 176 0
168 181 0
173 194 0
176 197 0
178 200 0
174 195 0
174 194 0
172 193 0
177 198 0
177 198 0
179 200 0
174 195 0
170 191 0
171 192 0
175 196 0
177 198 0
171 193 0
176 198 0
170 192 0
167 188 0
173 194 0
176 197 0
174 196 0
172 195 0
166 187 0
175 196 0
174 195 0
172 194 0
173 195 0
174 195 0
172 193 0
173 194 0
169 189 0
172 193 0
174 195 0
170 192 0
173 195 0
170 191 0
169 190 0
170 190 0
172 194 0
174 195 0
170 192 0
172 194 0
170 192 0
175 197 0
171 192 0
170 192 0
170 191 0
173 195 0
171 192 0
171 193 0
172 193 0
173 195 0
174 196 0
167 188 0
171 192 0
170 192 0
171 193 0
169 190 0
172 194 0
167 188 0
170 192 0
168 189 0
176 197 0
168 189 0
164 186 0
172 192 0
170 192 0
167 189 0
167 188 0
169 189 0
167 188 0
169 189 0
162 184 0
170 193 0
169 191 0
169 190 0
172 194 0
171 193 0
166 187 0
173 195 0
170 192 0
170 192 0
172 193 0
166 187 0
174 195 0
168 189 0
170 192 0
168 190 0
172 193 0
172 194 0
165 188 0
172 195 0
167 190 0
166 189 0
168 190 0
163 185 0
166 187 0
169 190 0
173 194 0
164 185 0
164 185 0
169 190 0
167 189 0
160 181 0
171 193 0
173 193 0
167 189 0
169 191 0
169 190 0
165 187 0
170 190 0
166 188 0
166 188 0
160 181 0
168 190 0
168 190 0
169 191 0
167 189 0
165 187 0
167 188 0
169 190 0
168 190 0
170 191 0
157 179 0
160 182 0
164 185 0
159 181 0
161 183 0
164 185 0
168 190 0
165 186 0
161 182 0
163 185 0
163 184 0
167 190 0
166 187 0
164 186 0
163 184 0
162 184 0
166 188 0
169 191 0
167 189 0
163 184 0
161 183 0
160 182 0
161 182 0
164 186 0
164 185 0
158 179 0
163 185 0
159 181 0
161 183 0
163 184 0
160 182 0
164 185 0
164 184 0
158 179 0
163 185 0
154 176 0
157 178 0
165 185 0
156 177 0
166 188 0
161 182 0
165 187 0
158 180 0
163 185 0
156 176 0
158 179 0
158 178 0
159 180 0
162 183 0
166 187 0
162 181 0
162 183 0
157 178 0
155 176 0
164 184 0
162 183 0
157 178 0
166 186 0
159 180 0
166 187 0
162 183 0
163 184 0
163 184 0
164 185 0
154 175 0
165 186 0
158 180 0
165 185 0
165 185 0
158 179 0
167 189 0
162 184 0
158 179 0
160 180 0
164 185 0
162 182 0
160 180 0
163 183 0
158 179 0
158 179 0
159 180 0
145 166 0
157 179 0
150 171 0
157 177 0
164 185 0
157 177 0
155 175 0
156 178 0
158 179 0
164 185 0
161 181 0
163 183 0
157 177 0
161 182 0
163 184 0
156 176 0
159 179 0
157 177 0
163 183 0
158 178 0
157 178 0
164 185 0
158 179 0
159 178 0
152 172 0
155 175 0
164 184 0
164 185 0
163 183 0
158 178 0
158 178 0
148 167 0
157 177 0
160 181 0
155 175 0
147 167 0
155 175 0
159 179 0
160 180 0
155 175 0
158 178 0
155 175 0
154 173 0
155 174 0
155 175 0
155 174 0
157 176 0
155 175 0
163 184 0
151 172 0
155 174 0
157 177 0
157 177 0
160 180 0
156 173 0
156 176 0
163 182 0
163 181 0
164 182 0
159 179 0
161 181 0
153 172 0
158 174 0
158 177 0
162 180 0
157 176 0
163 179 0
160 180 0
157 177 0
159 178 0
164 183 0
162 181 0
160 178 0
155 173 0
158 177 0
163 182 0
159 177 0
159 178 0
164 183 0
165 184 0
157 177 0
158 175 0
157 175 0
160 179 0
162 181 0
164 184 0
156 174 0
155 171 0
160 178 0
162 180 0
162 179 0
164 183 0
161 180 0
157 175 0
154 169 0
160 178 0
162 179 0
159 177 0
159 176 0
156 173 0
165 183 0
158 176 0
160 179 0
151 169 0
164 184 0
158 175 0
156 173 0
166 184 0
164 182 0
160 177 0
160 178 0
159 176 0
162 181 0
154 171 0
162 181 0
157 174 0
164 181 0
159 176 0
161 179 0
167 184 0
159 175 0
158 176 0
166 183 0
165 182 0
164 178 0
165 182 0
155 172 0
158 173 0
158 173 0
162 176 0
155 172 0
156 172 0
157 174 0
158 176 0
168 183 0
158 173 0
165 180 0
160 176 0
159 175 0
156 171 0
156 171 0
164 181 0
166 181 0
159 175 0
155 167 0
158 173 0
159 176 0
153 169 0
160 176 0
158 172 0
165 182 0
159 174 0
160 175 0
161 177 0
168 182 0
159 176 0
161 175 0
156 169 0
164 178 0
165 182 0
161 176 0
165 182 0
155 171 0
163 177 0
159 176 0
160 175 0
162 176 0
163 177 0
157 169 0
163 179 0
162 175 0
162 177 0
159 171 0
164 177 0
161 174 0
165 180 0
162 176 0
164 179 0
165 180 0
162 177 0
170 184 0
159 173 0
160 172 0
159 172 0
158 171 0
164 178 0
164 179 0
162 174 0
163 176 0
156 170 0
169 183 0
168 179 0
166 180 0
162 176 0
166 180 0
155 168 0
176 198 0
172 194 0
179 200 0
172 194 0
176 197 0
175 197 0
179 200 0
179 200 0
176 197 0
176 197 0
176 197 0
170 192 0
175 196 0
173 194 0
171 194 0
170 191 0
173 194 0
169 190 0
177 198 0
175 197 0
173 195 0
174 195 0
169 191 0
176 197 0
169 190 0
170 192 0
174 196 0
165 187 0
174 195 0
167 189 0
171 192 0
166 188 0
165 187 0
175 198 0
175 197 0
172 194 0
176 197 0
170 192 0
172 194 0
171 193 0
172 193 0
176 196 0
173 195 0
167 189 0
166 188 0
168 189 0
173 195 0
168 190 0
171 192 0
171 192 0
174 195 0
171 193 0
174 196 0
171 193 0
172 194 0
172 194 0
171 192 0
172 194 0
175 197 0
168 189 0
165 187 0
172 193 0
166 188 0
174 196 0
170 191 0
168 190 0
167 189 0
167 189 0
170 192 0
174 195 0
172 194 0
165 187 0
166 187 0
171 192 0
165 187 0
169 192 0
163 185 0
170 191 0
168 190 0
170 190 0
168 190 0
169 191 0
169 191 0
165 187 0
169 191 0
169 191 0
175 195 0
173 194 0
171 192 0
167 190 0
166 189 0
168 190 0
167 188 0
168 189 0
169 190 0
168 190 0
167 189 0
169 191 0
172 193 0
169 190 0
163 184 0
158 179 0
168 191 0
167 188 0
169 191 0
167 187 0
172 193 0
167 188 0
169 190 0
168 189 0
165 186 0
167 189 0
167 188 0
169 191 0
167 188 0
161 182 0
168 189 0
168 189 0
167 189 0
166 189 0
164 186 0
166 186 0
168 189 0
163 185 0
165 186 0
164 185 0
161 183 0
169 191 0
161 183 0
166 187 0
164 185 0
164 186 0
161 183 0
169 190 0
154 175 0
170 191 0
161 182 0
161 183 0
163 185 0
168 190 0
166 187 0
166 188 0
160 181 0
160 180 0
163 185 0
158 180 0
170 191 0
162 184 0
165 186 0
162 183 0
170 191 0
163 184 0
160 180 0
169 191 0
163 184 0
166 187 0
160 181 0
156 178 0
170 193 0
165 186 0
166 187 0
163 185 0
161 182 0
156 177 0
160 180 0
158 179 0
169 190 0
163 184 0
166 187 0
154 175 0
159 179 0
163 184 0
160 182 0
158 180 0
159 179 0
161 182 0
160 181 0
169 190 0
167 187 0
162 183 0
160 180 0
161 182 0
162 182 0
163 185 0
165 185 0
160 180 0
153 174 0
170 191 0
157 178 0
160 181 0
159 180 0
158 178 0
161 183 0
158 179 0
158 179 0
164 184 0
164 186 0
163 183 0
162 184 0
158 178 0
166 186 0
157 178 0
157 179 0
164 183 0
157 179 0
156 176 0
159 180 0
161 182 0
156 177 0
159 180 0
160 181 0
158 179 0
154 173 0
159 180 0
161 183 0
159 179 0
156 175 0
157 175 0
158 177 0
161 181 0
157 177 0
159 179 0
151 171 0
155 175 0
155 174 0
163 184 0
159 179 0
158 178 0
162 182 0
162 183 0
164 184 0
164 185 0
162 182 0
161 182 0
160 181 0
156 176 0
157 176 0
156 177 0
161 182 0
153 173 0
164 183 0
160 178 0
156 175 0
159 179 0
159 179 0
156 176 0
161 181 0
158 176 0
161 182 0
158 178 0
165 183 0
162 183 0
164 184 0
158 179 0
158 178 0
160 181 0
162 182 0
161 180 0
161 179 0
161 180 0
163 184 0
161 183 0
163 183 0
157 178 0
155 174 0
161 180 0
166 184 0
159 176 0
163 183 0
158 177 0
159 179 0
159 179 0
153 172 0
154 174 0
164 184 0
148 165 0
155 174 0
159 178 0
159 177 0
166 184 0
162 182 0
160 180 0
157 176 0
162 179 0
161 180 0
157 175 0
161 181 0
159 179 0
149 166 0
158 177 0
158 177 0
162 180 0
154 174 0
158 175 0
151 170 0
161 178 0
150 166 0
157 175 0
165 186 0
158 177 0
161 179 0
160 179 0
158 176 0
165 184 0
159 175 0
165 183 0
162 180 0
161 179 0
160 177 0
157 175 0
161 179 0
156 176 0
159 176 0
158 176 0
154 172 0
155 173 0
164 182 0
164 183 0
165 184 0
156 172 0
161 178 0
162 180 0
160 177 0
162 179 0
163 180 0
166 185 0
159 177 0
160 176 0
158 173 0
153 169 0
159 177 0
162 180 0
166 181 0
161 177 0
153 168 0
157 172 0
161 177 0
160 174 0
162 178 0
158 174 0
169 186 0
164 181 0
160 177 0
164 180 0
158 174 0
158 171 0
169 188 0
160 176 0
159 175 0
157 173 0
160 175 0
158 174 0
166 184 0
163 180 0
164 179 0
161 177 0
166 184 0
160 174 0
160 174 0
157 173 0
158 173 0
156 171 0
153 168 0
165 180 0
154 168 0
159 174 0
164 181 0
165 181 0
160 174 0
163 178 0
166 179 0
166 181 0
164 181 0
161 176 0
164 178 0
165 178 0
164 179 0
161 177 0
163 176 0
162 176 0
165 181 0
161 176 0
162 173 0
161 172 0
162 176 0
164 178 0
160 173 0
159 172 0
160 175 0
159 172 0
157 168 0
163 179 0
167 182 0
158 171 0
164 178 0
168 183 0
165 181 0
162 175 0
168 183 0
166 177 0
168 190 0
172 193 0
172 193 0
175 196 0
173 195 0
170 191 0
174 196 0
177 199 0
171 192 0
175 197 0
174 195 0
175 197 0
177 198 0
173 194 0
175 196 0
169 190 0
172 194 0
169 192 0
170 191 0
172 194 0
172 193 0
173 194 0
170 192 0
170 192 0
172 193 0
169 191 0
172 193 0
173 194 0
171 192 0
170 192 0
173 195 0
177 199 0
175 196 0
172 194 0
175 197 0
170 193 0
173 194 0
175 196 0
175 197 0
170 191 0
172 194 0
171 193 0
171 192 0
173 195 0
170 191 0
168 190 0
170 191 0
164 186 0
171 193 0
171 192 0
174 195 0
174 196 0
172 194 0
174 195 0
172 194 0
167 189 0
170 191 0
170 192 0
169 189 0
173 194 0
168 190 0
166 188 0
172 194 0
171 193 0
170 192 0
172 195 0
165 188 0
171 191 0
164 186 0
164 186 0
171 193 0
173 195 0
170 191 0
168 190 0
171 193 0
167 189 0
168 189 0
165 187 0
170 192 0
164 186 0
173 194 0
164 186 0
165 186 0
167 189 0
168 189 0
172 193 0
169 190 0
168 189 0
166 188 0
171 193 0
164 185 0
173 194 0
166 188 0
165 187 0
174 195 0
168 190 0
163 185 0
172 193 0
167 189 0
173 195 0
165 188 0
171 193 0
169 191 0
168 190 0
170 192 0
165 187 0
168 188 0
166 189 0
163 184 0
166 188 0
157 179 0
162 184 0
166 188 0
159 179 0
165 187 0
167 189 0
164 186 0
169 191 0
163 184 0
167 188 0
169 190 0
162 185 0
159 179 0
168 188 0
170 190 0
163 185 0
163 184 0
168 190 0
162 183 0
169 191 0
168 190 0
164 185 0
158 179 0
162 183 0
159 180 0
162 184 0
163 184 0
165 185 0
165 187 0
164 185 0
163 185 0
163 184 0
160 181 0
162 184 0
163 183 0
163 184 0
159 180 0
162 184 0
157 179 0
163 185 0
161 182 0
163 183 0
165 187 0
167 189 0
160 181 0
159 180 0
157 178 0
160 181 0
157 179 0
157 177 0
161 182 0
160 182 0
161 183 0
166 188 0
159 180 0
159 180 0
165 186 0
171 192 0
163 184 0
169 190 0
157 178 0
162 184 0
168 188 0
166 188 0
162 183 0
162 185 0
160 181 0
167 187 0
165 186 0
162 183 0
161 182 0
160 182 0
164 185 0
161 181 0
163 183 0
165 187 0
164 184 0
160 180 0
161 183 0
162 182 0
168 188 0
156 177 0
164 184 0
160 181 0
154 176 0
155 177 0
162 183 0
158 178 0
158 178 0
161 182 0
155 176 0
160 180 0
162 183 0
157 176 0
155 175 0
163 183 0
156 177 0
155 176 0
162 183 0
158 179 0
157 177 0
158 178 0
154 175 0
156 176 0
165 186 0
157 177 0
162 182 0
166 185 0
154 176 0
160 181 0
161 180 0
163 186 0
153 174 0
162 182 0
166 186 0
152 172 0
161 182 0
156 177 0
160 181 0
158 178 0
165 186 0
155 177 0
158 178 0
154 174 0
158 179 0
155 175 0
160 180 0
159 179 0
160 180 0
164 184 0
157 177 0
160 180 0
163 182 0
163 182 0
163 183 0
161 182 0
161 180 0
160 180 0
164 184 0
158 179 0
154 173 0
152 172 0
161 180 0
165 186 0
163 183 0
162 182 0
158 177 0
158 177 0
163 183 0
159 177 0
158 177 0
161 180 0
164 183 0
163 182 0
158 178 0
163 182 0
163 183 0
167 187 0
159 177 0
154 172 0
156 174 0
157 177 0
166 187 0
156 174 0
160 179 0
160 179 0
160 179 0
161 180 0
156 173 0
162 181 0
159 178 0
164 183 0
160 179 0
165 186 0
164 184 0
165 185 0
154 172 0
163 179 0
161 180 0
159 176 0
156 173 0
167 185 0
157 177 0
159 177 0
159 177 0
161 178 0
160 180 0
162 180 0
167 185 0
163 180 0
159 178 0
155 173 0
160 178 0
154 171 0
158 177 0
166 185 0
158 175 0
162 181 0
161 180 0
162 180 0
151 168 0
158 176 0
159 175 0
159 177 0
162 180 0
160 178 0
158 175 0
156 174 0
158 176 0
159 177 0
163 181 0
159 174 0
162 179 0
162 179 0
159 179 0
161 178 0
159 176 0
154 169 0
159 176 0
160 176 0
154 171 0
159 175 0
162 180 0
164 182 0
164 180 0
154 169 0
157 173 0
165 183 0
158 174 0
161 177 0
160 176 0
155 171 0
156 173 0
158 174 0
161 177 0
159 175 0
154 170 0
159 175 0
161 177 0
161 177 0
157 173 0
164 180 0
161 177 0
153 172 0
168 185 0
164 180 0
159 175 0
156 173 0
164 178 0
162 175 0
159 173 0
161 176 0
158 175 0
163 176 0
162 179 0
164 181 0
162 177 0
162 176 0
155 169 0
165 179 0
162 176 0
159 174 0
164 177 0
157 172 0
162 175 0
161 174 0
160 176 0
163 178 0
161 173 0
168 184 0
158 172 0
164 176 0
162 175 0
159 174 0
160 174 0
166 181 0
161 175 0
166 179 0
163 178 0
161 176 0
160 174 0
162 175 0
162 177 0
159 171 0
159 172 0
165 179 0
158 170 0
162 175 0
160 173 0
171 187 0
177 198 0
172 194 0
174 196 0
173 195 0
169 190 0
175 196 0
175 197 0
175 197 0
172 192 0
173 195 0
179 200 0
171 192 0
174 195 0
173 194 0
168 189 0
177 197 0
170 192 0
175 196 0
175 197 0
172 194 0
179 201 0
169 191 0
173 195 0
171 192 0
173 195 0
172 193 0
172 194 0
175 196 0
173 194 0
178 200 0
174 195 0
167 188 0
171 193 0
174 196 0
167 188 0
172 194 0
173 194 0
173 195 0
172 194 0
174 195 0
170 193 0
175 195 0
172 193 0
171 193 0
170 191 0
165 186 0
166 188 0
176 198 0
174 196 0
171 193 0
170 192 0
171 192 0
164 186 0
171 193 0
167 189 0
172 193 0
171 193 0
172 193 0
171 192 0
168 190 0
168 190 0
170 192 0
167 188 0
171 192 0
170 192 0
169 191 0
173 194 0
167 188 0
171 193 0
167 189 0
165 187 0
170 191 0
172 193 0
171 193 0
169 192 0
167 189 0
166 187 0
166 188 0
172 194 0
169 191 0
164 186 0
166 189 0
168 190 0
170 191 0
175 196 0
172 194 0
169 192 0
171 191 0
164 186 0
165 186 0
164 185 0
172 194 0
168 190 0
165 187 0
165 187 0
164 186 0
168 189 0
168 190 0
165 187 0
162 184 0
172 194 0
164 186 0
167 188 0
169 191 0
170 193 0
167 188 0
169 191 0
163 185 0
170 192 0
158 179 0
171 193 0
158 179 0
165 186 0
165 186 0
159 180 0
164 186 0
161 182 0
162 183 0
166 187 0
163 184 0
161 182 0
163 184 0
163 184 0
163 185 0
161 183 0
165 187 0
170 191 0
162 184 0
163 185 0
169 190 0
161 183 0
160 182 0
164 186 0
164 185 0
167 189 0
165 187 0
164 185 0
161 182 0
167 188 0
160 181 0
158 179 0
167 188 0
168 189 0
164 185 0
170 191 0
160 181 0
161 183 0
162 183 0
168 189 0
167 189 0
163 185 0
159 181 0
161 183 0
171 192 0
160 183 0
162 183 0
162 183 0
166 187 0
165 187 0
164 184 0
161 182 0
159 180 0
169 189 0
168 189 0
162 184 0
161 182 0
169 189 0
158 178 0
164 184 0
159 181 0
162 183 0
156 178 0
164 186 0
166 187 0
160 181 0
161 181 0
162 184 0
159 180 0
161 182 0
158 179 0
156 176 0
155 176 0
161 183 0
160 181 0
165 185 0
165 185 0
160 180 0
158 177 0
158 179 0
161 182 0
165 185 0
151 171 0
150 170 0
160 180 0
159 179 0
160 180 0
159 179 0
156 176 0
161 181 0
160 180 0
165 184 0
161 182 0
160 180 0
161 182 0
162 184 0
163 184 0
156 177 0
152 174 0
162 182 0
156 178 0
159 179 0
164 185 0
158 178 0
159 177 0
165 186 0
164 185 0
158 176 0
157 178 0
151 171 0
164 184 0
159 179 0
161 182 0
163 183 0
155 176 0
162 183 0
159 180 0
157 176 0
160 179 0
168 188 0
154 174 0
154 173 0
155 176 0
156 177 0
157 177 0
157 177 0
158 179 0
159 181 0
164 183 0
156 177 0
169 190 0
149 167 0
163 181 0
161 179 0
158 178 0
163 182 0
164 185 0
148 167 0
156 177 0
169 189 0
161 181 0
161 181 0
155 173 0
162 183 0
159 179 0
158 176 0
160 181 0
157 176 0
155 176 0
163 184 0
160 179 0
162 182 0
158 176 0
160 179 0
162 182 0
161 181 0
155 175 0
163 181 0
157 178 0
162 182 0
157 176 0
155 175 0
160 179 0
155 175 0
155 174 0
163 184 0
161 180 0
157 176 0
165 185 0
164 183 0
164 183 0
160 179 0
159 178 0
162 183 0
164 184 0
162 182 0
160 180 0
152 172 0
157 177 0
165 185 0
157 175 0
159 178 0
153 171 0
150 167 0
170 190 0
165 183 0
163 182 0
148 166 0
163 181 0
160 178 0
161 180 0
164 184 0
163 181 0
159 179 0
163 182 0
151 167 0
163 182 0
160 177 0
163 183 0
158 174 0
157 175 0
166 186 0
166 184 0
165 181 0
161 179 0
166 185 0
159 173 0
158 175 0
156 176 0
164 182 0
160 178 0
159 176 0
164 181 0
166 183 0
164 181 0
161 179 0
160 177 0
163 180 0
161 179 0
160 177 0
156 175 0
158 173 0
163 181 0
160 175 0
161 178 0
156 174 0
162 177 0
156 174 0
166 182 0
166 183 0
155 171 0
161 178 0
162 177 0
164 180 0
164 181 0
161 177 0
163 181 0
154 171 0
160 176 0
159 176 0
160 177 0
163 177 0
161 179 0
161 178 0
164 179 0
156 171 0
163 180 0
166 181 0
161 176 0
165 181 0
161 177 0
159 173 0
157 172 0
155 169 0
162 177 0
167 182 0
163 180 0
166 184 0
157 171 0
165 181 0
154 168 0
163 178 0
162 177 0
159 174 0
160 174 0
160 175 0
164 179 0
162 178 0
161 176 0
163 180 0
159 173 0
164 179 0
163 179 0
159 174 0
162 176 0
158 171 0
161 174 0
157 169 0
164 179 0
156 168 0
159 173 0
165 178 0
162 175 0
157 168 0
161 176 0
166 182 0
159 172 0
166 182 0
166 182 0
164 179 0
166 181 0
177 198 0
176 199 0
168 189 0
173 195 0
167 188 0
176 198 0
172 193 0
175 195 0
172 193 0
176 198 0
171 192 0
171 193 0
176 198 0
174 196 0
174 195 0
176 196 0
173 195 0
172 194 0
171 193 0
173 194 0
174 196 0
168 189 0
167 188 0
176 197 0
171 194 0
174 195 0
171 192 0
173 195 0
176 198 0
172 195 0
170 192 0
173 194 0
172 193 0
175 196 0
170 190 0
174 196 0
172 193 0
173 195 0
173 195 0
171 192 0
172 194 0
170 193 0
173 195 0
175 196 0
171 194 0
173 195 0
173 194 0
167 189 0
170 191 0
168 190 0
167 189 0
171 193 0
175 197 0
171 194 0
169 191 0
170 191 0
172 193 0
169 192 0
167 189 0
166 189 0
171 193 0
174 196 0
170 191 0
171 193 0
170 191 0
165 187 0
169 190 0
167 188 0
175 197 0
165 186 0
168 190 0
171 192 0
168 189 0
170 192 0
173 195 0
170 191 0
170 192 0
168 190 0
169 192 0
164 186 0
164 186 0
169 191 0
167 189 0
166 188 0
168 190 0
167 188 0
171 192 0
171 193 0
164 186 0
169 191 0
171 193 0
164 186 0
168 190 0
162 184 0
171 192 0
168 191 0
171 193 0
165 187 0
164 186 0
168 190 0
166 187 0
166 188 0
170 191 0
168 190 0
168 190 0
167 188 0
166 188 0
170 192 0
174 194 0
160 181 0
172 193 0
157 179 0
157 179 0
165 185 0
168 189 0
166 187 0
166 187 0
168 189 0
166 188 0
160 181 0
174 196 0
167 188 0
167 189 0
162 183 0
161 183 0
170 192 0
163 184 0
168 189 0
168 189 0
166 188 0
160 181 0
168 190 0
163 185 0
169 190 0
172 192 0
168 189 0
161 182 0
172 193 0
163 184 0
163 185 0
169 191 0
167 190 0
163 186 0
162 183 0
163 186 0
173 195 0
162 183 0
166 188 0
159 180 0
163 184 0
160 181 0
161 181 0
169 190 0
161 182 0
166 189 0
157 179 0
158 179 0
161 182 0
167 188 0
161 183 0
167 189 0
162 183 0
163 184 0
164 185 0
161 183 0
172 193 0
162 183 0
164 186 0
166 186 0
162 183 0
153 175 0
167 187 0
159 180 0
161 181 0
157 178 0
157 177 0
161 182 0
158 178 0
162 182 0
165 186 0
163 184 0
162 183 0
166 187 0
162 184 0
160 181 0
155 175 0
161 182 0
165 186 0
161 182 0
166 187 0
158 179 0
162 182 0
161 181 0
162 182 0
161 182 0
164 185 0
161 182 0
159 180 0
165 186 0
156 177 0
161 181 0
155 175 0
159 181 0
163 184 0
160 181 0
162 184 0
160 181 0
159 179 0
160 181 0
164 183 0
152 173 0
155 176 0
153 174 0
161 182 0
160 181 0
159 178 0
163 183 0
156 176 0
153 174 0
159 179 0
159 178 0
155 175 0
150 170 0
160 180 0
157 178 0
157 178 0
161 181 0
163 183 0
162 181 0
160 181 0
161 182 0
162 183 0
152 172 0
152 172 0
154 175 0
156 174 0
162 182 0
160 181 0
161 183 0
161 182 0
153 173 0
159 179 0
162 182 0
158 177 0
164 184 0
164 184 0
163 184 0
159 178 0
160 180 0
161 182 0
158 178 0
161 181 0
160 178 0
159 180 0
163 184 0
163 182 0
161 180 0
160 180 0
160 179 0
158 177 0
162 181 0
162 181 0
158 177 0
156 175 0
160 180 0
156 176 0
164 183 0
159 179 0
161 181 0
160 177 0
159 177 0
162 180 0
161 181 0
160 179 0
156 177 0
159 179 0
158 178 0
162 181 0
164 184 0
162 182 0
160 178 0
165 184 0
162 180 0
156 177 0
156 176 0
158 177 0
162 182 0
164 184 0
164 184 0
160 180 0
157 175 0
157 175 0
166 185 0
164 183 0
169 188 0
157 176 0
156 175 0
168 188 0
157 175 0
163 181 0
152 169 0
160 177 0
163 183 0
156 173 0
158 176 0
158 174 0
157 176 0
157 175 0
156 175 0
163 182 0
159 177 0
160 177 0
162 181 0
164 182 0
154 171 0
162 178 0
155 172 0
160 177 0
158 175 0
170 188 0
159 177 0
159 178 0
157 174 0
162 178 0
158 176 0
166 185 0
159 176 0
164 181 0
156 170 0
155 172 0
165 183 0
166 181 0
166 182 0
160 177 0
165 183 0
157 174 0
162 179 0
163 179 0
155 171 0
164 180 0
158 176 0
161 177 0
158 175 0
163 180 0
156 171 0
162 180 0
162 178 0
166 182 0
161 176 0
160 175 0
155 170 0
160 177 0
159 173 0
162 179 0
154 170 0
163 181 0
155 171 0
165 180 0
163 177 0
167 182 0
162 177 0
157 173 0
164 180 0
160 173 0
158 172 0
157 174 0
159 175 0
165 179 0
165 180 0
161 177 0
165 181 0
166 182 0
159 173 0
160 177 0
162 178 0
162 175 0
157 170 0
165 181 0
165 182 0
166 182 0
162 177 0
161 176 0
160 177 0
165 183 0
163 181 0
161 177 0
164 179 0
165 180 0
165 176 0
164 179 0
167 182 0
159 172 0
156 170 0
165 180 0
161 175 0
166 182 0
161 175 0
158 170 0
165 179 0
155 169 0
